;FLAVOR:Marlin
;TIME:1837
;Filament used: 1.41403m
;Layer height: 0.26
;MINX:35.495
;MINY:17.688
;MINZ:0.263
;MAXX:84.909
;MAXY:106.631
;MAXZ:3.123
;Generated with Cura_SteamEngine master
M140 S70
M105
M190 S70
M104 S235
M105
M109 S235
M82 ;absolute extrusion mode
G21;(metric values)
G90;(absolute positioning)
M82;(set extruder to absolute mode)
M107;(start with the fan off)
G28;(Home the printer)
G92 E0;(Reset the extruder to 0)
G0 X0 Y-1 Z0;(Move outside the printable area)
G1 X60 E8 F500;(Draw a priming/wiping line to the side)
G92 E0;(Zero the extruder)
G1 X100; (Move the rest of the way to wipe)
G1 Z5;
G1 X0 Y0;
G1 Z0;
G92 E0
G92 E0
G1 F2400 E-4.5
;LAYER_COUNT:12
;LAYER:0
M107
;MESH:TRN_BLADE_8.STL
G0 F2880 X83.821 Y94.229 Z0.263
;TYPE:WALL-INNER
G1 F2400 E0
G1 F1200 X72.366 Y105.685 E0.61999
G1 X71.552 Y104.898 E0.66332
G1 X65.659 Y98.353 E1.00037
G1 X60.245 Y91.423 E1.33692
G1 X55.31 Y84.107 E1.67465
G1 X50.927 Y76.514 E2.01017
G1 X47.059 Y68.585 E2.34779
G1 X43.762 Y60.425 E2.6846
G1 X41.043 Y52.058 E3.02129
G1 X38.914 Y43.515 E3.35823
G1 X37.382 Y34.828 E3.69581
G1 X36.466 Y26.095 E4.03185
G1 X36.201 Y18.543 E4.32105
G1 X36.195 Y18.363 E4.32794
G1 X36.375 Y18.363 E4.33236
G1 X36.376 Y18.363 E4.3324
G1 X52.58 Y18.363 E4.95252
G1 X52.81 Y24.943 E5.20449
G1 X53.61 Y32.561 E5.49764
G1 X54.94 Y40.105 E5.7908
G1 X56.793 Y47.537 E6.08393
G1 X59.16 Y54.821 E6.37704
G1 X62.03 Y61.922 E6.67015
G1 X65.388 Y68.808 E6.96334
G1 X69.217 Y75.441 E7.25644
G1 X73.501 Y81.792 E7.54962
G1 X78.217 Y87.827 E7.84273
G1 X83.341 Y93.519 E8.13583
G1 X83.819 Y93.981 E8.16127
G1 X83.946 Y94.104 E8.16804
G1 X83.821 Y94.229 E8.17238
G0 F2880 X84.32 Y94.224
G1 F1200 X72.37 Y106.175 E8.81916
G1 X71.303 Y105.144 E8.87594
G1 X65.39 Y98.577 E9.21413
G1 X59.96 Y91.627 E9.55166
G1 X55.014 Y84.294 E9.89016
G1 X50.616 Y76.675 E10.22683
G1 X46.738 Y68.725 E10.56534
G1 X43.434 Y60.549 E10.90282
G1 X40.705 Y52.149 E11.24083
G1 X38.571 Y43.589 E11.57845
G1 X37.037 Y34.889 E11.91653
G1 X36.116 Y26.116 E12.25412
G1 X35.838 Y18.193 E12.55752
G1 X35.832 Y18.013 E12.56441
G1 X36.012 Y18.013 E12.56883
G1 X36.013 Y18.013 E12.56887
G1 X52.918 Y18.013 E13.21582
G1 X53.159 Y24.919 E13.48027
G1 X53.957 Y32.512 E13.77246
G1 X55.283 Y40.032 E14.06469
G1 X57.13 Y47.44 E14.35687
G1 X59.489 Y54.701 E14.64905
G1 X62.35 Y61.78 E14.94125
G1 X65.697 Y68.644 E15.2335
G1 X69.514 Y75.255 E15.52564
G1 X73.784 Y81.586 E15.81789
G1 X78.485 Y87.602 E16.11007
G1 X83.593 Y93.276 E16.40225
G1 X84.317 Y93.976 E16.44079
G1 X84.318 Y93.977 E16.44084
G1 X84.445 Y94.099 E16.44758
G1 X84.32 Y94.224 E16.45192
G0 F2880 X84.784 Y94.22
;TYPE:WALL-OUTER
G1 F1200 X72.374 Y106.631 E17.1236
G1 X71.072 Y105.373 E17.19289
G1 X65.143 Y98.788 E17.532
G1 X59.698 Y91.819 E17.87045
G1 X54.745 Y84.476 E18.20942
G1 X50.327 Y76.823 E18.5476
G1 X46.441 Y68.856 E18.88683
G1 X43.129 Y60.66 E19.22514
G1 X40.393 Y52.239 E19.56399
G1 X38.253 Y43.655 E19.90255
G1 X36.715 Y34.935 E20.24142
G1 X35.791 Y26.133 E20.58012
G1 X35.501 Y17.868 E20.89662
G1 X35.495 Y17.688 E20.90351
G1 X35.675 Y17.688 E20.90793
G1 X35.676 Y17.688 E20.90797
G1 X53.232 Y17.688 E21.57984
G1 X53.483 Y24.896 E21.85585
G1 X54.279 Y32.467 E22.14719
G1 X55.601 Y39.964 E22.43853
G1 X57.443 Y47.35 E22.72985
G1 X59.795 Y54.59 E23.02117
G1 X62.647 Y61.648 E23.3125
G1 X65.984 Y68.491 E23.60386
G1 X69.79 Y75.083 E23.89517
G1 X74.047 Y81.395 E24.18653
G1 X78.734 Y87.393 E24.47785
G1 X83.827 Y93.05 E24.76915
G1 X84.781 Y93.972 E24.81992
G1 X84.782 Y93.973 E24.81998
G1 X84.909 Y94.095 E24.82672
G1 X84.784 Y94.22 E24.83106
G0 F2880 X84.643 Y94.361
G0 X84.45 Y94.167
G0 X83.638 Y93.926
G0 X83.46 Y94.108
;TYPE:SKIN
G1 F1200 X72.362 Y105.207 E25.43173
G1 X71.789 Y104.653 E25.46223
G1 X65.925 Y98.14 E25.79763
G1 X60.513 Y91.213 E26.13404
G1 X55.597 Y83.924 E26.4705
G1 X51.222 Y76.345 E26.80541
G1 X47.372 Y68.453 E27.14146
G1 X44.077 Y60.297 E27.4781
G1 X41.37 Y51.965 E27.81337
G1 X39.244 Y43.433 E28.14987
G1 X37.72 Y34.789 E28.48578
G1 X36.806 Y26.077 E28.82102
G1 X36.547 Y18.703 E29.10339
G1 X52.252 Y18.703 E29.70442
G1 X52.47 Y24.967 E29.94429
G1 X53.274 Y32.608 E30.23833
G1 X54.608 Y40.175 E30.53238
G1 X56.466 Y47.631 E30.82645
G1 X58.84 Y54.937 E31.12044
G1 X61.719 Y62.06 E31.41446
G1 X65.087 Y68.967 E31.70854
G1 X68.928 Y75.621 E32.00257
G1 X73.225 Y81.992 E32.29666
G1 X77.957 Y88.046 E32.59072
G1 X82.971 Y93.617 E32.87756
G0 F1080 X83.096 Y93.756
G0 X83.46 Y94.108
G0 F2880 X83.638 Y93.926
G0 X72.877 Y105.052
G0 X72.585 Y104.759
G1 F1200 X67.67 Y99.843 E33.1436
G1 X67.608 Y99.781
G0 F2880 X67.305 Y100.053
G0 X64.595 Y96.852
G0 X64.92 Y96.599
G1 F1200 X72.833 Y104.511 E33.57184
G0 F2880 X73.08 Y104.264
G1 F1200 X63.152 Y94.335 E34.10919
G1 X63.09 Y94.273
G0 F2880 X62.773 Y94.52
G0 X61.058 Y92.324
G0 X61.383 Y92.071
G1 F1200 X73.328 Y104.016 E34.75567
G0 F2880 X73.575 Y103.769
G1 F1200 X60.043 Y90.237 E35.48805
G1 X59.981 Y90.175
G0 F2880 X59.655 Y90.394
G0 X58.678 Y88.946
G0 X59.019 Y88.717
G1 F1200 X73.823 Y103.521 E36.28927
G0 F2880 X74.07 Y103.274
G1 F1200 X57.994 Y87.198 E37.15933
G1 X57.932 Y87.136
G0 F2880 X57.605 Y87.356
G0 X56.628 Y85.908
G0 X56.97 Y85.678
G1 F1200 X74.318 Y103.026 E38.09824
G0 F2880 X74.565 Y102.779
G1 F1200 X55.945 Y84.159 E39.10599
G1 X55.883 Y84.097
G0 F2880 X55.555 Y84.317
G0 X54.839 Y83.121
G0 X55.196 Y82.915
G1 F1200 X74.813 Y102.531 E40.16767
G0 F2880 X75.06 Y102.284
G1 F1200 X54.52 Y81.744 E41.27933
G1 X54.458 Y81.682
G0 F2880 X54.121 Y81.876
G0 X53.487 Y80.779
G0 X53.844 Y80.573
G1 F1200 X75.308 Y102.036 E42.44098
G0 F2880 X75.555 Y101.789
G1 F1200 X53.168 Y79.402 E43.6526
G1 X53.106 Y79.34
G0 F2880 X52.769 Y79.534
G0 X52.135 Y78.437
G0 X52.492 Y78.231
G1 F1200 X75.803 Y101.541 E44.91421
G0 F2880 X76.05 Y101.294
G1 F1200 X51.817 Y77.061 E46.22575
G1 X51.755 Y76.999
G0 F2880 X51.417 Y77.194
G0 X50.837 Y76.134
G0 X51.206 Y75.955
G1 F1200 X76.298 Y101.046 E47.58375
G0 F2880 X76.545 Y100.799
G1 F1200 X50.734 Y74.988 E48.98068
G1 X50.672 Y74.926
G0 F2880 X50.263 Y74.022
G1 F1200 X76.793 Y100.551 E50.41651
G0 F2880 X77.04 Y100.304
G1 F1200 X49.792 Y73.056 E51.89122
G1 X49.73 Y72.994
G0 F2880 X49.32 Y72.089
G1 F1200 X77.288 Y100.057 E53.4049
G0 F2880 X77.535 Y99.809
G1 F1200 X48.849 Y71.122 E54.95747
G1 X48.787 Y71.06
G0 F2880 X48.377 Y70.156
G1 F1200 X77.783 Y99.562 E56.54898
G0 F2880 X78.03 Y99.314
G1 F1200 X47.905 Y69.189 E58.1794
G1 X47.843 Y69.127
G0 F2880 X47.457 Y68.246
G1 F1200 X78.278 Y99.067 E59.84749
G0 F2880 X78.525 Y98.819
G1 F1200 X47.122 Y67.416 E61.54708
G1 X47.06 Y67.354
G0 F2880 X46.786 Y66.585
G1 F1200 X78.773 Y98.572 E63.27828
G0 F2880 X79.02 Y98.324
G1 F1200 X46.451 Y65.755 E65.04097
G1 X46.389 Y65.693
G0 F2880 X46.115 Y64.924
G1 F1200 X79.268 Y98.077 E66.83527
G0 F2880 X79.515 Y97.829
G1 F1200 X45.78 Y64.094 E68.66108
G1 X45.718 Y64.032
G0 F2880 X45.444 Y63.263
G1 F1200 X79.763 Y97.582 E70.51848
G0 F2880 X80.01 Y97.334
G1 F1200 X45.109 Y62.433 E72.40739
G1 X45.047 Y62.371
G0 F2880 X44.773 Y61.602
G1 F1200 X80.258 Y97.087 E74.32791
G0 F2880 X80.505 Y96.839
G1 F1200 X44.438 Y60.772 E76.27992
G1 X44.376 Y60.71
G0 F2880 X44.136 Y59.976
G1 F1200 X80.753 Y96.592 E78.26167
G0 F2880 X81 Y96.344
G1 F1200 X43.898 Y59.242 E80.2697
G1 X43.836 Y59.18
G0 F2880 X43.661 Y58.51
G1 F1200 X81.247 Y96.097 E82.30395
G0 F2880 X81.495 Y95.849
G1 F1200 X43.422 Y57.776 E84.36454
G1 X43.36 Y57.714
G0 F2880 X43.184 Y57.043
G1 F1200 X81.742 Y95.602 E86.45139
G0 F2880 X81.99 Y95.354
G1 F1200 X42.946 Y56.31 E88.56453
G1 X42.884 Y56.248
G0 F2880 X42.708 Y55.577
G1 F1200 X82.237 Y95.107 E90.70394
G0 F2880 X82.485 Y94.859
G1 F1200 X42.47 Y54.844 E92.86963
G1 X42.408 Y54.782
G0 F2880 X42.231 Y54.111
G1 F1200 X82.732 Y94.612 E95.06162
G0 F2880 X82.98 Y94.364
G1 F1200 X41.993 Y53.378 E97.27988
G1 X41.931 Y53.316
G0 F2880 X41.756 Y52.645
G1 F1200 X83.227 Y94.117 E99.5244
G1 X83.289 Y94.179
G0 F2880 X83.519 Y94.41
G0 X78.907 Y88.721
G0 X78.601 Y88.995
G1 F1200 X41.519 Y51.913 E101.53135
G0 F2880 X41.355 Y51.254
G1 F1200 X76.368 Y86.267 E103.42631
G1 X76.43 Y86.329
G0 F2880 X76.745 Y86.083
G0 X74.92 Y83.748
G0 X74.596 Y84
G1 F1200 X41.19 Y50.594 E105.23431
G0 F2880 X41.026 Y49.935
G1 F1200 X72.939 Y81.849 E106.96153
G1 X73.001 Y81.911
G0 F2880 X73.329 Y81.691
G0 X72.255 Y80.099
G0 X71.913 Y80.328
G1 F1200 X40.862 Y49.276 E108.64209
G0 F2880 X40.697 Y48.617
G1 F1200 X70.887 Y78.807 E110.27603
G1 X70.949 Y78.869
G0 F2880 X71.277 Y78.649
G0 X70.203 Y77.057
G0 X69.861 Y77.286
G1 F1200 X40.533 Y47.958 E111.86332
G0 F2880 X40.369 Y47.299
G1 F1200 X68.835 Y75.765 E113.40395
G1 X68.897 Y75.827
G0 F2880 X69.225 Y75.607
G0 X68.503 Y74.375
G0 X68.146 Y74.58
G1 F1200 X40.204 Y46.639 E114.9162
G0 F2880 X40.04 Y45.98
G1 F1200 X67.47 Y73.409 E116.40073
G1 X67.532 Y73.471
G0 F2880 X67.869 Y73.278
G0 X67.151 Y72.034
G0 X66.794 Y72.239
G1 F1200 X39.876 Y45.321 E117.85759
G0 F2880 X39.711 Y44.661
G1 F1200 X66.119 Y71.069 E119.28684
G1 X66.181 Y71.131
G0 F2880 X66.519 Y70.938
G0 X65.8 Y69.694
G0 X65.444 Y69.898
G1 F1200 X39.547 Y44.002 E120.6884
G0 F2880 X39.387 Y43.347
G1 F1200 X64.823 Y68.783 E122.06505
G1 X64.885 Y68.845
G0 F2880 X65.229 Y68.678
G0 X64.722 Y67.638
G0 X64.352 Y67.817
G1 F1200 X39.281 Y42.746 E123.42194
G0 F2880 X39.175 Y42.145
G1 F1200 X63.881 Y66.851 E124.75907
G1 X63.943 Y66.913
G0 F2880 X64.287 Y66.746
G0 X63.78 Y65.706
G0 X63.41 Y65.885
G1 F1200 X39.069 Y41.544 E126.07645
G0 F2880 X38.963 Y40.943
G1 F1200 X62.939 Y64.919 E127.37408
G1 X63.001 Y64.981
G0 F2880 X63.345 Y64.814
G0 X62.838 Y63.774
G0 X62.468 Y63.953
G1 F1200 X38.857 Y40.342 E128.65195
G0 F2880 X38.751 Y39.741
G1 F1200 X61.997 Y62.987 E129.91007
G1 X62.059 Y63.049
G0 F2880 X62.403 Y62.882
G0 X61.922 Y61.882
G0 X61.54 Y62.035
G1 F1200 X38.645 Y39.14 E131.14919
G0 F2880 X38.539 Y38.539
G1 F1200 X61.205 Y61.205 E132.37591
G1 X61.267 Y61.267
G0 F2880 X60.869 Y60.374
G1 F1200 X38.433 Y37.938 E133.59019
G0 F2880 X38.327 Y37.337
G1 F1200 X60.532 Y59.542 E134.79197
G1 X60.594 Y59.604
G0 F2880 X60.196 Y58.711
G1 F1200 X38.221 Y36.736 E135.9813
G0 F2880 X38.115 Y36.135
G1 F1200 X59.86 Y57.88 E137.15818
G1 X59.922 Y57.942
G0 F2880 X59.524 Y57.049
G1 F1200 X38.009 Y35.534 E138.32261
G0 F2880 X37.903 Y34.933
G1 F1200 X59.188 Y56.218 E139.47459
G1 X59.25 Y56.28
G0 F2880 X58.851 Y55.386
G1 F1200 X37.832 Y34.367 E140.61218
G0 F2880 X37.773 Y33.813
G1 F1200 X58.566 Y54.607 E141.73756
G1 X58.628 Y54.669
G0 F2880 X58.328 Y53.873
G1 F1200 X37.715 Y33.26 E142.85318
G0 F2880 X37.657 Y32.707
G1 F1200 X58.09 Y53.141 E143.95908
G1 X58.152 Y53.203
G0 F2880 X57.852 Y52.407
G1 F1200 X37.599 Y32.154 E145.05521
G0 F2880 X37.541 Y31.602
G1 F1200 X57.614 Y51.674 E146.14157
G1 X57.676 Y51.736
G0 F2880 X57.376 Y50.941
G1 F1200 X37.483 Y31.049 E147.21819
G0 F2880 X37.425 Y30.496
G1 F1200 X57.137 Y50.208 E148.28504
G1 X57.199 Y50.27
G0 F2880 X56.899 Y49.474
G1 F1200 X37.367 Y29.943 E149.34212
G0 F2880 X37.309 Y29.39
G1 F1200 X56.661 Y48.741 E150.38946
G1 X56.723 Y48.803
G0 F2880 X56.422 Y48.008
G1 F1200 X37.251 Y28.837 E151.42703
G0 F2880 X37.193 Y28.284
G1 F1200 X56.224 Y47.315 E152.45702
G0 F2880 X56.06 Y46.656
G1 F1200 X37.135 Y27.731 E153.48128
G0 F2880 X37.077 Y27.178
G1 F1200 X55.896 Y45.997 E154.4998
G0 F2880 X55.732 Y45.337
G1 F1200 X37.019 Y26.625 E155.51255
G0 F2880 X36.961 Y26.072
G1 F1200 X55.567 Y44.678 E156.51955
G0 F2880 X55.403 Y44.019
G1 F1200 X36.943 Y25.559 E157.51864
G0 F2880 X36.925 Y25.046
G1 F1200 X55.239 Y43.359 E158.5098
G0 F2880 X55.075 Y42.7
G1 F1200 X36.907 Y24.533 E159.49306
G0 F2880 X36.889 Y24.02
G1 F1200 X54.91 Y42.041 E160.46839
G0 F2880 X54.746 Y41.382
G1 F1200 X36.871 Y23.507 E161.43581
G0 F2880 X36.853 Y22.994
G1 F1200 X54.582 Y40.722 E162.39531
G0 F2880 X54.431 Y40.077
G1 F1200 X36.835 Y22.481 E163.34764
G0 F2880 X36.817 Y21.968
G1 F1200 X54.325 Y39.476 E164.29521
G0 F2880 X54.219 Y38.875
G1 F1200 X36.799 Y21.455 E165.23801
G0 F2880 X36.781 Y20.942
G1 F1200 X54.113 Y38.274 E166.17605
G0 F2880 X54.008 Y37.673
G1 F1200 X36.763 Y20.429 E167.10936
G0 F2880 X36.745 Y19.916
G1 F1200 X53.902 Y37.072 E168.0379
G0 F2880 X53.795 Y36.471
G1 F1200 X36.727 Y19.403 E168.96165
G0 F2880 X36.709 Y18.89
G1 F1200 X53.689 Y35.87 E169.88064
G0 F2880 X53.583 Y35.269
G1 F1200 X37.174 Y18.859 E170.76875
G0 F2880 X37.668 Y18.859
G1 F1200 X53.477 Y34.668 E171.62437
G0 F2880 X53.371 Y34.067
G1 F1200 X38.163 Y18.859 E172.44745
G0 F2880 X38.658 Y18.859
G1 F1200 X53.265 Y33.466 E173.23801
G0 F2880 X53.16 Y32.866
G1 F1200 X39.153 Y18.859 E173.99609
G0 F2880 X39.648 Y18.859
G1 F1200 X53.083 Y32.294 E174.72322
G0 F2880 X53.024 Y31.74
G1 F1200 X40.143 Y18.859 E175.42037
G0 F2880 X40.638 Y18.859
G1 F1200 X52.966 Y31.187 E176.08758
G0 F2880 X52.908 Y30.634
G1 F1200 X41.133 Y18.859 E176.72486
G0 F2880 X41.628 Y18.859
G1 F1200 X52.849 Y30.081 E177.33219
G0 F2880 X52.791 Y29.528
G1 F1200 X42.123 Y18.859 E177.90959
G0 F2880 X42.618 Y18.859
G1 F1200 X52.733 Y28.975 E178.45706
G0 F2880 X52.675 Y28.421
G1 F1200 X43.113 Y18.859 E178.97458
G0 F2880 X43.608 Y18.859
G1 F1200 X52.617 Y27.868 E179.46216
G0 F2880 X52.558 Y27.314
G1 F1200 X44.103 Y18.859 E179.91976
G0 F2880 X44.598 Y18.859
G1 F1200 X52.5 Y26.761 E180.34743
G0 F2880 X52.442 Y26.208
G1 F1200 X45.093 Y18.859 E180.74517
G0 F2880 X45.588 Y18.859
G1 F1200 X52.383 Y25.655 E181.11296
G0 F2880 X52.325 Y25.102
G1 F1200 X46.083 Y18.859 E181.45081
G0 F2880 X46.578 Y18.859
G1 F1200 X52.299 Y24.58 E181.76044
G0 F2880 X52.281 Y24.067
G1 F1200 X47.073 Y18.859 E182.04231
G0 F2880 X47.568 Y18.859
G1 F1200 X52.262 Y23.554 E182.29639
G0 F2880 X52.245 Y23.041
G1 F1200 X48.063 Y18.859 E182.52272
G0 F2880 X48.558 Y18.859
M104 S230
G1 F1200 X52.227 Y22.529 E182.72132
G0 F2880 X52.209 Y22.016
G1 F1200 X49.053 Y18.859 E182.89216
G0 F2880 X49.548 Y18.859
G1 F1200 X52.192 Y21.503 E183.03526
G0 F2880 X52.173 Y20.99
G1 F1200 X50.043 Y18.859 E183.15057
G0 F2880 X50.538 Y18.859
G1 F1200 X52.156 Y20.477 E183.23813
G0 F2880 X52.138 Y19.965
G1 F1200 X51.033 Y18.859 E183.29797
G0 F2880 X51.528 Y18.859
G1 F1200 X52.12 Y19.452 E183.33003
G0 F2880 X52.102 Y18.939
G1 F1200 X52.023 Y18.859 E183.33434
G0 F2880 X52.023 Y18.213
;MESH:NONMESH
G0 F60 X52.023 Y18.213 Z0.523
G0 F2880 X54.067 Y32.496
G0 X55.391 Y40.008
G0 X57.237 Y47.409
G0 X59.593 Y54.663
G0 X62.451 Y61.735
G0 X65.794 Y68.591
G0 X69.608 Y75.197
G0 X73.873 Y81.521
G0 X83.821 Y94.229
;TIME_ELAPSED:275.650694
;LAYER:1
M140 S80
;TYPE:WALL-INNER
;MESH:TRN_BLADE_8.STL
G1 F2100 X72.366 Y105.685 E183.94726
G1 X71.552 Y104.898 E183.99009
G1 X65.659 Y98.353 E184.3233
G1 X60.245 Y91.423 E184.65601
G1 X55.31 Y84.107 E184.98988
G1 X50.927 Y76.514 E185.32157
G1 X47.059 Y68.585 E185.65535
G1 X43.762 Y60.425 E185.98831
G1 X41.043 Y52.058 E186.32116
G1 X38.914 Y43.515 E186.65426
G1 X37.382 Y34.828 E186.98799
G1 X36.466 Y26.095 E187.3202
G1 X36.201 Y18.543 E187.60609
G1 X36.195 Y18.363 E187.61291
G1 X36.375 Y18.363 E187.61728
G1 X36.376 Y18.363 E187.61732
G1 X52.58 Y18.363 E188.23037
G1 X52.81 Y24.943 E188.47946
G1 X53.61 Y32.561 E188.76926
G1 X54.94 Y40.105 E189.05908
G1 X56.793 Y47.537 E189.34887
G1 X59.16 Y54.821 E189.63863
G1 X62.03 Y61.922 E189.9284
G1 X65.388 Y68.808 E190.21824
G1 X69.217 Y75.441 E190.50801
G1 X73.501 Y81.792 E190.79784
G1 X78.217 Y87.827 E191.08761
G1 X83.341 Y93.519 E191.37736
G1 X83.819 Y93.981 E191.40251
G1 X83.946 Y94.104 E191.4092
G1 X83.821 Y94.229 E191.41349
G0 F5040 X84.32 Y94.224
G1 F2100 X72.37 Y106.175 E192.0529
G1 X71.303 Y105.144 E192.10903
G1 X65.39 Y98.577 E192.44336
G1 X59.96 Y91.627 E192.77704
G1 X55.014 Y84.294 E193.11168
G1 X50.616 Y76.675 E193.44451
G1 X46.738 Y68.725 E193.77916
G1 X43.434 Y60.549 E194.11279
G1 X40.705 Y52.149 E194.44694
G1 X38.571 Y43.589 E194.78071
G1 X37.037 Y34.889 E195.11494
G1 X36.116 Y26.116 E195.44867
G1 X35.838 Y18.193 E195.74861
G1 X35.832 Y18.013 E195.75543
G1 X36.012 Y18.013 E195.7598
G1 X36.013 Y18.013 E195.75983
G1 X52.918 Y18.013 E196.39941
G1 X53.159 Y24.919 E196.66084
G1 X53.957 Y32.512 E196.94969
G1 X55.283 Y40.032 E197.23859
G1 X57.13 Y47.44 E197.52744
G1 X59.489 Y54.701 E197.81628
G1 X62.35 Y61.78 E198.10515
G1 X65.697 Y68.644 E198.39407
