;FLAVOR:Marlin
;TIME:724
;Filament used: 0.487521m
;Layer height: 0.263
;MINX:49.566
;MINY:30.592
;MINZ:0.306
;MAXX:70.442
;MAXY:89.405
;MAXZ:5.566
;Generated with Cura_SteamEngine master
M140 S65
M105
M190 S65
M104 S220
M105
M109 S220
M82 ;absolute extrusion mode
G90 ; set to absolute positioning - this line was added in case Cura doesn't include it by default
M82 ; set extruder to absolute mode - this line was added in case Cura doesn't include it by default (may not be needed)
G28 ; home all axes
; The lines below are to prep the nozzle before a print begins
G1 Z0.2 F1200 ; raise nozzle 0.2mm
G92 E0 ; reset extrusion distance
G1 Y-1 ; move Y-Axis (bed) 1mm to prep for purge
G1 X25 E3 F600 ; move X-carriage 50mm while purging 3mm of filament
G1 X120;
G92 E0 ; reset extrusion distance
G1 Z5;
G1 X-1 Y0;
G1 Z0;
G1 Y120;
G1 Z5;
G1 X0 Y0;
G1 Z0;
G92 E0
G92 E0
G1 F2400 E-2.5
;LAYER_COUNT:21
;LAYER:0
M107
G0 F2700 X55.642 Y34.981 Z0.306
;TYPE:SKIRT
G1 F2400 E0
G1 F900 X56.736 Y33.225 E0.09212
G1 X57.63 Y31.852 E0.16508
G1 X58.025 Y31.264 E0.19662
G1 X58.251 Y30.998 E0.21216
G1 X58.532 Y30.791 E0.2277
G1 X58.852 Y30.653 E0.24322
G1 X59.196 Y30.592 E0.25877
G1 X59.544 Y30.61 E0.27429
G1 X59.879 Y30.707 E0.28982
G1 X60.124 Y30.837 E0.30217
G1 X60.862 Y31.318 E0.34139
G1 X69.219 Y36.992 E0.79117
G1 X69.793 Y37.394 E0.82237
G1 X70.054 Y37.625 E0.83789
G1 X70.255 Y37.91 E0.85342
G1 X70.387 Y38.233 E0.86896
G1 X70.442 Y38.577 E0.88447
G1 X70.413 Y38.946 E0.90095
G1 X70.142 Y40.281 E0.9616
G1 X70.063 Y40.649 E0.97836
G1 X69.561 Y43.346 E1.10052
G1 X69.126 Y46.119 E1.2255
G1 X68.773 Y48.878 E1.34935
G1 X68.495 Y51.676 E1.47455
G1 X68.301 Y54.41 E1.59659
G1 X68.18 Y57.236 E1.72254
G1 X68.141 Y59.999 E1.84558
G1 X68.18 Y62.763 E1.96867
G1 X68.299 Y65.585 E2.09443
G1 X68.493 Y68.323 E2.21665
G1 X68.77 Y71.117 E2.34167
G1 X69.122 Y73.869 E2.46521
G1 X69.558 Y76.652 E2.59064
G1 X70.058 Y79.35 E2.71282
G1 X70.293 Y80.45 E2.7629
G1 X70.414 Y81.063 E2.79073
G1 X70.442 Y81.41 E2.80623
G1 X70.39 Y81.755 E2.82176
G1 X70.262 Y82.079 E2.83727
G1 X70.063 Y82.366 E2.85282
G1 X69.698 Y82.677 E2.87418
G1 X69.328 Y82.934 E2.89424
G1 X60.766 Y88.746 E3.35501
G1 X60.137 Y89.161 E3.38857
G1 X59.826 Y89.318 E3.40408
G1 X59.487 Y89.401 E3.41962
G1 X59.138 Y89.405 E3.43516
G1 X58.798 Y89.329 E3.45067
G1 X58.484 Y89.178 E3.46619
G1 X58.212 Y88.959 E3.48174
G1 X58.033 Y88.741 E3.4943
G1 X57.539 Y88.009 E3.53362
G1 X56.719 Y86.749 E3.60056
G1 X55.627 Y84.993 E3.69263
G1 X54.938 Y83.836 E3.75259
G1 X53.925 Y82.057 E3.84375
G1 X53.261 Y80.837 E3.9056
G1 X52.357 Y79.097 E3.99291
G1 X51.586 Y77.533 E4.07055
G1 X50.99 Y76.284 E4.13217
G1 X50.541 Y75.294 E4.18057
G1 X50.391 Y74.955 E4.19708
G1 X50.072 Y74.219 E4.2328
G1 X49.923 Y73.869 E4.24974
G1 X49.668 Y73.241 E4.27992
G1 X49.575 Y72.905 E4.29544
G1 X49.567 Y72.481 E4.31432
G1 X49.63 Y71.969 E4.33729
G1 X49.928 Y69.203 E4.46117
G1 X50.149 Y66.431 E4.58499
G1 X50.29 Y63.656 E4.70871
G1 X50.354 Y60.836 E4.83431
G1 X50.339 Y58.051 E4.95832
G1 X50.245 Y55.291 E5.08128
G1 X50.072 Y52.519 E5.20495
G1 X49.687 Y48.541 E5.38291
G1 X49.566 Y47.514 E5.42895
G1 X49.566 Y47.166 E5.44445
G1 X49.702 Y46.669 E5.46739
G1 X49.901 Y46.183 E5.49078
G1 X50.079 Y45.765 E5.51101
G1 X50.467 Y44.875 E5.55424
G1 X50.639 Y44.489 E5.57305
G1 X50.998 Y43.699 E5.61169
G1 X51.601 Y42.435 E5.67405
G1 X52.372 Y40.875 E5.75153
G1 X53.277 Y39.134 E5.8389
G1 X53.958 Y37.883 E5.90232
G1 X54.963 Y36.122 E5.99261
G1 X55.337 Y35.494 E6.02515
G0 F810 X55.642 Y34.981
G0 F2700 X55.94 Y35.166
G1 F900 X57.029 Y33.416 E6.11693
G1 X57.921 Y32.047 E6.18969
G1 X58.316 Y31.459 E6.22123
G1 X58.518 Y31.229 E6.23486
G1 X58.772 Y31.06 E6.24844
G1 X59.062 Y30.961 E6.26209
G1 X59.368 Y30.941 E6.27574
G1 X59.668 Y31.001 E6.28936
G1 X59.933 Y31.13 E6.30249
G1 X60.665 Y31.608 E6.34141
G1 X69.018 Y37.279 E6.79097
G1 X69.592 Y37.681 E6.82217
G1 X69.818 Y37.887 E6.83579
G1 X69.982 Y38.145 E6.8494
G1 X70.075 Y38.437 E6.86304
G1 X70.07 Y38.876 E6.88259
G1 X69.8 Y40.208 E6.94311
G1 X69.721 Y40.576 E6.95987
G1 X69.215 Y43.292 E7.08289
G1 X68.777 Y46.087 E7.20886
G1 X68.426 Y48.825 E7.33177
G1 X68.149 Y51.608 E7.4563
G1 X67.951 Y54.395 E7.58071
G1 X67.831 Y57.188 E7.70519
G1 X67.791 Y60.016 E7.83112
G1 X67.831 Y62.798 E7.95501
G1 X67.948 Y65.59 E8.07944
G1 X68.146 Y68.38 E8.20398
G1 X68.422 Y71.165 E8.3286
G1 X68.774 Y73.912 E8.45191
G1 X69.212 Y76.706 E8.57784
G1 X69.716 Y79.423 E8.70088
G1 X69.95 Y80.517 E8.7507
G1 X70.071 Y81.13 E8.77852
G1 X70.09 Y81.436 E8.79217
G1 X70.031 Y81.736 E8.80579
G1 X69.895 Y82.01 E8.81941
G1 X69.524 Y82.371 E8.84246
G1 X69.132 Y82.644 E8.86373
G1 X60.573 Y88.454 E9.32434
G1 X59.944 Y88.869 E9.3579
G1 X59.669 Y89.003 E9.37152
G1 X59.369 Y89.061 E9.38513
G1 X59.063 Y89.04 E9.39878
G1 X58.774 Y88.94 E9.4124
G1 X58.52 Y88.77 E9.42601
G1 X58.323 Y88.545 E9.43932
G1 X57.832 Y87.818 E9.47839
G1 X57.017 Y86.564 E9.54498
G1 X55.927 Y84.814 E9.63678
G1 X55.242 Y83.663 E9.69642
G1 X54.232 Y81.89 E9.78728
G1 X53.571 Y80.675 E9.84887
G1 X52.671 Y78.942 E9.93582
G1 X51.902 Y77.382 E10.01326
G1 X51.309 Y76.14 E10.07454
G1 X50.861 Y75.152 E10.12285
G1 X50.712 Y74.815 E10.13926
G1 X50.394 Y74.082 E10.17483
G1 X50.247 Y73.737 E10.19153
G1 X49.992 Y73.109 E10.22171
G1 X49.915 Y72.813 E10.23533
G1 X49.915 Y72.524 E10.2482
G1 X49.978 Y72.012 E10.27117
G1 X50.279 Y69.217 E10.39634
G1 X50.5 Y66.431 E10.52078
G1 X50.64 Y63.672 E10.64379
G1 X50.704 Y60.843 E10.76979
G1 X50.689 Y58.049 E10.8942
G1 X50.595 Y55.288 E11.01721
G1 X50.421 Y52.492 E11.14195
G1 X50.032 Y48.476 E11.32161
G1 X49.914 Y47.473 E11.36657
G1 X49.918 Y47.168 E11.38016
G1 X50.044 Y46.755 E11.39938
G1 X50.395 Y45.915 E11.43992
G1 X50.787 Y45.017 E11.48355
G1 X50.957 Y44.634 E11.50221
G1 X51.314 Y43.85 E11.54056
G1 X51.915 Y42.59 E11.60272
G1 X52.682 Y41.036 E11.67989
G1 X53.584 Y39.301 E11.76696
G1 X54.262 Y38.056 E11.83008
G1 X55.263 Y36.301 E11.92004
G1 X55.635 Y35.678 E11.95235
G0 F810 X55.94 Y35.166
G1 F2400 E9.45235
;MESH:TRN_END_2.STL
G0 F2700 X57.288 Y35.971
G0 X52.427 Y46.776
G0 X61.281 Y50.449
G0 X61.506 Y50.321
;TYPE:WALL-INNER
G1 F2400 E11.95235
G1 F900 X61.365 Y50.653 E11.96842
G1 X52.383 Y46.928 E12.40139
G1 X52.221 Y46.861 E12.40919
G1 X52.289 Y46.699 E12.41424
G1 X52.459 Y46.301 E12.43351
G1 X52.969 Y45.156 E12.48933
G1 X53.453 Y44.106 E12.54081
G1 X54.93 Y41.116 E12.6893
G1 X56.506 Y38.22 E12.83611
G1 X58.206 Y35.367 E12.98399
G1 X59.44 Y33.469 E13.08479
G1 X59.537 Y33.32 E13.09271
G1 X59.684 Y33.419 E13.09779
G1 X67.728 Y38.88 E13.53071
G1 X66.609 Y40.599 E13.62204
G1 X65.112 Y43.113 E13.75232
G1 X63.712 Y45.683 E13.88263
G1 X62.419 Y48.301 E14.01265
G1 X61.922 Y49.382 E14.06563
G1 X61.747 Y49.776 E14.08482
G0 F810 X61.506 Y50.321
G0 F2700 X61.827 Y50.46
G1 F900 X61.552 Y51.109 E14.11621
G1 X51.923 Y47.116 E14.58036
G1 X51.761 Y47.049 E14.58817
G1 X51.829 Y46.887 E14.59322
G1 X52.139 Y46.159 E14.62845
G1 X52.651 Y45.01 E14.68446
G1 X53.139 Y43.951 E14.73638
G1 X54.616 Y40.961 E14.88487
G1 X56.205 Y38.041 E15.0329
G1 X57.905 Y35.188 E15.18078
G1 X59.342 Y32.979 E15.29812
G1 X59.439 Y32.83 E15.30603
G1 X59.586 Y32.929 E15.31112
G1 X68.209 Y38.783 E15.77519
G1 X66.906 Y40.784 E15.88152
G1 X65.416 Y43.286 E16.01118
G1 X64.023 Y45.844 E16.14088
G1 X62.735 Y48.452 E16.27039
G1 X62.241 Y49.526 E16.32303
G1 X62.069 Y49.914 E16.34193
G0 F810 X61.827 Y50.46
G0 F2700 X62.125 Y50.589
;TYPE:WALL-OUTER
G1 F900 X61.726 Y51.532 E16.38752
G1 X51.496 Y47.29 E16.88064
G1 X51.334 Y47.223 E16.88845
G1 X51.402 Y47.061 E16.8935
G1 X51.842 Y46.027 E16.94353
G1 X52.356 Y44.874 E16.99974
G1 X52.848 Y43.807 E17.05206
G1 X54.325 Y40.817 E17.20056
G1 X55.926 Y37.875 E17.34969
G1 X57.633 Y35.011 E17.49815
G1 X59.251 Y32.524 E17.63026
G1 X59.348 Y32.375 E17.63818
G1 X59.495 Y32.474 E17.64326
G1 X68.655 Y38.693 E18.13625
G1 X67.182 Y40.956 E18.25648
G1 X65.698 Y43.447 E18.38559
G1 X64.312 Y45.994 E18.5147
G1 X63.028 Y48.592 E18.64374
G1 X62.537 Y49.66 E18.69608
G1 X62.367 Y50.044 E18.71478
G0 F810 X62.125 Y50.589
G0 F2700 X62.047 Y50.773
G0 X61.794 Y50.666
G0 X61.085 Y50.444
G0 X61.183 Y50.21
;TYPE:SKIN
G1 F900 X52.668 Y46.679 E19.12524
G1 X52.77 Y46.439 E19.13685
G1 X53.278 Y45.298 E19.19246
G1 X53.758 Y44.257 E19.2435
G1 X55.229 Y41.279 E19.3914
G1 X56.802 Y38.388 E19.53795
G1 X58.491 Y35.552 E19.68492
G1 X59.632 Y33.796 E19.77817
G1 X67.261 Y38.974 E20.18872
G1 X66.32 Y40.419 E20.2655
G1 X64.817 Y42.944 E20.39634
G1 X63.411 Y45.526 E20.52725
G1 X62.112 Y48.155 E20.65783
G1 X61.612 Y49.242 E20.7111
G1 X61.425 Y49.664 E20.73165
G0 F810 X61.183 Y50.21
G0 F2700 X61.085 Y50.444
G0 X52.427 Y46.776
G0 X52.919 Y46.485
G1 F900 X53.141 Y46.706 E20.7456
G0 F2700 X53.071 Y46.142
G1 F900 X53.986 Y47.056 E20.80319
G1 X54.048 Y47.118
G0 F2700 X54.831 Y47.407
G1 F900 X53.224 Y45.8 E20.90438
G0 F2700 X53.376 Y45.457
G1 F900 X55.677 Y47.757 E21.04925
G1 X55.739 Y47.819
G0 F2700 X56.522 Y48.108
G1 F900 X53.532 Y45.117 E21.23756
G0 F2700 X53.688 Y44.778
G1 F900 X57.368 Y48.458 E21.46929
G1 X57.43 Y48.52
G0 F2700 X58.213 Y48.808
G1 F900 X53.845 Y44.44 E21.74435
G0 F2700 X54.006 Y44.107
G1 F900 X59.058 Y49.159 E22.06248
G1 X59.12 Y49.221
G0 F2700 X59.904 Y49.51
G1 F900 X54.17 Y43.775 E22.42358
G0 F2700 X54.333 Y43.443
G1 F900 X60.749 Y49.86 E22.82763
G0 F2700 X61.19 Y49.805
G1 F900 X54.497 Y43.113 E23.24906
G0 F2700 X54.66 Y42.781
G1 F900 X61.342 Y49.462 E23.6698
G0 F2700 X61.495 Y49.121
G1 F900 X54.824 Y42.45 E24.08988
G0 F2700 X54.988 Y42.118
G1 F900 X61.651 Y48.781 E24.50945
G0 F2700 X61.807 Y48.443
G1 F900 X55.151 Y41.787 E24.92859
G0 F2700 X55.315 Y41.456
G1 F900 X61.963 Y48.103 E25.34719
G0 F2700 X62.126 Y47.772
G1 F900 X55.486 Y41.132 E25.76531
G0 F2700 X55.66 Y40.811
G1 F900 X62.289 Y47.44 E26.18274
G0 F2700 X62.453 Y47.109
G1 F900 X55.835 Y40.491 E26.59948
G0 F2700 X56.009 Y40.17
G1 F900 X62.617 Y46.777 E27.01556
G0 F2700 X62.781 Y46.447
G1 F900 X56.184 Y39.85 E27.43098
G0 F2700 X56.358 Y39.529
G1 F900 X62.944 Y46.115 E27.8457
G0 F2700 X63.108 Y45.784
G1 F900 X56.533 Y39.209 E28.25974
G0 F2700 X56.707 Y38.888
G1 F900 X63.271 Y45.452 E28.67308
G0 F2700 X63.446 Y45.132
G1 F900 X56.881 Y38.567 E29.08648
G0 F2700 X57.063 Y38.254
G1 F900 X63.621 Y44.812 E29.49944
G0 F2700 X63.795 Y44.491
G1 F900 X57.248 Y37.944 E29.91171
G0 F2700 X57.432 Y37.633
G1 F900 X63.969 Y44.17 E30.32335
G0 F2700 X64.144 Y43.85
G1 F900 X57.617 Y37.323 E30.73436
G0 F2700 X57.802 Y37.013
G1 F900 X64.319 Y43.53 E31.14474
G0 F2700 X64.493 Y43.209
G1 F900 X57.986 Y36.703 E31.55446
G0 F2700 X58.172 Y36.393
G1 F900 X64.668 Y42.889 E31.96352
G0 F2700 X64.852 Y42.578
G1 F900 X58.356 Y36.082 E32.37257
G0 F2700 X58.541 Y35.772
G1 F900 X65.036 Y42.268 E32.7816
G0 F2700 X65.221 Y41.957
G1 F900 X58.731 Y35.467 E33.19028
G0 F2700 X58.926 Y35.167
G1 F900 X65.405 Y41.647 E33.5983
G0 F2700 X65.59 Y41.336
G1 F900 X59.121 Y34.868 E34.00562
G0 F2700 X59.316 Y34.567
G1 F900 X65.775 Y41.026 E34.41235
G0 F2700 X65.959 Y40.715
G1 F900 X59.511 Y34.267 E34.81839
G0 F2700 X59.922 Y34.183
G1 F900 X66.144 Y40.405 E35.21019
G0 F2700 X66.337 Y40.103
G1 F900 X61.462 Y35.228 E35.51717
G1 X61.4 Y35.166
G0 F2700 X61.623 Y34.84
G0 X63.233 Y35.933
G0 X63.001 Y36.273
G1 F900 X66.532 Y39.803 E35.73949
G0 F2700 X66.728 Y39.504
G1 F900 X64.541 Y37.318 E35.87718
G1 X64.479 Y37.256
G0 F2700 X64.702 Y36.929
G0 X66.313 Y38.023
G0 X66.081 Y38.363
G1 F900 X66.923 Y39.204 E35.93017
G1 X66.985 Y39.266
G0 F2700 X67.457 Y39.572
G1 F2400 E33.43017
G0 F2700 X65.529 Y43.351
G0 X66.43 Y43.859
G0 X61.232 Y67.765
G0 X61.626 Y68.714
G0 X64.985 Y76.96
G0 X67.513 Y81.076
G0 X59.684 Y86.581
;TYPE:WALL-INNER
G1 F2400 E35.93017
G1 F900 X59.537 Y86.68 E35.93806
G1 X59.44 Y86.531 E35.94316
G1 X58.206 Y84.633 E36.04396
G1 X56.506 Y81.78 E36.19184
G1 X54.93 Y78.884 E36.33865
G1 X53.453 Y75.894 E36.48714
G1 X52.931 Y74.761 E36.54269
G1 X52.423 Y73.616 E36.59846
G1 X52.289 Y73.303 E36.61362
G1 X52.221 Y73.141 E36.62145
G1 X52.383 Y73.074 E36.62649
G1 X61.366 Y69.348 E37.05952
G1 X61.506 Y69.679 E37.07552
G1 X61.954 Y70.69 E37.12476
G1 X62.42 Y71.699 E37.17424
G1 X63.712 Y74.317 E37.30424
G1 X65.112 Y76.887 E37.43455
G1 X66.609 Y79.401 E37.56483
G1 X67.728 Y81.12 E37.65617
G1 X60.177 Y86.246 E38.06254
G0 F810 X59.684 Y86.581
G0 F2700 X59.586 Y87.071
G1 F900 X59.439 Y87.17 E38.07043
G1 X59.342 Y87.021 E38.07553
G1 X57.905 Y84.812 E38.19287
G1 X56.205 Y81.959 E38.34075
G1 X54.616 Y79.039 E38.48877
G1 X53.139 Y76.049 E38.63727
G1 X52.613 Y74.908 E38.69321
G1 X52.103 Y73.758 E38.74923
G1 X51.829 Y73.115 E38.78035
G1 X51.761 Y72.953 E38.78817
G1 X51.923 Y72.886 E38.79321
G1 X61.553 Y68.892 E39.25742
G1 X61.827 Y69.54 E39.28875
G1 X62.273 Y70.546 E39.33775
G1 X62.736 Y71.548 E39.3869
G1 X64.023 Y74.156 E39.5164
G1 X65.416 Y76.714 E39.64609
G1 X66.906 Y79.216 E39.77576
G1 X68.209 Y81.217 E39.88208
G1 X60.079 Y86.736 E40.31961
G0 F810 X59.586 Y87.071
G0 F2700 X59.495 Y87.526
;TYPE:WALL-OUTER
G1 F900 X59.348 Y87.625 E40.32751
G1 X59.251 Y87.476 E40.33261
G1 X57.633 Y84.989 E40.46472
G1 X55.926 Y82.125 E40.61317
G1 X54.325 Y79.183 E40.76231
G1 X52.848 Y76.193 E40.91081
G1 X52.318 Y75.044 E40.96715
G1 X51.806 Y73.89 E41.02336
G1 X51.402 Y72.94 E41.06933
G1 X51.334 Y72.778 E41.07715
G1 X51.496 Y72.711 E41.08219
G1 X61.726 Y68.468 E41.57533
G1 X62.125 Y69.411 E41.62092
G1 X62.569 Y70.412 E41.66968
G1 X63.029 Y71.408 E41.71853
G1 X64.312 Y74.006 E41.84755
G1 X65.698 Y76.553 E41.97667
G1 X67.182 Y79.044 E42.10578
G1 X68.655 Y81.307 E42.22601
G1 X59.988 Y87.191 E42.69245
G0 F810 X59.495 Y87.526
G0 F2700 X59.348 Y87.625
G0 X59.336 Y87.606
G0 X59.416 Y87.282
G0 X59.419 Y86.342
G0 X59.632 Y86.204
;TYPE:SKIN
G1 F900 X58.491 Y84.448 E42.7857
G1 X56.802 Y81.612 E42.93268
G1 X55.229 Y78.721 E43.07922
G1 X53.758 Y75.743 E43.22712
G1 X53.24 Y74.619 E43.28223
G1 X52.734 Y73.478 E43.33781
G1 X52.668 Y73.323 E43.34531
G1 X61.184 Y69.792 E43.7558
G1 X61.645 Y70.83 E43.80637
G1 X62.113 Y71.845 E43.85614
G1 X63.411 Y74.474 E43.98669
G1 X64.817 Y77.056 E44.1176
G1 X66.32 Y79.581 E44.24844
G1 X67.261 Y81.026 E44.32523
G1 X60.125 Y85.869 E44.70924
G0 F810 X59.632 Y86.204
G0 F2700 X59.719 Y85.953
G1 F900 X59.539 Y85.773 E44.72057
G0 F2700 X60.014 Y85.752
G1 F900 X58.623 Y84.362 E44.80813
G1 X58.561 Y84.3
G0 F2700 X58.226 Y84.499
G0 X57.541 Y83.349
G0 X57.895 Y83.138
G1 F900 X60.309 Y85.552 E44.96014
G0 F2700 X60.604 Y85.353
G1 F900 X57.167 Y81.916 E45.17657
G1 X57.105 Y81.854
G0 F2700 X56.769 Y82.054
G0 X56.169 Y80.983
G0 X56.533 Y80.786
G1 F900 X60.899 Y85.153 E45.45154
G0 F2700 X61.194 Y84.953
G1 F900 X55.941 Y79.7 E45.78232
G1 X55.879 Y79.638
G0 F2700 X55.538 Y79.823
G0 X54.983 Y78.798
G0 X55.353 Y78.616
G1 F900 X61.489 Y84.753 E46.16874
G0 F2700 X61.784 Y84.553
G1 F900 X54.87 Y77.638 E46.60415
G1 X54.808 Y77.576
G0 F2700 X54.463 Y77.746
G0 X54.017 Y76.842
G0 X54.387 Y76.66
G1 F900 X62.079 Y84.352 E47.08852
G0 F2700 X62.373 Y84.152
G1 F900 X53.904 Y75.683 E47.62182
G1 X53.842 Y75.621
G0 F2700 X53.479 Y74.763
G1 F900 X62.668 Y83.952 E48.20046
G0 F2700 X62.963 Y83.752
G1 F900 X53.078 Y73.867 E48.82292
G0 F2700 X53.043 Y73.337
G1 F900 X63.258 Y83.552 E49.46617
G0 F2700 X63.553 Y83.352
G1 F900 X53.393 Y73.192 E50.10595
G0 F2700 X53.743 Y73.047
G1 F900 X63.848 Y83.152 E50.74227
G0 F2700 X64.143 Y82.952
G1 F900 X54.093 Y72.902 E51.37513
G0 F2700 X54.443 Y72.757
G1 F900 X64.437 Y82.751 E52.00445
G0 F2700 X64.732 Y82.551
G1 F900 X54.792 Y72.612 E52.63035
G0 F2700 X55.143 Y72.467
G1 F900 X65.027 Y82.351 E53.25275
G0 F2700 X65.322 Y82.151
G1 F900 X55.493 Y72.322 E53.87169
G0 F2700 X55.843 Y72.177
G1 F900 X65.617 Y81.951 E54.48717
G0 F2700 X65.912 Y81.751
G1 F900 X56.193 Y72.032 E55.09918
G0 F2700 X56.542 Y71.886
G1 F900 X66.207 Y81.551 E55.70779
G0 F2700 X66.501 Y81.351
G1 F900 X56.892 Y71.741 E56.31291
G0 F2700 X57.242 Y71.596
G1 F900 X66.796 Y81.151 E56.91456
G0 F2700 X66.903 Y80.762
G1 F900 X57.592 Y71.451 E57.50088
G0 F2700 X57.941 Y71.306
G1 F900 X66.02 Y79.384 E58.00959
G1 X66.082 Y79.446
G0 F2700 X66.417 Y79.247
G0 X65.646 Y77.952
G0 X65.293 Y78.162
G1 F900 X58.291 Y71.161 E58.45048
G0 F2700 X58.641 Y71.016
