;FLAVOR:Marlin
;TIME:2254
;Filament used: 1.46533m
;Layer height: 0.263
;MINX:11.532
;MINY:1.583
;MINZ:0.263
;MAXX:107.817
;MAXY:27.547
;MAXZ:3.156
;Generated with Cura_SteamEngine master
M140 S60
M105
M190 S60
M104 S200
M105
M109 S200
M82 ;absolute extrusion mode
G21;(metric values)
G90;(absolute positioning)
M82;(set extruder to absolute mode)
M107;(start with the fan off)
G28;(Home the printer)
G92 E0;(Reset the extruder to 0)
G0 X0 Y-1 Z0;(Move outside the printable area)
G1 X60 E8 F500;(Draw a priming/wiping line to the side)
G92 E0;(Zero the extruder)
G1 X100; (Move the rest of the way to wipe)
G1 Z5;
G1 X0 Y0;
G1 Z0;
G92 E0
G92 E0
G1 F2400 E-2.5
;LAYER_COUNT:12
;LAYER:0
M107
;MESH:TRN_BLADE_8.STL
G0 F1800 X71.788 Y26.315 Z0.263
;TYPE:WALL-INNER
G1 F2400 E0
G1 F1200 X63.005 Y26.872 E0.3368
G1 X54.193 Y26.814 E0.67404
G1 X45.431 Y26.144 E1.01034
G1 X36.699 Y24.859 E1.34811
G1 X28.129 Y22.978 E1.68389
G1 X19.658 Y20.49 E2.02177
G1 X12.592 Y17.865 E2.31025
G1 X12.423 Y17.802 E2.31715
G1 X12.491 Y17.635 E2.32158
G1 X18.66 Y2.65 E2.94175
G1 X24.832 Y4.943 E3.19372
G1 X32.18 Y7.102 E3.48682
G1 X39.662 Y8.743 E3.77996
G1 X47.241 Y9.859 E4.07313
G1 X54.878 Y10.443 E4.36626
G1 X62.538 Y10.493 E4.65941
G1 X70.182 Y10.01 E4.95253
G1 X77.773 Y8.992 E5.24564
G1 X85.276 Y7.448 E5.53879
G1 X92.653 Y5.386 E5.83193
G1 X99.868 Y2.813 E6.12508
G1 X100.473 Y2.548 E6.15036
G1 X100.636 Y2.477 E6.15716
G1 X100.704 Y2.641 E6.16153
G1 X106.938 Y17.593 E6.78148
G1 X105.903 Y18.046 E6.82472
G1 X97.617 Y21.001 E7.16139
G1 X89.127 Y23.376 E7.49877
G1 X80.515 Y25.147 E7.83525
G1 X72.475 Y26.223 E8.14568
G0 F1080 X71.788 Y26.315
G0 F1800 X71.827 Y26.663
G1 F1200 X63.01 Y27.222 E8.48379
G1 X54.178 Y27.164 E8.82179
G1 X45.396 Y26.492 E9.15886
G1 X36.63 Y25.202 E9.49795
G1 X28.04 Y23.317 E9.83451
G1 X19.552 Y20.824 E10.17307
G1 X12.13 Y18.067 E10.47607
G1 X11.961 Y18.004 E10.48297
G1 X12.029 Y17.837 E10.4874
G1 X18.465 Y2.204 E11.13439
G1 X24.942 Y4.611 E11.39883
G1 X32.267 Y6.763 E11.69101
G1 X39.725 Y8.399 E11.98321
G1 X47.28 Y9.511 E12.27545
G1 X54.893 Y10.093 E12.56765
G1 X62.528 Y10.143 E12.85985
G1 X70.148 Y9.661 E13.15205
G1 X77.714 Y8.647 E13.44419
G1 X85.194 Y7.108 E13.73644
G1 X92.547 Y5.052 E14.02864
G1 X99.739 Y2.487 E14.32086
G1 X100.659 Y2.084 E14.35929
G1 X100.822 Y2.013 E14.3661
G1 X100.89 Y2.177 E14.37046
G1 X107.394 Y17.776 E15.01725
G1 X106.029 Y18.373 E15.07427
G1 X97.731 Y21.332 E15.41142
G1 X89.207 Y23.717 E15.75016
G1 X80.574 Y25.492 E16.08745
G1 X72.514 Y26.571 E16.39866
G0 F1080 X71.827 Y26.663
G0 F1800 X71.861 Y26.986
;TYPE:WALL-OUTER
G1 F1200 X63.015 Y27.547 E16.73788
G1 X54.165 Y27.489 E17.07657
G1 X45.353 Y26.815 E17.41479
G1 X36.583 Y25.524 E17.75404
G1 X27.95 Y23.63 E18.09228
G1 X19.45 Y21.133 E18.43132
G1 X11.701 Y18.255 E18.74767
G1 X11.532 Y18.192 E18.75457
G1 X11.6 Y18.025 E18.759
G1 X18.284 Y1.79 E19.4309
G1 X25.045 Y4.302 E19.70693
G1 X32.348 Y6.448 E19.99823
G1 X39.784 Y8.079 E20.28957
G1 X47.316 Y9.188 E20.58093
G1 X54.906 Y9.768 E20.87224
G1 X62.519 Y9.818 E21.1636
G1 X70.116 Y9.337 E21.45492
G1 X77.66 Y8.326 E21.74621
G1 X85.117 Y6.792 E22.03756
G1 X92.449 Y4.742 E22.32892
G1 X99.619 Y2.185 E22.62024
G1 X100.832 Y1.654 E22.67092
G1 X100.995 Y1.583 E22.67772
G1 X101.063 Y1.747 E22.68209
G1 X107.817 Y17.946 E23.35375
G1 X106.153 Y18.674 E23.42326
G1 X97.825 Y21.643 E23.76162
G1 X89.291 Y24.031 E24.10076
G1 X80.624 Y25.813 E24.43938
G1 X72.548 Y26.894 E24.75121
G0 F1080 X71.861 Y26.986
G0 F1800 X71.662 Y26.998
G0 X71.645 Y26.724
G0 X71.758 Y25.976
;TYPE:SKIN
G1 F1200 X62.986 Y26.532 E25.08758
G1 X54.207 Y26.474 E25.42356
G1 X45.468 Y25.806 E25.75898
G1 X36.766 Y24.526 E26.09559
G1 X28.208 Y22.648 E26.4309
G1 X19.77 Y20.169 E26.76747
G1 X12.872 Y17.606 E27.04908
G1 X18.85 Y3.083 E27.65012
G1 X24.725 Y5.266 E27.88998
G1 X32.096 Y7.432 E28.18399
G1 X39.6 Y9.077 E28.47799
G1 X47.204 Y10.197 E28.77213
G1 X54.864 Y10.783 E29.06614
G1 X62.548 Y10.833 E29.36021
G1 X70.215 Y10.348 E29.65421
G1 X77.83 Y9.328 E29.94824
G1 X85.356 Y7.778 E30.24231
G1 X92.756 Y5.71 E30.53635
G1 X99.994 Y3.129 E30.83044
G1 X100.456 Y2.927 E30.84973
G1 X106.496 Y17.416 E31.45048
G1 X105.779 Y17.73 E31.48043
G1 X97.522 Y20.674 E31.81591
G1 X89.047 Y23.045 E32.1527
G1 X80.459 Y24.811 E32.48824
G1 X72.445 Y25.884 E32.79767
G0 F1080 X71.758 Y25.976
G0 F1800 X71.773 Y26.23
G0 X80.489 Y25.004
G0 X89.09 Y23.235
G0 X97.575 Y20.862
G0 X105.852 Y17.91
G0 X106.734 Y17.511
G0 X100.551 Y2.685
G0 X100.218 Y3.203
G1 F1200 X100.531 Y3.516 E32.81462
G0 F1800 X99.862 Y3.342
G1 F1200 X100.885 Y4.364 E32.86995
G1 X100.947 Y4.426
G0 F1800 X101.239 Y5.214
G1 F1200 X99.497 Y3.472 E32.96423
G0 F1800 X99.132 Y3.602
G1 F1200 X101.592 Y6.062 E33.09737
G1 X101.654 Y6.124
G0 F1800 X101.946 Y6.911
G1 F1200 X98.767 Y3.732 E33.26943
G0 F1800 X98.403 Y3.862
G1 F1200 X102.3 Y7.76 E33.48037
G1 X102.362 Y7.822
G0 F1800 X102.654 Y8.609
G1 F1200 X98.038 Y3.993 E33.73019
G0 F1800 X97.673 Y4.123
G1 F1200 X103.007 Y9.457 E34.01888
G1 X103.069 Y9.519
G0 F1800 X103.362 Y10.306
G1 F1200 X97.308 Y4.253 E34.34651
G0 F1800 X96.943 Y4.383
G1 F1200 X103.715 Y11.155 E34.71302
G1 X103.777 Y11.217
G0 F1800 X104.069 Y12.003
G1 F1200 X96.578 Y4.513 E35.11842
G0 F1800 X96.214 Y4.644
G1 F1200 X104.423 Y12.853 E35.56271
G1 X104.485 Y12.915
G0 F1800 X104.776 Y13.701
G1 F1200 X95.849 Y4.774 E36.04585
G0 F1800 X95.484 Y4.904
G1 F1200 X105.13 Y14.55 E36.56791
G1 X105.192 Y14.612
G0 F1800 X105.484 Y15.399
G1 F1200 X95.12 Y5.034 E37.12886
G0 F1800 X94.755 Y5.164
G1 F1200 X105.838 Y16.247 E37.72869
G1 X105.9 Y16.309
G0 F1800 X106.191 Y17.096
G1 F1200 X94.39 Y5.294 E38.36741
G0 F1800 X94.025 Y5.424
G1 F1200 X106.042 Y17.442 E39.01782
G0 F1800 X105.697 Y17.592
G1 F1200 X93.66 Y5.555 E39.66929
G0 F1800 X93.295 Y5.685
G1 F1200 X105.332 Y17.722 E40.32075
G0 F1800 X104.967 Y17.852
G1 F1200 X92.93 Y5.815 E40.97222
G0 F1800 X92.551 Y5.931
G1 F1200 X104.602 Y17.981 E41.62441
G0 F1800 X104.237 Y18.111
G1 F1200 X92.165 Y6.039 E42.27777
G0 F1800 X91.778 Y6.147
G1 F1200 X103.872 Y18.241 E42.93232
G0 F1800 X103.507 Y18.372
G1 F1200 X91.39 Y6.255 E43.58811
G0 F1800 X91.003 Y6.363
G1 F1200 X103.142 Y18.502 E44.2451
G0 F1800 X102.777 Y18.632
G1 F1200 X90.617 Y6.471 E44.90325
G0 F1800 X90.23 Y6.579
G1 F1200 X102.413 Y18.762 E45.56262
G0 F1800 X102.048 Y18.892
G1 F1200 X89.843 Y6.687 E46.22317
G0 F1800 X89.456 Y6.796
G1 F1200 X101.683 Y19.022 E46.88489
G0 F1800 X101.318 Y19.152
G1 F1200 X89.069 Y6.904 E47.54781
G0 F1800 X88.683 Y7.012
G1 F1200 X100.953 Y19.282 E48.21188
G0 F1800 X100.588 Y19.412
G1 F1200 X88.296 Y7.12 E48.87715
G0 F1800 X87.909 Y7.228
G1 F1200 X100.223 Y19.543 E49.54363
G0 F1800 X99.859 Y19.673
G1 F1200 X87.522 Y7.336 E50.21133
G0 F1800 X87.136 Y7.445
G1 F1200 X99.494 Y19.803 E50.88017
G0 F1800 X99.128 Y19.932
G1 F1200 X86.748 Y7.552 E51.5502
G0 F1800 X86.361 Y7.66
G1 F1200 X98.763 Y20.062 E52.22142
G0 F1800 X98.398 Y20.192
G1 F1200 X85.974 Y7.768 E52.89383
G0 F1800 X85.588 Y7.877
G1 F1200 X98.033 Y20.322 E53.56738
G0 F1800 X97.669 Y20.453
G1 F1200 X85.188 Y7.972 E54.24287
G0 F1800 X84.778 Y8.057
G1 F1200 X97.294 Y20.573 E54.92026
G0 F1800 X96.907 Y20.681
G1 F1200 X84.367 Y8.141 E55.59895
G0 F1800 X83.957 Y8.226
G1 F1200 X96.52 Y20.789 E56.27888
G0 F1800 X96.133 Y20.897
G1 F1200 X83.546 Y8.31 E56.96011
G0 F1800 X83.136 Y8.395
G1 F1200 X95.747 Y21.006 E57.64265
G0 F1800 X95.36 Y21.114
G1 F1200 X82.725 Y8.479 E58.32647
G0 F1800 X82.315 Y8.564
G1 F1200 X94.973 Y21.222 E59.01155
G0 F1800 X94.586 Y21.33
G1 F1200 X81.905 Y8.649 E59.69787
G0 F1800 X81.494 Y8.733
G1 F1200 X94.2 Y21.438 E60.38551
G0 F1800 X93.813 Y21.546
G1 F1200 X81.084 Y8.818 E61.0744
G0 F1800 X80.673 Y8.902
G1 F1200 X93.426 Y21.655 E61.76462
G0 F1800 X93.04 Y21.764
G1 F1200 X80.263 Y8.987 E62.45614
G0 F1800 X79.852 Y9.071
G1 F1200 X92.653 Y21.872 E63.14895
G0 F1800 X92.266 Y21.98
G1 F1200 X79.442 Y9.156 E63.84301
G0 F1800 X79.032 Y9.241
G1 F1200 X91.88 Y22.088 E64.53834
G0 F1800 X91.493 Y22.196
G1 F1200 X78.621 Y9.325 E65.23497
G0 F1800 X78.211 Y9.41
G1 F1200 X91.106 Y22.304 E65.93284
G0 F1800 X90.719 Y22.413
G1 F1200 X77.797 Y9.49 E66.63223
G0 F1800 X77.361 Y9.549
G1 F1200 X90.332 Y22.521 E67.33428
G0 F1800 X89.946 Y22.629
G1 F1200 X76.924 Y9.608 E68.03902
G0 F1800 X76.487 Y9.666
G1 F1200 X89.559 Y22.737 E68.74648
G0 F1800 X89.172 Y22.845
G1 F1200 X76.051 Y9.724 E69.45661
G0 F1800 X75.615 Y9.783
G1 F1200 X88.772 Y22.94 E70.16869
G0 F1800 X88.362 Y23.025
G1 F1200 X75.178 Y9.841 E70.88224
G0 F1800 X74.741 Y9.9
G1 F1200 X87.951 Y23.109 E71.59716
G0 F1800 X87.541 Y23.194
G1 F1200 X74.305 Y9.958 E72.31352
G0 F1800 X73.868 Y10.016
G1 F1200 X87.13 Y23.278 E73.03128
G0 F1800 X86.72 Y23.363
G1 F1200 X73.432 Y10.075 E73.75045
G0 F1800 X72.996 Y10.134
G1 F1200 X86.309 Y23.447 E74.47098
G0 F1800 X85.899 Y23.532
G1 F1200 X72.559 Y10.192 E75.19296
G0 F1800 X72.122 Y10.25
G1 F1200 X85.488 Y23.616 E75.91635
G0 F1800 X85.077 Y23.7
G1 F1200 X71.686 Y10.309 E76.6411
G0 F1800 X71.249 Y10.367
G1 F1200 X84.667 Y23.785 E77.36731
G0 F1800 X84.256 Y23.869
G1 F1200 X70.813 Y10.426 E78.09487
G0 F1800 X70.376 Y10.484
G1 F1200 X83.846 Y23.954 E78.82389
G0 F1800 X83.435 Y24.038
G1 F1200 X69.92 Y10.523 E79.55535
G0 F1800 X69.455 Y10.553
G1 F1200 X83.025 Y24.123 E80.28978
G0 F1800 X82.614 Y24.207
G1 F1200 X68.99 Y10.583 E81.02714
G0 F1800 X68.524 Y10.612
G1 F1200 X82.204 Y24.292 E81.76752
G0 F1800 X81.793 Y24.376
G1 F1200 X68.059 Y10.641 E82.51086
G0 F1800 X67.593 Y10.671
G1 F1200 X81.383 Y24.46 E83.25717
G0 F1800 X80.972 Y24.545
G1 F1200 X67.127 Y10.7 E84.00649
G0 F1800 X66.662 Y10.73
G1 F1200 X80.562 Y24.629 E84.75876
G0 F1800 X80.134 Y24.697
G1 F1200 X66.197 Y10.76 E85.51305
G0 F1800 X65.731 Y10.789
G1 F1200 X79.697 Y24.755 E86.26892
G0 F1800 X79.261 Y24.813
G1 F1200 X65.265 Y10.818 E87.02638
G0 F1800 X64.8 Y10.848
G1 F1200 X78.824 Y24.871 E87.78536
G0 F1800 X78.387 Y24.93
G1 F1200 X64.335 Y10.878 E88.54588
G0 F1800 X63.869 Y10.907
G1 F1200 X77.95 Y24.988 E89.30797
G0 F1800 X77.514 Y25.047
G1 F1200 X63.404 Y10.936 E90.07166
G0 F1800 X62.938 Y10.966
G1 F1200 X77.078 Y25.105 E90.83692
G0 F1800 X76.641 Y25.163
G1 F1200 X62.467 Y10.99 E91.60401
G0 F1800 X61.969 Y10.987
G1 F1200 X76.204 Y25.222 E92.37444
G0 F1800 X75.767 Y25.28
G1 F1200 X61.471 Y10.984 E93.14816
G0 F1800 X60.973 Y10.98
G1 F1200 X75.331 Y25.339 E93.92527
G0 F1800 X74.894 Y25.397
G1 F1200 X60.474 Y10.977 E94.70571
G0 F1800 X59.976 Y10.974
G1 F1200 X74.458 Y25.455 E95.48948
G0 F1800 X74.021 Y25.513
G1 F1200 X59.478 Y10.97 E96.27657
G0 F1800 X58.98 Y10.967
G1 F1200 X73.585 Y25.572 E97.06702
G0 F1800 X73.148 Y25.631
G1 F1200 X58.481 Y10.964 E97.86082
G0 F1800 X57.983 Y10.96
G1 F1200 X72.711 Y25.689 E98.65796
G0 F1800 X72.275 Y25.747
G1 F1200 X57.485 Y10.958 E99.45839
G0 F1800 X56.987 Y10.954
G1 F1200 X71.838 Y25.805 E100.26216
G0 F1800 X71.379 Y25.841
G1 F1200 X56.489 Y10.951 E101.06803
G0 F1800 X55.99 Y10.948
G1 F1200 X70.913 Y25.87 E101.87567
G0 F1800 X70.448 Y25.9
G1 F1200 X55.492 Y10.944 E102.68511
G0 F1800 X54.994 Y10.941
G1 F1200 X69.983 Y25.93 E103.49635
G0 F1800 X69.517 Y25.96
G1 F1200 X54.468 Y10.91 E104.31085
G0 F1800 X53.932 Y10.869
G1 F1200 X69.051 Y25.989 E105.12915
G0 F1800 X68.586 Y26.018
G1 F1200 X53.396 Y10.828 E105.95126
G0 F1800 X52.86 Y10.787
G1 F1200 X68.121 Y26.048 E106.77721
G0 F1800 X67.655 Y26.078
G1 F1200 X52.324 Y10.746 E107.60698
G0 F1800 X51.788 Y10.705
G1 F1200 X67.189 Y26.107 E108.44054
G0 F1800 X66.724 Y26.136
G1 F1200 X51.252 Y10.664 E109.27791
G0 F1800 X50.716 Y10.623
G1 F1200 X66.259 Y26.166 E110.11913
G0 F1800 X65.794 Y26.196
G1 F1200 X50.18 Y10.582 E110.96419
G0 F1800 X49.644 Y10.541
G1 F1200 X65.328 Y26.225 E111.81304
G0 F1800 X64.862 Y26.254
G1 F1200 X49.108 Y10.5 E112.66567
G0 F1800 X48.572 Y10.459
G1 F1200 X64.397 Y26.284 E113.52215
G0 F1800 X63.932 Y26.314
G1 F1200 X48.035 Y10.417 E114.38253
G0 F1800 X47.499 Y10.376
G1 F1200 X63.466 Y26.343 E115.24669
G0 F1800 X63.001 Y26.372
G1 F1200 X46.945 Y10.317 E116.11565
G0 F1800 X46.364 Y10.231
G1 F1200 X62.504 Y26.371 E116.98917
G0 F1800 X62.006 Y26.368
G1 F1200 X45.784 Y10.146 E117.86714
G0 F1800 X45.203 Y10.06
G1 F1200 X61.508 Y26.365 E118.74959
G0 F1800 X61.009 Y26.361
G1 F1200 X44.623 Y9.975 E119.63644
G0 F1800 X44.042 Y9.889
G1 F1200 X60.511 Y26.358 E120.52777
G0 F1800 X60.013 Y26.355
G1 F1200 X43.462 Y9.804 E121.42354
G0 F1800 X42.881 Y9.718
G1 F1200 X59.515 Y26.351 E122.32378
G0 F1800 X59.016 Y26.348
G1 F1200 X42.301 Y9.632 E123.22845
G0 F1800 X41.72 Y9.547
G1 F1200 X58.518 Y26.345 E124.13759
G0 F1800 X58.02 Y26.341
G1 F1200 X41.14 Y9.461 E125.05117
G0 F1800 X40.559 Y9.376
G1 F1200 X57.522 Y26.339 E125.96924
G0 F1800 X57.023 Y26.335
G1 F1200 X39.979 Y9.291 E126.89169
G0 F1800 X39.383 Y9.189
G1 F1200 X56.525 Y26.331 E127.81945
G0 F1800 X56.027 Y26.329
G1 F1200 X38.749 Y9.05 E128.75459
G0 F1800 X38.115 Y8.911
G1 F1200 X55.529 Y26.325 E129.69707
G0 F1800 X55.03 Y26.322
G1 F1200 X37.481 Y8.773 E130.64685
G0 F1800 X36.847 Y8.633
G1 F1200 X54.532 Y26.319 E131.60403
G0 F1800 X54.02 Y26.302
G1 F1200 X36.213 Y8.495 E132.56777
G0 F1800 X35.579 Y8.355
G1 F1200 X53.485 Y26.261 E133.53688
G0 F1800 X52.949 Y26.22
G1 F1200 X34.945 Y8.217 E134.51126
G0 F1800 X34.311 Y8.077
G1 F1200 X52.413 Y26.179 E135.49098
G0 F1800 X51.877 Y26.138
G1 F1200 X33.678 Y7.939 E136.47594
G0 F1800 X33.043 Y7.8
G1 F1200 X51.341 Y26.097 E137.46624
G0 F1800 X50.805 Y26.056
G1 F1200 X32.41 Y7.661 E138.46181
G0 F1800 X31.748 Y7.494
G1 F1200 X50.269 Y26.015 E139.4642
G0 F1800 X49.733 Y25.974
G1 F1200 X31.047 Y7.288 E140.47552
G1 X30.985 Y7.226
G0 F1800 X30.346 Y7.082
G1 F1200 X49.197 Y25.933 E141.49577
G0 F1800 X48.661 Y25.892
G1 F1200 X29.645 Y6.876 E142.52495
G1 X29.583 Y6.814
G0 F1800 X28.944 Y6.67
G1 F1200 X48.125 Y25.851 E143.56307
G0 F1800 X47.59 Y25.811
G1 F1200 X28.243 Y6.464 E144.61016
G1 X28.181 Y6.402
G0 F1800 X27.541 Y6.257
G1 F1200 X47.054 Y25.77 E145.66624
G0 F1800 X46.518 Y25.729
G1 F1200 X26.841 Y6.052 E146.7312
G1 X26.779 Y5.99
G0 F1800 X26.139 Y5.845
G1 F1200 X45.982 Y25.688 E147.80514
G0 F1800 X45.442 Y25.643
G1 F1200 X25.438 Y5.639 E148.88779
G1 X25.376 Y5.577
G0 F1800 X24.737 Y5.433
G1 F1200 X44.862 Y25.558 E149.97699
G0 F1800 X44.281 Y25.472
G1 F1200 X23.957 Y5.148 E151.07697
G1 X23.895 Y5.086
G0 F1800 X23.17 Y4.856
G1 F1200 X43.702 Y25.387 E152.18817
G0 F1800 X43.121 Y25.302
G1 F1200 X22.382 Y4.563 E153.3106
G1 X22.32 Y4.501
G0 F1800 X21.595 Y4.27
G1 F1200 X42.54 Y25.216 E154.44421
G0 F1800 X41.96 Y25.131
G1 F1200 X20.807 Y3.978 E155.58905
G1 X20.745 Y3.916
G0 F1800 X20.019 Y3.685
G1 F1200 X41.38 Y25.046 E156.74515
G0 F1800 X40.8 Y24.96
G1 F1200 X19.231 Y3.392 E157.91248
G0 F1800 X18.846 Y3.502
G1 F1200 X40.219 Y24.875 E159.06923
G0 F1800 X39.638 Y24.789
G1 F1200 X18.702 Y3.853 E160.20232
G0 F1800 X18.558 Y4.203
G1 F1200 X39.059 Y24.704 E161.31187
G0 F1800 X38.478 Y24.619
G1 F1200 X18.413 Y4.553 E162.39786
G0 F1800 X18.268 Y4.904
G1 F1200 X37.898 Y24.533 E163.46024
G0 F1800 X37.317 Y24.448
G1 F1200 X18.124 Y5.255 E164.499
G0 F1800 X17.98 Y5.605
G1 F1200 X36.732 Y24.357 E165.5139
G0 F1800 X36.097 Y24.218
G1 F1200 X17.836 Y5.956 E166.50224
G0 F1800 X17.691 Y6.307
G1 F1200 X35.463 Y24.079 E167.4641
G0 F1800 X34.829 Y23.939
G1 F1200 X17.547 Y6.658 E168.3994
G0 F1800 X17.403 Y7.008
G1 F1200 X34.195 Y23.801 E169.30824
G0 F1800 X33.561 Y23.661
G1 F1200 X17.259 Y7.359 E170.19054
G0 F1800 X17.114 Y7.709
G1 F1200 X32.927 Y23.522 E171.04637
G0 F1800 X32.292 Y23.383
G1 F1200 X16.969 Y8.06 E171.87568
G0 F1800 X16.825 Y8.411
G1 F1200 X31.658 Y23.244 E172.67847
G0 F1800 X31.025 Y23.105
G1 F1200 X16.681 Y8.761 E173.45479
G0 F1800 X16.537 Y9.112
G1 F1200 X30.39 Y22.966 E174.20457
G0 F1800 X29.756 Y22.826
G1 F1200 X16.392 Y9.463 E174.92783
G0 F1800 X16.248 Y9.813
G1 F1200 X29.122 Y22.687 E175.62459
G0 F1800 X28.487 Y22.548
G1 F1200 X16.104 Y10.164 E176.29481
G0 F1800 X15.96 Y10.515
G1 F1200 X27.813 Y22.368 E176.93632
G1 X27.875 Y22.43
G0 F1800 X27.111 Y22.162
G1 F1200 X15.815 Y10.865 E177.5477
G0 F1800 X15.67 Y11.216
G1 F1200 X26.411 Y21.956 E178.129
G1 X26.473 Y22.018
G0 F1800 X25.71 Y21.75
G1 F1200 X15.526 Y11.566 E178.68018
