;FLAVOR:Marlin
;TIME:4361
;Filament used: 3.81112m
;Layer height: 0.263
;MINX:25.864
;MINY:26.988
;MINZ:0.306
;MAXX:92.43
;MAXY:93.03
;MAXZ:35.285
;Generated with Cura_SteamEngine master
M140 S65
M105
M190 S65
M104 S220
M105
M109 S220
M82 ;absolute extrusion mode
G90 ; set to absolute positioning - this line was added in case Cura doesn't include it by default
M82 ; set extruder to absolute mode - this line was added in case Cura doesn't include it by default (may not be needed)
G28 ; home all axes
; The lines below are to prep the nozzle before a print begins
G1 Z0.2 F1200 ; raise nozzle 0.2mm
G92 E0 ; reset extrusion distance
G1 Y-1 ; move Y-Axis (bed) 1mm to prep for purge
G1 X25 E3 F600 ; move X-carriage 50mm while purging 3mm of filament
G1 X120;
G92 E0 ; reset extrusion distance
G1 Z5;
G1 X-1 Y0;
G1 Z0;
G1 Y120;
G1 Z5;
G1 X0 Y0;
G1 Z0;
G92 E0
G92 E0
G1 F2400 E-2.5
;LAYER_COUNT:135
;LAYER:0
M107
G0 F2700 X26.232 Y27.535 Z0.306
;TYPE:SKIRT
G1 F2400 E0
G1 F900 X26.486 Y27.296 E0.01553
G1 X26.787 Y27.121 E0.03103
G1 X27.121 Y27.018 E0.0466
G1 X27.958 Y26.988 E0.08389
G1 X28.339 Y26.992 E0.10085
G1 X30.358 Y27.051 E0.19079
G1 X30.644 Y27.065 E0.20354
G1 X32.321 Y27.175 E0.27838
G1 X32.825 Y27.217 E0.30089
G1 X34.381 Y27.369 E0.37051
G1 X34.922 Y27.431 E0.39476
G1 X36.546 Y27.644 E0.46769
G1 X37.065 Y27.721 E0.49105
G1 X38.624 Y27.977 E0.5614
G1 X39.135 Y28.069 E0.58452
G1 X40.738 Y28.385 E0.65727
G1 X41.237 Y28.493 E0.68
G1 X42.845 Y28.866 E0.7535
G1 X43.262 Y28.969 E0.77263
G1 X44.924 Y29.412 E0.84921
G1 X45.382 Y29.543 E0.87042
G1 X46.919 Y30.005 E0.94189
G1 X47.37 Y30.149 E0.96297
G1 X48.999 Y30.698 E1.03951
G1 X49.392 Y30.838 E1.05809
G1 X51.007 Y31.442 E1.13486
G1 X51.395 Y31.595 E1.15343
G1 X52.957 Y32.237 E1.22863
G1 X53.382 Y32.42 E1.24923
G1 X54.896 Y33.102 E1.32317
G1 X55.342 Y33.31 E1.34508
G1 X56.773 Y34.012 E1.41606
G1 X57.257 Y34.258 E1.44023
G1 X58.671 Y35.008 E1.5115
G1 X59.118 Y35.255 E1.53424
G1 X60.548 Y36.074 E1.60762
G1 X60.956 Y36.317 E1.62876
G1 X62.427 Y37.229 E1.70583
G1 X62.765 Y37.445 E1.72369
G1 X64.149 Y38.363 E1.79764
G1 X64.549 Y38.638 E1.81925
G1 X65.873 Y39.58 E1.89161
G1 X66.262 Y39.866 E1.91311
G1 X67.581 Y40.869 E1.98689
G1 X67.921 Y41.137 E2.00617
G1 X69.276 Y42.243 E2.08405
G1 X71.678 Y44.276 E2.22417
G1 X73.841 Y46.005 E2.34747
G1 X75.087 Y46.957 E2.41729
G1 X75.603 Y47.359 E2.44641
G1 X75.978 Y47.724 E2.46971
G1 X76.561 Y48.362 E2.5082
G1 X77.574 Y49.503 E2.57614
G1 X77.985 Y49.981 E2.60421
G1 X79.222 Y51.476 E2.69061
G1 X79.435 Y51.744 E2.70585
G1 X80.381 Y52.97 E2.7748
G1 X80.55 Y53.196 E2.78737
G1 X81.508 Y54.518 E2.86006
G1 X81.821 Y54.965 E2.88436
G1 X82.769 Y56.376 E2.96005
G1 X82.986 Y56.767 E2.97996
G1 X83.442 Y57.879 E3.03348
G1 X83.541 Y58.131 E3.04553
G1 X84.62 Y60.677 E3.16866
G1 X85.804 Y63.258 E3.2951
G1 X86.292 Y64.288 E3.34585
G1 X86.973 Y65.78 E3.41888
G1 X87.124 Y66.125 E3.43565
G1 X87.809 Y67.767 E3.51487
G1 X87.991 Y68.22 E3.53661
G1 X88.434 Y69.381 E3.59194
G1 X88.699 Y70.114 E3.62664
G1 X89.247 Y71.72 E3.7022
G1 X89.395 Y72.179 E3.72368
G1 X89.866 Y73.719 E3.79538
G1 X89.984 Y74.128 E3.81434
G1 X90.429 Y75.776 E3.89035
G1 X90.565 Y76.312 E3.91497
G1 X90.842 Y77.482 E3.9685
G1 X91.002 Y78.218 E4.00204
G1 X91.35 Y79.948 E4.08062
G1 X91.439 Y80.439 E4.10284
G1 X91.691 Y81.956 E4.17131
G1 X91.78 Y82.547 E4.19792
G1 X91.941 Y83.733 E4.25121
G1 X92.023 Y84.448 E4.28326
G1 X92.204 Y86.26 E4.36434
G1 X92.237 Y86.665 E4.38244
G1 X92.347 Y88.335 E4.45696
G1 X92.368 Y88.757 E4.47577
G1 X92.423 Y90.428 E4.55022
G1 X92.428 Y90.725 E4.56344
G1 X92.43 Y91.489 E4.59746
G1 X92.391 Y91.836 E4.61301
G1 X92.274 Y92.164 E4.62852
G1 X92.086 Y92.458 E4.64406
G1 X91.836 Y92.701 E4.65958
G1 X91.537 Y92.881 E4.67512
G1 X91.206 Y92.988 E4.69061
G1 X90.928 Y93.018 E4.70306
G1 X90.132 Y93.03 E4.73851
G1 X79.707 Y93.03 E5.2027
G1 X79.005 Y93.02 E5.23396
G1 X78.659 Y92.975 E5.2495
G1 X78.333 Y92.853 E5.265
G1 X78.043 Y92.66 E5.28051
G1 X77.528 Y92.045 E5.31623
G1 X75.795 Y89.838 E5.44117
G1 X74.031 Y87.718 E5.56397
G1 X72.186 Y85.624 E5.68824
G1 X70.301 Y83.602 E5.81133
G1 X68.324 Y81.598 E5.93668
G1 X66.321 Y79.681 E6.06013
G1 X64.252 Y77.808 E6.1844
G1 X62.151 Y76.014 E6.30741
G1 X59.95 Y74.237 E6.43337
G1 X57.749 Y72.563 E6.5565
G1 X55.486 Y70.94 E6.6805
G1 X53.178 Y69.381 E6.80452
G1 X50.834 Y67.892 E6.92817
G1 X48.438 Y66.465 E7.05234
G1 X46.005 Y65.108 E7.17639
G1 X43.515 Y63.808 E7.30146
G1 X41.049 Y62.609 E7.42355
G1 X38.492 Y61.453 E7.54851
G1 X35.899 Y60.368 E7.67366
G1 X33.311 Y59.374 E7.79711
G1 X30.702 Y58.452 E7.92032
G1 X28.041 Y57.596 E8.04478
G1 X26.953 Y57.262 E8.09546
G1 X26.633 Y57.122 E8.11101
G1 X26.354 Y56.913 E8.12654
G1 X26.129 Y56.647 E8.14205
G1 X25.971 Y56.336 E8.15758
G1 X25.876 Y55.851 E8.17959
G1 X25.865 Y55.482 E8.19603
G1 X25.864 Y29.188 E9.36682
G1 X25.873 Y28.498 E9.39755
G1 X25.918 Y28.152 E9.41308
G1 X25.953 Y28.058 E9.41755
G0 F810 X26.039 Y27.825
G0 X26.232 Y27.535
G0 F2700 X26.576 Y27.678
G1 F900 X26.821 Y27.494 E9.43119
G1 X27.105 Y27.38 E9.44482
G1 X27.499 Y27.34 E9.46245
G1 X28.329 Y27.342 E9.49941
G1 X30.34 Y27.4 E9.58899
G1 X30.621 Y27.415 E9.60152
G1 X32.292 Y27.524 E9.67608
G1 X32.791 Y27.566 E9.69838
G1 X34.341 Y27.717 E9.76772
G1 X34.876 Y27.778 E9.7917
G1 X36.494 Y27.99 E9.86436
G1 X37.008 Y28.066 E9.8875
G1 X38.562 Y28.321 E9.95762
G1 X39.067 Y28.412 E9.98046
G1 X40.664 Y28.727 E10.05294
G1 X41.158 Y28.834 E10.07545
G1 X42.761 Y29.206 E10.14872
G1 X43.172 Y29.308 E10.16758
G1 X44.828 Y29.749 E10.24389
G1 X45.281 Y29.878 E10.26486
G1 X46.813 Y30.338 E10.33608
G1 X47.258 Y30.48 E10.35688
G1 X48.882 Y31.028 E10.4332
G1 X49.27 Y31.166 E10.45154
G1 X50.879 Y31.768 E10.52803
G1 X51.262 Y31.919 E10.54636
G1 X52.819 Y32.558 E10.6213
G1 X53.238 Y32.74 E10.64164
G1 X54.748 Y33.419 E10.71536
G1 X55.188 Y33.625 E10.737
G1 X56.615 Y34.324 E10.80775
G1 X57.093 Y34.567 E10.83163
G1 X58.502 Y35.315 E10.90266
G1 X58.944 Y35.559 E10.92514
G1 X60.369 Y36.375 E10.99826
G1 X60.772 Y36.615 E11.01914
G1 X62.239 Y37.524 E11.09599
G1 X62.571 Y37.737 E11.11355
G1 X63.952 Y38.652 E11.18731
G1 X64.346 Y38.923 E11.20861
G1 X65.666 Y39.862 E11.28074
G1 X66.05 Y40.145 E11.30198
G1 X67.364 Y41.144 E11.37547
G1 X67.7 Y41.408 E11.3945
G1 X69.05 Y42.51 E11.4721
G1 X71.44 Y44.533 E11.61152
G1 X73.649 Y46.299 E11.73745
G1 X74.867 Y47.23 E11.80571
G1 X75.361 Y47.612 E11.83352
G1 X75.72 Y47.96 E11.85578
G1 X76.299 Y48.595 E11.89405
G1 X77.309 Y49.731 E11.96173
G1 X77.715 Y50.204 E11.98949
G1 X78.948 Y51.694 E12.0756
G1 X79.158 Y51.958 E12.09062
G1 X80.101 Y53.179 E12.15932
G1 X80.266 Y53.401 E12.17163
G1 X81.222 Y54.719 E12.24413
G1 X81.531 Y55.16 E12.26811
G1 X82.471 Y56.559 E12.34316
G1 X82.662 Y56.9 E12.36056
G1 X83.116 Y58.007 E12.41384
G1 X83.204 Y58.232 E12.42459
G1 X84.305 Y60.83 E12.55023
G1 X85.494 Y63.422 E12.67721
G1 X85.974 Y64.433 E12.72704
G1 X86.653 Y65.921 E12.79987
G1 X86.801 Y66.26 E12.81634
G1 X87.485 Y67.898 E12.89538
G1 X87.664 Y68.345 E12.91682
G1 X88.105 Y69.5 E12.97187
G1 X88.368 Y70.227 E13.0063
G1 X88.914 Y71.827 E13.08157
G1 X89.061 Y72.281 E13.10282
G1 X89.53 Y73.816 E13.17429
G1 X89.646 Y74.22 E13.19301
G1 X90.09 Y75.862 E13.26875
G1 X90.224 Y76.393 E13.29313
G1 X90.5 Y77.556 E13.34635
G1 X90.659 Y78.287 E13.37966
G1 X91.006 Y80.011 E13.45797
G1 X91.094 Y80.496 E13.47992
G1 X91.345 Y82.008 E13.54816
G1 X91.433 Y82.594 E13.57455
G1 X91.593 Y83.774 E13.62757
G1 X91.675 Y84.482 E13.65931
G1 X91.855 Y86.288 E13.74012
G1 X91.887 Y86.688 E13.75799
G1 X91.997 Y88.353 E13.83229
G1 X92.018 Y88.769 E13.85083
G1 X92.073 Y90.434 E13.92501
G1 X92.078 Y90.726 E13.93802
G1 X92.08 Y91.49 E13.97203
G1 X92.041 Y91.793 E13.98564
G1 X91.925 Y92.076 E13.99926
G1 X91.74 Y92.32 E14.01289
G1 X91.498 Y92.507 E14.02651
G1 X91.216 Y92.626 E14.04014
G1 X90.923 Y92.668 E14.05332
G1 X90.127 Y92.68 E14.08876
G1 X79.712 Y92.68 E14.55251
G1 X79.01 Y92.67 E14.58377
G1 X78.708 Y92.626 E14.59736
G1 X78.426 Y92.505 E14.61103
G1 X78.093 Y92.208 E14.6309
G1 X77.807 Y91.833 E14.65189
G1 X76.07 Y89.622 E14.77709
G1 X74.303 Y87.498 E14.90012
G1 X72.434 Y85.377 E15.02599
G1 X70.54 Y83.344 E15.14971
G1 X68.598 Y81.376 E15.27282
G1 X66.568 Y79.433 E15.39794
G1 X64.486 Y77.548 E15.523
G1 X62.346 Y75.721 E15.64829
G1 X60.18 Y73.972 E15.77225
G1 X57.973 Y72.293 E15.89573
G1 X55.692 Y70.657 E16.02072
G1 X53.357 Y69.08 E16.14618
G1 X50.998 Y67.582 E16.27061
G1 X48.626 Y66.168 E16.39357
G1 X46.185 Y64.807 E16.51801
G1 X43.689 Y63.504 E16.64338
G1 X41.176 Y62.282 E16.76781
G1 X38.629 Y61.131 E16.89226
G1 X36.018 Y60.038 E17.0183
G1 X33.443 Y59.049 E17.14112
G1 X30.824 Y58.124 E17.2648
G1 X28.148 Y57.262 E17.38998
G1 X27.055 Y56.927 E17.44088
G1 X26.777 Y56.8 E17.45449
G1 X26.541 Y56.606 E17.4681
G1 X26.363 Y56.357 E17.48172
G1 X26.256 Y56.07 E17.49536
G1 X26.216 Y55.518 E17.52001
G1 X26.214 Y29.193 E18.69218
G1 X26.223 Y28.503 E18.72291
G1 X26.267 Y28.2 E18.73654
G1 X26.273 Y28.187 E18.73718
G0 F810 X26.387 Y27.919
G0 X26.576 Y27.678
G1 F2400 E16.23718
;MESH:body_b.stl
G0 F2700 X29.25 Y27.884
G0 X29.236 Y29.585
G0 X28.421 Y29.55
G0 X28.422 Y54.78
G0 X48.979 Y54.79
G0 X79.897 Y76.38
;TYPE:WALL-INNER
G1 F2400 E18.73718
G1 F900 X48.932 Y54.937 E20.41427
G1 X28.265 Y54.937 E21.33451
G1 X28.264 Y29.567 E22.46416
G1 X28.264 Y29.566 E22.46421
G1 X28.264 Y29.391 E22.472
G1 X28.439 Y29.391 E22.47704
G1 X28.44 Y29.392 E22.47711
G1 X29.245 Y29.4 E22.51295
G1 X31.329 Y29.502 E22.60586
G1 X33.359 Y29.669 E22.69655
G1 X35.411 Y29.903 E22.78852
G1 X37.457 Y30.205 E22.8806
G1 X39.459 Y30.566 E22.97119
G1 X41.481 Y31.001 E23.06328
G1 X43.465 Y31.493 E23.1543
G1 X45.453 Y32.058 E23.24632
G1 X47.424 Y32.685 E23.33842
G1 X49.333 Y33.364 E23.42864
G1 X51.256 Y34.119 E23.52062
G1 X53.161 Y34.938 E23.61296
G1 X55.003 Y35.804 E23.70359
G1 X56.832 Y36.736 E23.79499
G1 X58.641 Y37.733 E23.88696
G1 X60.412 Y38.787 E23.97873
G1 X62.122 Y39.883 E24.06917
G1 X63.814 Y41.045 E24.16056
G1 X65.475 Y42.266 E24.25236
G1 X67.068 Y43.521 E24.34265
G1 X68.645 Y44.851 E24.43451
G1 X70.182 Y46.232 E24.52652
G1 X71.639 Y47.631 E24.61646
G1 X73.083 Y49.114 E24.70862
G1 X74.455 Y50.614 E24.79914
G1 X75.782 Y52.166 E24.89006
G1 X77.06 Y53.764 E24.98117
G1 X78.285 Y55.402 E25.07225
G1 X79.455 Y57.08 E25.16333
G1 X80.575 Y58.804 E25.25488
G1 X81.622 Y60.536 E25.34499
G1 X82.625 Y62.328 E25.43643
G1 X83.567 Y64.144 E25.52753
G1 X84.447 Y65.993 E25.61871
G1 X85.259 Y67.848 E25.70887
G1 X86.011 Y69.736 E25.79936
G1 X86.71 Y71.672 E25.89101
G1 X87.343 Y73.629 E25.9826
G1 X87.9 Y75.558 E26.072
G1 X88.395 Y77.522 E26.16218
G1 X88.836 Y79.542 E26.25425
G1 X89.206 Y81.57 E26.34604
G1 X89.505 Y83.571 E26.43612
G1 X89.742 Y85.599 E26.52704
G1 X89.908 Y87.637 E26.61809
G1 X90.01 Y89.674 E26.7089
G1 X90.024 Y90.453 E26.74359
G1 X90.025 Y90.454 E26.74366
G1 X90.026 Y90.63 E26.75149
G1 X89.85 Y90.63 E26.75656
G1 X89.849 Y90.63 E26.7566
G1 X79.897 Y90.63 E27.19974
G1 X79.897 Y76.977 E27.80766
G0 F810 X79.897 Y76.38
G0 F2700 X79.547 Y76.563
G1 F900 X48.823 Y55.287 E29.47171
G1 X27.915 Y55.287 E30.40268
G1 X27.914 Y29.214 E31.56363
G1 X27.914 Y29.213 E31.56367
G1 X27.914 Y29.038 E31.57147
G1 X28.089 Y29.038 E31.57651
G1 X28.09 Y29.039 E31.57657
G1 X29.262 Y29.05 E31.62876
G1 X31.346 Y29.152 E31.72167
G1 X33.396 Y29.321 E31.81326
G1 X35.451 Y29.555 E31.90535
G1 X37.508 Y29.859 E31.99794
G1 X39.533 Y30.224 E32.08956
G1 X41.565 Y30.661 E32.1821
G1 X43.561 Y31.156 E32.27367
G1 X45.554 Y31.723 E32.36594
G1 X47.53 Y32.351 E32.45826
G1 X49.461 Y33.038 E32.54952
G1 X51.394 Y33.797 E32.64199
G1 X53.299 Y34.616 E32.73432
G1 X55.152 Y35.487 E32.82549
G1 X57.001 Y36.429 E32.91789
G1 X58.81 Y37.426 E33.00986
G1 X60.601 Y38.492 E33.10266
G1 X62.32 Y39.594 E33.19358
G1 X64.012 Y40.756 E33.28498
G1 X65.682 Y41.984 E33.37728
G1 X67.294 Y43.253 E33.46863
G1 X68.871 Y44.583 E33.56049
G1 X70.416 Y45.972 E33.653
G1 X71.89 Y47.387 E33.74398
G1 X73.334 Y48.87 E33.83614
G1 X74.721 Y50.387 E33.92767
G1 X76.055 Y51.947 E34.01906
G1 X77.34 Y53.554 E34.11068
G1 X78.572 Y55.202 E34.2023
G1 X79.748 Y56.889 E34.29387
G1 X80.875 Y58.623 E34.38595
G1 X81.922 Y60.355 E34.47607
G1 X82.936 Y62.167 E34.56852
G1 X83.878 Y63.983 E34.65962
G1 X84.768 Y65.853 E34.75183
G1 X85.58 Y67.708 E34.842
G1 X86.34 Y69.617 E34.93349
G1 X87.043 Y71.564 E35.02566
G1 X87.676 Y73.521 E35.11724
G1 X88.239 Y75.472 E35.20766
G1 X88.737 Y77.447 E35.29835
G1 X89.178 Y79.467 E35.39042
G1 X89.552 Y81.518 E35.48325
G1 X89.853 Y83.53 E35.57383
G1 X90.09 Y85.558 E35.66475
G1 X90.258 Y87.619 E35.75682
G1 X90.36 Y89.656 E35.84764
G1 X90.38 Y90.803 E35.89872
G1 X90.381 Y90.804 E35.89878
G1 X90.382 Y90.98 E35.90662
G1 X90.206 Y90.98 E35.91168
G1 X90.205 Y90.98 E35.91173
G1 X79.547 Y90.98 E36.3863
G1 X79.547 Y77.16 E37.00166
G0 F810 X79.547 Y76.563
G0 F2700 X79.222 Y76.733
;TYPE:WALL-OUTER
G1 F900 X48.721 Y55.612 E38.65361
G1 X27.59 Y55.612 E39.59451
G1 X27.589 Y28.886 E40.78454
G1 X27.589 Y28.885 E40.78458
G1 X27.589 Y28.71 E40.79238
G1 X27.764 Y28.71 E40.79742
G1 X27.765 Y28.711 E40.79748
G1 X29.278 Y28.725 E40.86485
G1 X31.362 Y28.827 E40.95776
G1 X33.427 Y28.997 E41.05002
G1 X35.499 Y29.233 E41.14288
G1 X37.556 Y29.537 E41.23546
G1 X39.595 Y29.905 E41.32772
G1 X41.633 Y30.343 E41.42054
G1 X43.65 Y30.843 E41.51307
G1 X45.643 Y31.41 E41.60533
G1 X47.628 Y32.041 E41.69808
G1 X49.58 Y32.735 E41.79032
G1 X51.513 Y33.494 E41.88279
G1 X53.427 Y34.317 E41.97556
G1 X55.3 Y35.197 E42.0677
G1 X57.149 Y36.139 E42.1601
G1 X58.967 Y37.141 E42.25253
G1 X60.776 Y38.218 E42.34628
G1 X62.504 Y39.326 E42.43768
G1 X64.205 Y40.494 E42.52956
G1 X65.875 Y41.722 E42.62186
G1 X67.504 Y43.005 E42.71419
G1 X69.088 Y44.341 E42.80646
G1 X70.633 Y45.73 E42.89896
G1 X72.123 Y47.16 E42.99092
G1 X73.567 Y48.643 E43.08309
G1 X74.968 Y50.176 E43.17556
G1 X76.309 Y51.744 E43.26743
G1 X77.6 Y53.359 E43.35949
G1 X78.839 Y55.016 E43.45162
G1 X80.021 Y56.712 E43.54367
G1 X81.148 Y58.446 E43.63575
G1 X82.206 Y60.196 E43.72681
G1 X83.225 Y62.017 E43.81972
G1 X84.166 Y63.833 E43.91079
G1 X85.066 Y65.723 E44.004
G1 X85.882 Y67.588 E44.09465
G1 X86.646 Y69.507 E44.18662
G1 X87.349 Y71.454 E44.27879
G1 X87.988 Y73.431 E44.3713
G1 X88.554 Y75.393 E44.46223
G1 X89.058 Y77.391 E44.55398
G1 X89.06 Y77.408 E44.55474
G1 X89.498 Y79.409 E44.64595
G1 X89.872 Y81.46 E44.73878
G1 X90.176 Y83.492 E44.83027
G1 X90.414 Y85.532 E44.92172
G1 X90.583 Y87.603 E45.01424
G1 X90.685 Y89.64 E45.10506
G1 X90.71 Y91.128 E45.17132
G1 X90.711 Y91.129 E45.17138
G1 X90.712 Y91.305 E45.17922
G1 X90.536 Y91.305 E45.18429
G1 X90.535 Y91.305 E45.18433
G1 X79.222 Y91.305 E45.68806
G1 X79.222 Y77.33 E46.31033
G0 F810 X79.222 Y76.733
G0 F2700 X79.058 Y76.62
G0 X79.215 Y76.394
G0 X79.994 Y76.329
G0 X80.237 Y76.202
;TYPE:SKIN
G1 F900 X49.039 Y54.597 E48.00006
G1 X28.605 Y54.597 E48.90993
G1 X28.604 Y29.734 E50.017
G1 X29.228 Y29.74 E50.04479
G1 X31.344 Y29.843 E50.13912
G1 X33.32 Y30.007 E50.22741
G1 X35.372 Y30.241 E50.31937
G1 X37.407 Y30.541 E50.41096
G1 X39.387 Y30.898 E50.50055
G1 X41.399 Y31.331 E50.59219
G1 X43.378 Y31.822 E50.68298
G1 X45.355 Y32.384 E50.77449
G1 X47.315 Y33.007 E50.86607
G1 X49.214 Y33.683 E50.95582
G1 X51.122 Y34.432 E51.04709
G1 X53.07 Y35.27 E51.14152
G1 X54.849 Y36.107 E51.22906
G1 X56.673 Y37.037 E51.32023
G1 X58.472 Y38.028 E51.41168
G1 X60.229 Y39.073 E51.50271
G1 X61.934 Y40.166 E51.59288
G1 X63.612 Y41.319 E51.68354
G1 X65.284 Y42.548 E51.77594
G1 X66.833 Y43.768 E51.86373
G1 X68.422 Y45.108 E51.95629
G1 X69.947 Y46.477 E52.04754
G1 X71.396 Y47.868 E52.13697
G1 X72.832 Y49.343 E52.22864
G1 X74.2 Y50.839 E52.3189
G1 X75.516 Y52.378 E52.40906
G1 X76.788 Y53.968 E52.49973
G1 X78.009 Y55.601 E52.59052
G1 X79.17 Y57.265 E52.68087
G1 X80.284 Y58.98 E52.77193
G1 X81.328 Y60.708 E52.86182
G1 X82.326 Y62.49 E52.95276
G1 X83.26 Y64.29 E53.04306
G1 X84.136 Y66.129 E53.13376
G1 X84.935 Y67.955 E53.22251
G1 X85.691 Y69.851 E53.3134
G1 X86.386 Y71.777 E53.40457
G1 X87.017 Y73.729 E53.49591
G1 X87.571 Y75.647 E53.58481
G1 X88.064 Y77.6 E53.6745
G1 X88.502 Y79.603 E53.76579
G1 X88.87 Y81.62 E53.85709
G1 X89.167 Y83.61 E53.94668
G1 X89.404 Y85.638 E54.03759
