;FLAVOR:Marlin
;TIME:2079
;Filament used: 1.43776m
;Layer height: 0.263
;MINX:30.94
;MINY:22.418
;MINZ:0.306
;MAXX:89.068
;MAXY:100.849
;MAXZ:5.566
;Generated with Cura_SteamEngine master
M140 S65
M105
M190 S65
M104 S220
M105
M109 S220
M82 ;absolute extrusion mode
G90 ; set to absolute positioning - this line was added in case Cura doesn't include it by default
M82 ; set extruder to absolute mode - this line was added in case Cura doesn't include it by default (may not be needed)
G28 ; home all axes
; The lines below are to prep the nozzle before a print begins
G1 Z0.2 F1200 ; raise nozzle 0.2mm
G92 E0 ; reset extrusion distance
G1 Y-1 ; move Y-Axis (bed) 1mm to prep for purge
G1 X25 E3 F600 ; move X-carriage 50mm while purging 3mm of filament
G1 X120;
G92 E0 ; reset extrusion distance
G1 Z5;
G1 X-1 Y0;
G1 Z0;
G1 Y120;
G1 Z5;
G1 X0 Y0;
G1 Z0;
G92 E0
G92 E0
G1 F2400 E-2.5
;LAYER_COUNT:21
;LAYER:0
M107
G0 F2700 X37.298 Y23.462 Z0.306
;TYPE:SKIRT
G1 F2400 E0
G1 F900 X37.68 Y22.917 E0.02963
G1 X37.887 Y22.691 E0.04328
G1 X38.144 Y22.527 E0.05686
G1 X38.436 Y22.434 E0.0705
G1 X38.875 Y22.439 E0.09005
G1 X40.225 Y22.712 E0.15138
G1 X40.567 Y22.785 E0.16695
G1 X43.297 Y23.294 E0.2906
G1 X46.087 Y23.731 E0.41635
G1 X48.833 Y24.083 E0.53962
G1 X51.618 Y24.36 E0.66424
G1 X54.407 Y24.558 E0.78874
G1 X57.202 Y24.677 E0.9133
G1 X59.999 Y24.717 E1.03786
G1 X62.797 Y24.677 E1.16246
G1 X65.59 Y24.56 E1.28693
G1 X68.38 Y24.362 E1.41147
G1 X71.165 Y24.086 E1.53609
G1 X73.912 Y23.734 E1.6594
G1 X76.706 Y23.296 E1.78533
G1 X79.425 Y22.792 E1.90846
G1 X80.517 Y22.558 E1.95819
G1 X81.13 Y22.437 E1.98601
G1 X81.436 Y22.418 E1.99966
G1 X81.736 Y22.477 E2.01328
G1 X82.01 Y22.613 E2.0269
G1 X82.366 Y22.978 E2.0496
G1 X82.631 Y23.357 E2.07019
G1 X88.461 Y31.945 E2.53238
G1 X88.876 Y32.574 E2.56593
G1 X89.01 Y32.849 E2.57955
G1 X89.068 Y33.149 E2.59316
G1 X89.059 Y33.384 E2.60363
G1 X88.679 Y36.096 E2.72557
G1 X88.37 Y38.875 E2.85007
G1 X88.14 Y41.66 E2.9745
G1 X87.99 Y44.419 E3.09753
G1 X87.916 Y47.245 E3.22341
G1 X87.922 Y50.041 E3.34791
G1 X88.006 Y52.801 E3.47086
G1 X88.171 Y55.59 E3.59526
G1 X88.416 Y58.409 E3.72126
G1 X88.734 Y61.151 E3.84417
G1 X88.993 Y62.945 E3.92488
G1 X89.06 Y63.455 E3.94778
G1 X89.061 Y63.753 E3.96105
G1 X88.884 Y65.179 E4.02503
G1 X88.843 Y65.476 E4.03838
G1 X88.541 Y68.254 E4.16281
G1 X88.317 Y71.04 E4.28726
G1 X88.174 Y73.799 E4.41028
G1 X88.107 Y76.626 E4.53619
G1 X88.119 Y79.417 E4.66046
G1 X88.21 Y82.181 E4.7836
G1 X88.383 Y85.003 E4.9095
G1 X88.63 Y87.757 E5.03261
G1 X88.931 Y90.337 E5.14827
G1 X89.057 Y91.313 E5.19209
G1 X89.057 Y91.618 E5.20567
G1 X88.977 Y91.914 E5.21933
G1 X88.824 Y92.179 E5.23295
G1 X88.551 Y92.436 E5.24965
G1 X87.845 Y92.914 E5.28761
G1 X86.574 Y93.74 E5.3551
G1 X84.815 Y94.836 E5.44739
G1 X83.676 Y95.515 E5.50643
G1 X81.903 Y96.524 E5.59727
G1 X80.686 Y97.186 E5.65895
G1 X78.924 Y98.101 E5.74736
G1 X77.374 Y98.866 E5.82432
G1 X76.162 Y99.445 E5.88413
G1 X75.947 Y99.544 E5.89467
G1 X75.256 Y99.856 E5.92843
G1 X74.775 Y100.069 E5.95185
G1 X74.107 Y100.359 E5.98428
G1 X73.765 Y100.504 E6.00082
G1 X73.12 Y100.769 E6.03187
G1 X72.824 Y100.847 E6.0455
G1 X72.509 Y100.847 E6.05953
G1 X71.97 Y100.781 E6.08371
G1 X69.18 Y100.482 E6.20865
G1 X66.409 Y100.263 E6.33242
G1 X63.593 Y100.121 E6.45796
G1 X60.796 Y100.059 E6.58254
G1 X57.999 Y100.077 E6.70708
G1 X55.235 Y100.172 E6.83023
G1 X52.438 Y100.347 E6.95501
G1 X48.466 Y100.733 E7.13271
G1 X47.469 Y100.849 E7.1774
G1 X47.163 Y100.845 E7.19103
G1 X46.798 Y100.735 E7.208
G1 X46.264 Y100.516 E7.2337
G1 X45.852 Y100.341 E7.25363
G1 X45.102 Y100.015 E7.29004
G1 X44.599 Y99.791 E7.31456
G1 X43.836 Y99.444 E7.35188
G1 X42.602 Y98.854 E7.41279
G1 X41.055 Y98.09 E7.48961
G1 X39.296 Y97.176 E7.57788
G1 X38.076 Y96.513 E7.63971
G1 X36.304 Y95.502 E7.73055
G1 X35.166 Y94.824 E7.78953
G1 X33.406 Y93.728 E7.88185
G1 X32.064 Y92.854 E7.95316
G1 X31.452 Y92.444 E7.98596
G1 X31.222 Y92.242 E7.99959
G1 X31.052 Y91.988 E8.0132
G1 X30.954 Y91.698 E8.02683
G1 X30.94 Y91.323 E8.04354
G1 X31.082 Y90.179 E8.09487
G1 X31.142 Y89.744 E8.11442
G1 X31.449 Y86.965 E8.23892
G1 X31.676 Y84.179 E8.36338
G1 X31.823 Y81.422 E8.48631
G1 X31.894 Y78.594 E8.61228
G1 X31.885 Y75.799 E8.73673
G1 X31.798 Y73.037 E8.85978
G1 X31.629 Y70.214 E8.9857
G1 X31.386 Y67.463 E9.10867
G1 X31.051 Y64.607 E9.23671
G1 X30.941 Y63.762 E9.27465
G1 X30.942 Y63.449 E9.28859
G1 X31.344 Y60.539 E9.4194
G1 X31.648 Y57.759 E9.54392
G1 X31.873 Y54.974 E9.66833
G1 X32.017 Y52.216 E9.7913
G1 X32.085 Y49.389 E9.91722
G1 X32.073 Y46.594 E10.04167
G1 X31.983 Y43.833 E10.16468
G1 X31.812 Y41.01 E10.29061
G1 X31.566 Y38.26 E10.41354
G1 X31.239 Y35.483 E10.53805
G1 X31.028 Y34.039 E10.60303
G1 X30.941 Y33.381 E10.63258
G1 X30.941 Y33.075 E10.64621
G1 X31.02 Y32.779 E10.65985
G1 X31.122 Y32.584 E10.66965
G1 X31.609 Y31.84 E10.70924
G1 X36.963 Y23.955 E11.13363
G0 F810 X37.298 Y23.462
G1 F2400 E8.63363
;MESH:TRN_END_2.STL(1)
G0 F2700 X38.931 Y25.034
G0 X50.449 Y31.227
G0 X46.699 Y40.218
;TYPE:WALL-INNER
G1 F2400 E11.13363
G1 F900 X46.302 Y40.049 E11.15284
G1 X45.149 Y39.535 E11.20905
G1 X44.09 Y39.047 E11.26097
G1 X41.116 Y37.578 E11.40867
G1 X38.22 Y36.002 E11.55547
G1 X35.356 Y34.296 E11.70391
G1 X33.469 Y33.068 E11.80416
G1 X33.32 Y32.971 E11.81207
G1 X33.419 Y32.824 E11.81716
G1 X38.88 Y24.78 E12.25007
G1 X40.599 Y25.899 E12.3414
G1 X43.113 Y27.396 E12.47169
G1 X45.683 Y28.796 E12.602
G1 X48.301 Y30.089 E12.73201
G1 X49.382 Y30.586 E12.78499
G1 X50.321 Y31.002 E12.83072
G1 X50.653 Y31.143 E12.84678
G1 X46.928 Y40.125 E13.27975
G1 X46.861 Y40.287 E13.28756
G1 X46.7 Y40.219 E13.29257
G1 X46.699 Y40.218 E13.29263
G0 F2700 X47.116 Y40.585
G1 F900 X47.049 Y40.747 E13.30044
G1 X46.887 Y40.679 E13.30549
G1 X46.159 Y40.369 E13.34072
G1 X45.006 Y39.855 E13.39693
G1 X43.943 Y39.365 E13.44905
G1 X40.961 Y37.892 E13.59715
G1 X38.041 Y36.303 E13.74517
G1 X35.177 Y34.597 E13.8936
G1 X32.979 Y33.166 E14.01039
G1 X32.83 Y33.069 E14.01831
G1 X32.929 Y32.922 E14.02339
G1 X38.783 Y24.299 E14.48746
G1 X40.784 Y25.602 E14.59379
G1 X43.286 Y27.092 E14.72345
G1 X45.844 Y28.485 E14.85315
G1 X48.452 Y29.773 E14.98266
G1 X49.526 Y30.267 E15.0353
G1 X50.46 Y30.681 E15.08079
G1 X51.109 Y30.956 E15.11218
G1 X47.344 Y40.034 E15.54978
G0 F810 X47.116 Y40.585
G0 F2700 X47.29 Y41.012
;TYPE:WALL-OUTER
G1 F900 X47.223 Y41.174 E15.55758
G1 X47.061 Y41.106 E15.56264
G1 X46.027 Y40.666 E15.61267
G1 X44.874 Y40.152 E15.66888
G1 X43.807 Y39.66 E15.7212
G1 X40.817 Y38.183 E15.86969
G1 X37.875 Y36.582 E16.01883
G1 X35.011 Y34.876 E16.16727
G1 X32.524 Y33.257 E16.2994
G1 X32.375 Y33.16 E16.30732
G1 X32.474 Y33.013 E16.3124
G1 X38.693 Y23.853 E16.80539
G1 X40.956 Y25.326 E16.92562
G1 X43.447 Y26.81 E17.05473
G1 X45.994 Y28.196 E17.18384
G1 X48.592 Y29.48 E17.31288
G1 X49.66 Y29.971 E17.36522
G1 X50.589 Y30.383 E17.41047
G1 X51.532 Y30.782 E17.45607
G1 X47.518 Y40.461 E17.92263
G0 F810 X47.29 Y41.012
G0 F2700 X47.223 Y41.174
G0 X47.2 Y41.165
G0 X47.092 Y40.852
G0 X46.913 Y39.937
G0 X46.679 Y39.84
;TYPE:SKIN
G1 F900 X46.436 Y39.736 E17.9344
G1 X45.287 Y39.224 E17.99041
G1 X44.237 Y38.74 E18.0419
G1 X41.267 Y37.273 E18.18939
G1 X38.383 Y35.703 E18.33561
G1 X35.53 Y34.004 E18.48346
G1 X33.796 Y32.876 E18.57557
G1 X38.974 Y25.247 E18.98612
G1 X40.419 Y26.188 E19.0629
G1 X42.944 Y27.691 E19.19374
G1 X45.526 Y29.097 E19.32465
G1 X48.155 Y30.396 E19.45522
G1 X49.242 Y30.896 E19.5085
G1 X50.21 Y31.325 E19.55565
G1 X46.907 Y39.289 E19.93955
G0 F810 X46.679 Y39.84
G0 F2700 X46.913 Y39.937
G0 X50.302 Y31.766
G0 X49.922 Y31.608
G1 F900 X49.493 Y31.179 E19.96656
G0 F2700 X49.776 Y31.957
G1 F900 X48.586 Y30.766 E20.04153
G1 X48.524 Y30.704
G0 F2700 X47.641 Y30.317
G1 F900 X49.631 Y32.307 E20.16684
G0 F2700 X49.486 Y32.657
G1 F900 X46.663 Y29.834 E20.34461
G1 X46.601 Y29.772
G0 F2700 X46.771 Y29.429
G0 X45.868 Y28.983
G0 X45.685 Y29.351
G1 F900 X49.341 Y33.007 E20.57483
G0 F2700 X49.196 Y33.357
G1 F900 X44.624 Y28.784 E20.86276
G1 X44.562 Y28.722
G0 F2700 X44.746 Y28.384
G0 X43.732 Y27.832
G0 X43.536 Y28.192
G1 F900 X49.051 Y33.707 E21.21004
G0 F2700 X48.906 Y34.057
G1 F900 X42.398 Y27.548 E21.61989
G1 X42.336 Y27.486
G0 F2700 X42.536 Y27.153
G0 X41.388 Y26.469
G0 X41.176 Y26.822
G1 F900 X48.761 Y34.407 E22.09752
G0 F2700 X48.616 Y34.757
G1 F900 X39.893 Y26.034 E22.64681
G1 X39.831 Y25.972
G0 F2700 X38.938 Y25.574
G1 F900 X48.471 Y35.107 E23.24711
G0 F2700 X48.326 Y35.457
G1 F900 X38.738 Y25.869 E23.85088
G0 F2700 X38.538 Y26.164
G1 F900 X48.181 Y35.807 E24.4581
G0 F2700 X48.035 Y36.156
G1 F900 X38.338 Y26.459 E25.06873
G0 F2700 X38.138 Y26.754
G1 F900 X47.89 Y36.506 E25.68282
G0 F2700 X47.745 Y36.856
G1 F900 X37.938 Y27.048 E26.30041
G0 F2700 X37.738 Y27.343
G1 F900 X47.601 Y37.206 E26.92149
G0 F2700 X47.456 Y37.556
G1 F900 X37.538 Y27.638 E27.54603
G0 F2700 X37.338 Y27.933
G1 F900 X47.31 Y37.905 E28.17397
G0 F2700 X47.165 Y38.255
G1 F900 X37.137 Y28.228 E28.80541
G0 F2700 X36.937 Y28.523
G1 F900 X47.02 Y38.605 E29.44031
G0 F2700 X46.875 Y38.955
G1 F900 X36.737 Y28.818 E30.07868
G0 F2700 X36.537 Y29.113
G1 F900 X46.73 Y39.305 E30.72051
G0 F2700 X46.538 Y39.609
G1 F900 X36.337 Y29.407 E31.3629
G0 F2700 X36.137 Y29.702
G1 F900 X45.647 Y39.213 E31.96179
G1 X45.709 Y39.275
G0 F2700 X45.554 Y39.622
G0 X44.565 Y39.171
G0 X44.737 Y38.797
G1 F900 X35.937 Y29.997 E32.51593
G0 F2700 X35.737 Y30.292
G1 F900 X43.786 Y38.341 E33.02278
G1 X43.848 Y38.403
G0 F2700 X43.677 Y38.747
G0 X42.625 Y38.227
G0 X42.808 Y37.858
G1 F900 X35.537 Y30.587 E33.48064
G0 F2700 X35.336 Y30.882
G1 F900 X41.83 Y37.375 E33.88954
G1 X41.892 Y37.437
G0 F2700 X41.721 Y37.781
G0 X40.602 Y37.201
G0 X40.799 Y36.839
G1 F900 X35.136 Y31.177 E34.24611
G0 F2700 X34.936 Y31.471
G1 F900 X39.713 Y36.248 E34.54692
G1 X39.775 Y36.31
G0 F2700 X39.59 Y36.65
G0 X38.43 Y36.019
G0 X38.627 Y35.657
G1 F900 X34.736 Y31.766 E34.79194
G0 F2700 X34.536 Y32.061
G1 F900 X37.425 Y34.95 E34.97386
G1 X37.487 Y35.012
G0 F2700 X37.287 Y35.346
G0 X35.99 Y34.573
G0 X36.201 Y34.221
G1 F900 X34.336 Y32.356 E35.0913
G0 F2700 X34.136 Y32.651
G1 F900 X34.88 Y33.395 E35.13815
G1 X34.942 Y33.457
G0 F2700 X34.6 Y33.983
G1 F2400 E32.63815
G0 F2700 X41.219 Y37.445
G0 X45.208 Y39.402
G0 X46.776 Y40.081
G0 X51.208 Y31.057
G0 X52.162 Y31.452
G0 X67.765 Y31.276
G0 X68.714 Y30.882
G0 X73.301 Y40.219
;TYPE:WALL-INNER
G1 F2400 E35.13815
G1 F900 X73.139 Y40.287 E35.14598
G1 X73.072 Y40.125 E35.15102
G1 X69.347 Y31.143 E35.58399
G1 X69.679 Y31.002 E35.60005
G1 X70.69 Y30.554 E35.64929
G1 X71.699 Y30.088 E35.69878
G1 X74.317 Y28.796 E35.82877
G1 X76.887 Y27.396 E35.95908
G1 X79.401 Y25.899 E36.08937
G1 X81.12 Y24.78 E36.1807
G1 X86.581 Y32.824 E36.61361
G1 X86.68 Y32.971 E36.62151
G1 X86.531 Y33.068 E36.6266
G1 X84.644 Y34.296 E36.72685
G1 X81.78 Y36.002 E36.87529
G1 X78.884 Y37.578 E37.0221
G1 X75.91 Y39.047 E37.16979
G1 X74.765 Y39.575 E37.22594
G1 X73.849 Y39.982 E37.27057
G0 F810 X73.626 Y40.081
G0 X73.301 Y40.219
G0 F2700 X73.113 Y40.679
G1 F900 X72.951 Y40.747 E37.27839
G1 X72.884 Y40.585 E37.28343
G1 X68.891 Y30.956 E37.74758
G1 X69.54 Y30.681 E37.77897
G1 X70.546 Y30.235 E37.82797
G1 X71.548 Y29.772 E37.87712
G1 X74.156 Y28.485 E38.00661
G1 X76.714 Y27.092 E38.13631
G1 X79.216 Y25.602 E38.26597
G1 X81.217 Y24.299 E38.3723
G1 X87.071 Y32.922 E38.83637
G1 X87.17 Y33.069 E38.84426
G1 X87.021 Y33.166 E38.84936
G1 X84.823 Y34.597 E38.96615
G1 X81.959 Y36.303 E39.11458
G1 X79.039 Y37.892 E39.26261
G1 X76.057 Y39.365 E39.4107
G1 X74.912 Y39.893 E39.46685
G1 X73.763 Y40.403 E39.52282
G1 X73.662 Y40.446 E39.52771
G0 F810 X73.113 Y40.679
G0 F2700 X72.939 Y41.106
;TYPE:WALL-OUTER
G1 F900 X72.777 Y41.174 E39.53553
G1 X72.71 Y41.012 E39.54057
G1 X68.468 Y30.782 E40.03369
G1 X69.411 Y30.383 E40.07928
G1 X70.412 Y29.939 E40.12804
G1 X71.408 Y29.479 E40.17689
G1 X74.006 Y28.196 E40.30591
G1 X76.553 Y26.81 E40.43503
G1 X79.044 Y25.326 E40.56414
G1 X81.307 Y23.853 E40.68437
G1 X87.526 Y33.013 E41.17735
G1 X87.625 Y33.16 E41.18524
G1 X87.476 Y33.257 E41.19034
G1 X84.989 Y34.876 E41.32248
G1 X82.125 Y36.582 E41.47091
G1 X79.183 Y38.183 E41.62005
G1 X76.193 Y39.66 E41.76855
G1 X75.044 Y40.19 E41.82489
G1 X73.89 Y40.702 E41.8811
G1 X73.488 Y40.873 E41.90056
G0 F810 X72.939 Y41.106
G0 F2700 X72.777 Y41.174
G0 X72.768 Y41.151
G0 X72.908 Y40.852
G0 X73.086 Y39.937
G0 X73.322 Y39.84
;TYPE:SKIN
G1 F900 X69.79 Y31.324 E42.31107
G1 X70.83 Y30.863 E42.36172
G1 X71.845 Y30.395 E42.41149
G1 X74.474 Y29.097 E42.54204
G1 X77.056 Y27.691 E42.67295
G1 X79.581 Y26.188 E42.80379
G1 X81.026 Y25.247 E42.88057
G1 X86.204 Y32.876 E43.29112
G1 X84.47 Y34.004 E43.38323
G1 X81.617 Y35.703 E43.53109
G1 X78.733 Y37.273 E43.6773
G1 X75.763 Y38.74 E43.8248
G1 X74.627 Y39.264 E43.8805
G1 X73.869 Y39.601 E43.91744
G0 F810 X73.488 Y39.77
G0 X73.322 Y39.84
G0 F2700 X73.669 Y39.516
G1 F900 X73.136 Y38.983 E43.951
G1 X73.074 Y38.921
G0 F2700 X72.786 Y38.137
G1 F900 X74.012 Y39.363 E44.0282
G0 F2700 X74.355 Y39.211
G1 F900 X72.434 Y37.291 E44.14914
G1 X72.372 Y37.229
G0 F2700 X72.083 Y36.445
G1 F900 X74.695 Y39.057 E44.31362
G0 F2700 X75.034 Y38.901
G1 F900 X71.732 Y35.599 E44.52155
G1 X71.67 Y35.537
G0 F2700 X71.381 Y34.753
G1 F900 X75.373 Y38.745 E44.77293
G0 F2700 X75.712 Y38.588
G1 F900 X71.03 Y33.907 E45.06773
G1 X70.968 Y33.845
G0 F2700 X70.679 Y33.061
G1 F900 X76.042 Y38.424 E45.40544
G0 F2700 X76.374 Y38.261
G1 F900 X70.328 Y32.215 E45.78616
G1 X70.266 Y32.153
G0 F2700 X70.007 Y31.399
G1 F900 X76.706 Y38.098 E46.208
G0 F2700 X77.037 Y37.934
G1 F900 X70.35 Y31.247 E46.62908
G0 F2700 X70.693 Y31.095
G1 F900 X77.368 Y37.77 E47.04941
G0 F2700 X77.7 Y37.607
G1 F900 X71.034 Y30.941 E47.46918
G0 F2700 X71.373 Y30.786
G1 F900 X78.031 Y37.443 E47.8884
G0 F2700 X78.362 Y37.28
G1 F900 X71.712 Y30.629 E48.30719
G0 F2700 X72.048 Y30.47
G1 F900 X78.693 Y37.115 E48.72563
G0 F2700 X79.013 Y36.94
G1 F900 X72.379 Y30.306 E49.14338
G0 F2700 X72.711 Y30.143
G1 F900 X79.333 Y36.766 E49.5604
G0 F2700 X79.654 Y36.591
G1 F900 X73.042 Y29.979 E49.97676
G0 F2700 X73.373 Y29.815
G1 F900 X79.975 Y36.417 E50.3925
G0 F2700 X80.295 Y36.242
G1 F900 X73.705 Y29.652 E50.80747
G0 F2700 X74.036 Y29.488
G1 F900 X80.615 Y36.068 E51.22179
G0 F2700 X80.936 Y35.893
G1 F900 X74.367 Y29.325 E51.63541
G0 F2700 X74.693 Y29.155
G1 F900 X81.256 Y35.718 E52.04869
G0 F2700 X81.575 Y35.542
G1 F900 X75.013 Y28.98 E52.4619
G0 F2700 X75.334 Y28.806
G1 F900 X81.885 Y35.358 E52.87445
G0 F2700 X82.196 Y35.173
G1 F900 X75.654 Y28.632 E53.28638
G0 F2700 X75.975 Y28.457
G1 F900 X82.506 Y34.989 E53.69767
G0 F2700 X82.817 Y34.804
G1 F900 X76.295 Y28.282 E54.10836
G0 F2700 X76.616 Y28.108
G1 F900 X83.126 Y34.619 E54.51834
G0 F2700 X83.437 Y34.434
G1 F900 X76.936 Y27.934 E54.92768
G0 F2700 X77.253 Y27.756
G1 F900 X83.747 Y34.25 E55.33661
G0 F2700 X84.058 Y34.065
G1 F900 X77.563 Y27.571 E55.74557
G0 F2700 X77.874 Y27.386
G1 F900 X84.368 Y33.881 E56.15453
G0 F2700 X84.668 Y33.686
G1 F900 X78.184 Y27.202 E56.56284
G0 F2700 X78.494 Y27.017
G1 F900 X84.968 Y33.491 E56.97051
G0 F2700 X85.268 Y33.296
G1 F900 X78.804 Y26.832 E57.37755
G0 F2700 X79.115 Y26.648
G1 F900 X85.568 Y33.101 E57.7839
G0 F2700 X85.868 Y32.905
G1 F900 X79.425 Y26.463 E58.18959
G0 F2700 X79.734 Y26.276
G1 F900 X85.338 Y31.881 E58.54251
G1 X85.4 Y31.943
G0 F2700 X85.728 Y31.721
G0 X84.634 Y30.11
G0 X84.293 Y30.341
G1 F900 X80.033 Y26.08 E58.8108
G0 F2700 X80.332 Y25.885
G1 F900 X83.249 Y28.801 E58.99445
G1 X83.311 Y28.863
G0 F2700 X83.638 Y28.642
G0 X82.544 Y27.03
G0 X82.203 Y27.261
G1 F900 X80.632 Y25.689 E59.09341
G0 F2700 X80.931 Y25.494
G1 F900 X81.158 Y25.721 E59.1077
G0 F2700 X81.695 Y25.357
G1 F2400 E56.6077
;MESH:TRN_END_2.STL
G0 F2700 X86.46 Y32.926
G0 X76.107 Y39.485
G0 X76.54 Y40.423
G0 X76.141 Y56.473
G0 X76.649 Y57.374
G0 X69.551 Y61.62
G0 X73.301 Y70.613
;TYPE:WALL-INNER
G1 F2400 E59.1077
G1 F900 X73.139 Y70.681 E59.11553
G1 X73.072 Y70.519 E59.12057
G1 X69.347 Y61.536 E59.55358
G1 X69.679 Y61.395 E59.56964
G1 X70.69 Y60.948 E59.61886
G1 X71.699 Y60.484 E59.66831
G1 X74.317 Y59.191 E59.79832
G1 X76.887 Y57.791 E59.92864
G1 X79.401 Y56.293 E60.05894
