;FLAVOR:Marlin
;TIME:2123
;Filament used: 1.50744m
;Layer height: 0.263
;MINX:45.149
;MINY:22.216
;MINZ:0.306
;MAXX:74.852
;MAXY:97.784
;MAXZ:5.566
;Generated with Cura_SteamEngine master
M140 S65
M105
M190 S65
M104 S220
M105
M109 S220
M82 ;absolute extrusion mode
G90 ; set to absolute positioning - this line was added in case Cura doesn't include it by default
M82 ; set extruder to absolute mode - this line was added in case Cura doesn't include it by default (may not be needed)
G28 ; home all axes
; The lines below are to prep the nozzle before a print begins
G1 Z0.2 F1200 ; raise nozzle 0.2mm
G92 E0 ; reset extrusion distance
G1 Y-1 ; move Y-Axis (bed) 1mm to prep for purge
G1 X25 E3 F600 ; move X-carriage 50mm while purging 3mm of filament
G1 X120;
G92 E0 ; reset extrusion distance
G1 Z5;
G1 X-1 Y0;
G1 Z0;
G1 Y120;
G1 Z5;
G1 X0 Y0;
G1 Z0;
G92 E0
G92 E0
G1 F2400 E-2.5
;LAYER_COUNT:21
;LAYER:0
M107
G0 F2700 X47.086 Y23.136 Z0.306
;TYPE:SKIRT
G1 F2400 E0
G1 F900 X47.258 Y22.833 E0.01551
G1 X47.495 Y22.577 E0.03105
G1 X47.784 Y22.381 E0.0466
G1 X48.109 Y22.256 E0.0621
G1 X48.642 Y22.216 E0.0859
G1 X49.961 Y22.349 E0.14493
G1 X50.062 Y22.352 E0.14943
G1 X50.798 Y22.432 E0.18239
G1 X53.567 Y22.654 E0.30608
G1 X56.338 Y22.796 E0.42963
G1 X59.152 Y22.862 E0.55496
G1 X61.928 Y22.848 E0.67857
G1 X64.704 Y22.755 E0.80225
G1 X67.476 Y22.584 E0.92591
G1 X70.277 Y22.331 E1.05114
G1 X70.967 Y22.253 E1.08206
G1 X71.715 Y22.222 E1.11539
G1 X72.053 Y22.308 E1.13092
G1 X72.363 Y22.468 E1.14646
G1 X72.628 Y22.695 E1.16199
G1 X72.835 Y22.976 E1.17754
G1 X73.024 Y23.524 E1.20335
G1 X73.114 Y24.046 E1.22693
G1 X74.742 Y34.325 E1.69033
G1 X74.841 Y35.013 E1.72128
G1 X74.852 Y35.356 E1.73656
G1 X74.763 Y36.429 E1.7845
G1 X74.704 Y37.026 E1.81121
G1 X74.514 Y39.761 E1.93329
G1 X74.398 Y42.588 E2.05927
G1 X74.363 Y45.347 E2.18213
G1 X74.406 Y48.113 E2.30531
G1 X74.53 Y50.932 E2.43095
G1 X74.737 Y53.791 E2.55859
G1 X74.851 Y55.091 E2.6167
G1 X74.852 Y55.349 E2.62818
G1 X74.763 Y56.429 E2.67644
G1 X74.704 Y57.026 E2.70315
G1 X74.514 Y59.761 E2.82522
G1 X74.398 Y62.587 E2.95116
G1 X74.363 Y65.348 E3.07411
G1 X74.406 Y68.113 E3.19724
G1 X74.53 Y70.933 E3.32293
G1 X74.737 Y73.791 E3.45052
G1 X74.851 Y75.09 E3.50859
G1 X74.852 Y75.348 E3.52007
G1 X74.763 Y76.429 E3.56837
G1 X74.704 Y77.026 E3.59508
G1 X74.514 Y79.761 E3.71716
G1 X74.398 Y82.587 E3.8431
G1 X74.363 Y85.348 E3.96605
G1 X74.406 Y88.113 E4.08918
G1 X74.53 Y90.933 E4.21487
G1 X74.737 Y93.792 E4.3425
G1 X74.849 Y95.082 E4.40016
G1 X74.84 Y95.431 E4.4157
G1 X74.751 Y95.768 E4.43122
G1 X74.588 Y96.076 E4.44674
G1 X74.359 Y96.339 E4.46227
G1 X74.077 Y96.544 E4.47779
G1 X73.565 Y96.721 E4.50191
G1 X72.681 Y96.859 E4.54175
G1 X71.177 Y97.066 E4.60935
G1 X69.19 Y97.302 E4.69845
G1 X67.779 Y97.44 E4.76157
G1 X65.811 Y97.594 E4.84947
G1 X64.4 Y97.677 E4.91241
G1 X62.393 Y97.756 E5.00184
G1 X60.995 Y97.784 E5.0641
G1 X59.005 Y97.784 E5.15271
G1 X57.578 Y97.755 E5.21627
G1 X55.57 Y97.675 E5.30575
G1 X54.16 Y97.592 E5.36864
G1 X52.19 Y97.438 E5.45662
G1 X50.78 Y97.298 E5.51972
G1 X48.794 Y97.063 E5.60876
G1 X47.117 Y96.831 E5.68415
G1 X46.44 Y96.728 E5.71464
G1 X46.103 Y96.636 E5.73019
G1 X45.796 Y96.471 E5.74571
G1 X45.535 Y96.24 E5.76123
G1 X45.333 Y95.955 E5.77679
G1 X45.201 Y95.633 E5.79228
G1 X45.149 Y95.098 E5.81622
G1 X45.218 Y94.239 E5.85459
G1 X45.326 Y93.091 E5.90593
G1 X45.511 Y90.271 E6.03177
G1 X45.613 Y87.509 E6.15483
G1 X45.639 Y84.746 E6.27787
G1 X45.584 Y81.919 E6.40377
G1 X45.453 Y79.179 E6.52591
G1 X45.24 Y76.375 E6.65113
G1 X45.15 Y75.353 E6.69681
G1 X45.149 Y75.097 E6.70821
G1 X45.216 Y74.266 E6.74533
G1 X45.326 Y73.093 E6.79779
G1 X45.511 Y70.271 E6.92371
G1 X45.613 Y67.51 E7.04674
G1 X45.639 Y64.745 E7.16986
G1 X45.584 Y61.919 E7.29572
G1 X45.453 Y59.178 E7.4179
G1 X45.24 Y56.376 E7.54303
G1 X45.15 Y55.353 E7.58876
G1 X45.149 Y55.097 E7.60016
G1 X45.216 Y54.266 E7.63728
G1 X45.326 Y53.093 E7.68974
G1 X45.511 Y50.271 E7.81566
G1 X45.613 Y47.51 E7.93868
G1 X45.639 Y44.745 E8.06181
G1 X45.584 Y41.919 E8.18766
G1 X45.453 Y39.178 E8.30985
G1 X45.24 Y36.376 E8.43498
G1 X45.151 Y35.39 E8.47906
G1 X45.16 Y35.04 E8.49465
G1 X45.297 Y34.071 E8.53822
G1 X46.875 Y24.11 E8.98729
G1 X46.945 Y23.715 E9.00515
G0 F810 X46.987 Y23.47
G0 X47.086 Y23.136
G0 F2700 X47.423 Y23.239
G1 F900 X47.587 Y22.98 E9.0188
G1 X47.812 Y22.773 E9.03241
G1 X48.083 Y22.63 E9.04606
G1 X48.381 Y22.563 E9.05966
G1 X48.607 Y22.564 E9.06972
G1 X49.959 Y22.7 E9.13023
G1 X50.024 Y22.7 E9.13312
G1 X50.767 Y22.781 E9.1664
G1 X53.556 Y23.004 E9.29098
G1 X56.323 Y23.146 E9.41435
G1 X59.145 Y23.212 E9.54004
G1 X61.942 Y23.198 E9.66458
G1 X64.706 Y23.105 E9.78773
G1 X67.527 Y22.931 E9.91358
G1 X70.309 Y22.68 E10.03795
G1 X71 Y22.601 E10.06892
G1 X71.706 Y22.574 E10.10038
G1 X71.998 Y22.664 E10.11399
G1 X72.258 Y22.826 E10.12763
G1 X72.467 Y23.049 E10.14124
G1 X72.611 Y23.319 E10.15486
G1 X72.768 Y24.105 E10.19055
G1 X74.394 Y34.358 E10.65279
G1 X74.495 Y35.063 E10.6845
G1 X74.503 Y35.327 E10.69626
G1 X74.414 Y36.395 E10.74398
G1 X74.358 Y36.957 E10.76913
G1 X74.164 Y39.746 E10.89362
G1 X74.049 Y42.54 E11.01813
G1 X74.013 Y45.334 E11.14255
G1 X74.056 Y48.128 E11.26697
G1 X74.179 Y50.94 E11.3923
G1 X74.389 Y53.821 E11.52093
G1 X74.503 Y55.121 E11.57903
G1 X74.503 Y55.321 E11.58794
G1 X74.414 Y56.395 E11.63592
G1 X74.358 Y56.957 E11.66107
G1 X74.164 Y59.746 E11.78556
G1 X74.049 Y62.539 E11.91003
G1 X74.013 Y65.335 E12.03453
G1 X74.056 Y68.129 E12.15896
G1 X74.179 Y70.94 E12.28424
G1 X74.389 Y73.821 E12.41287
G1 X74.503 Y75.12 E12.47093
G1 X74.503 Y75.319 E12.47979
G1 X74.414 Y76.395 E12.52786
G1 X74.358 Y76.957 E12.55301
G1 X74.164 Y79.746 E12.6775
G1 X74.049 Y82.539 E12.80197
G1 X74.013 Y85.335 E12.92648
G1 X74.056 Y88.129 E13.0509
G1 X74.179 Y90.94 E13.17618
G1 X74.389 Y93.822 E13.30485
G1 X74.501 Y95.112 E13.36251
G1 X74.487 Y95.418 E13.37615
G1 X74.395 Y95.71 E13.38978
G1 X74.231 Y95.968 E13.40339
G1 X74.006 Y96.175 E13.417
G1 X73.735 Y96.317 E13.43063
G1 X73.511 Y96.375 E13.44093
G1 X72.633 Y96.512 E13.4805
G1 X71.136 Y96.719 E13.54779
G1 X69.155 Y96.953 E13.63661
G1 X67.752 Y97.091 E13.69938
G1 X65.791 Y97.245 E13.78697
G1 X64.386 Y97.327 E13.84964
G1 X62.386 Y97.406 E13.93876
G1 X60.988 Y97.434 E14.00102
G1 X59.012 Y97.434 E14.08901
G1 X57.592 Y97.405 E14.15225
G1 X55.59 Y97.326 E14.24146
G1 X54.187 Y97.243 E14.30404
G1 X52.225 Y97.089 E14.39167
G1 X50.822 Y96.951 E14.45444
G1 X48.842 Y96.716 E14.54323
G1 X47.169 Y96.485 E14.61843
G1 X46.492 Y96.382 E14.64892
G1 X46.198 Y96.297 E14.66255
G1 X45.936 Y96.139 E14.67617
G1 X45.724 Y95.918 E14.68981
G1 X45.576 Y95.651 E14.7034
G1 X45.502 Y95.354 E14.71703
G1 X45.498 Y95.126 E14.72718
G1 X45.566 Y94.272 E14.76533
G1 X45.678 Y93.083 E14.8185
G1 X45.859 Y90.321 E14.94175
G1 X45.963 Y87.525 E15.06634
G1 X45.989 Y84.739 E15.19039
G1 X45.935 Y81.945 E15.31482
G1 X45.802 Y79.152 E15.43933
G1 X45.59 Y76.348 E15.56454
G1 X45.499 Y75.323 E15.61036
G1 X45.498 Y75.125 E15.61918
G1 X45.564 Y74.298 E15.65612
G1 X45.678 Y73.083 E15.71045
G1 X45.859 Y70.321 E15.8337
G1 X45.963 Y67.526 E15.95824
G1 X45.989 Y64.738 E16.08239
G1 X45.935 Y61.945 E16.20677
G1 X45.802 Y59.151 E16.33132
G1 X45.59 Y56.349 E16.45645
G1 X45.499 Y55.322 E16.50235
G1 X45.498 Y55.125 E16.51113
G1 X45.564 Y54.298 E16.54807
G1 X45.678 Y53.083 E16.6024
G1 X45.859 Y50.321 E16.72565
G1 X45.963 Y47.526 E16.85019
G1 X45.989 Y44.738 E16.97434
G1 X45.935 Y41.945 E17.09872
G1 X45.802 Y39.151 E17.22327
G1 X45.589 Y36.349 E17.3484
G1 X45.5 Y35.359 E17.39266
G1 X45.507 Y35.089 E17.40468
G1 X45.642 Y34.126 E17.44798
G1 X47.22 Y24.17 E17.89683
G1 X47.282 Y23.818 E17.91274
G0 F810 X47.332 Y23.53
G0 X47.423 Y23.239
G1 F2400 E15.41274
;MESH:TRN_STRIP_8.STL
G0 F2700 X48.805 Y24.16
G0 X47.843 Y34.349
G0 X50.103 Y34.674
G0 X53.382 Y34.996
G0 X56.058 Y35.153
G0 X63.323 Y35.337
;TYPE:WALL-INNER
G1 F2400 E17.91274
G1 F900 X60 Y35.403 E18.06074
G1 X56.677 Y35.337 E18.20873
G1 X53.374 Y35.142 E18.35606
G1 X50.089 Y34.819 E18.50303
G1 X47.839 Y34.507 E18.60418
G1 X47.663 Y34.483 E18.61209
G1 X47.69 Y34.308 E18.61715
G1 X49.211 Y24.707 E19.04999
G1 X51.242 Y24.988 E19.14128
G1 X54.153 Y25.274 E19.27153
G1 X57.074 Y25.447 E19.40182
G1 X60 Y25.504 E19.53213
G1 X62.926 Y25.447 E19.66244
G1 X65.847 Y25.274 E19.79273
G1 X68.758 Y24.988 E19.92297
G1 X70.789 Y24.707 E20.01427
G1 X72.31 Y34.308 E20.4471
G1 X72.337 Y34.483 E20.45499
G1 X72.161 Y34.507 E20.46007
G1 X69.911 Y34.819 E20.56122
G1 X66.626 Y35.142 E20.70819
G1 X63.811 Y35.309 E20.83376
G0 F810 X63.323 Y35.337
G0 F2700 X63.33 Y35.687
G1 F900 X60 Y35.753 E20.98206
G1 X56.67 Y35.687 E21.13036
G1 X53.346 Y35.491 E21.27863
G1 X50.041 Y35.166 E21.4265
G1 X47.437 Y34.805 E21.54356
G1 X47.261 Y34.781 E21.55147
G1 X47.288 Y34.606 E21.55653
G1 X48.919 Y24.313 E22.02057
G1 X51.283 Y24.64 E22.12683
G1 X54.18 Y24.925 E22.25645
G1 X57.088 Y25.097 E22.38616
G1 X60 Y25.154 E22.51585
G1 X62.912 Y25.097 E22.64554
G1 X65.82 Y24.925 E22.77525
G1 X68.717 Y24.64 E22.90486
G1 X71.081 Y24.313 E23.01113
G1 X72.712 Y34.606 E23.47516
G1 X72.739 Y34.781 E23.48305
G1 X72.563 Y34.805 E23.48813
G1 X69.959 Y35.166 E23.60519
G1 X66.654 Y35.491 E23.75306
G1 X63.821 Y35.659 E23.87943
G0 F810 X63.33 Y35.687
G0 F2700 X63.336 Y36.012
;TYPE:WALL-OUTER
G1 F900 X60 Y36.078 E24.028
G1 X56.664 Y36.012 E24.17657
G1 X53.32 Y35.815 E24.32573
G1 X49.996 Y35.488 E24.47445
G1 X47.064 Y35.082 E24.60625
G1 X46.888 Y35.058 E24.61416
G1 X46.915 Y34.883 E24.61922
G1 X48.648 Y23.947 E25.11225
G1 X51.321 Y24.317 E25.2324
G1 X54.206 Y24.601 E25.36148
G1 X57.101 Y24.772 E25.49061
G1 X60 Y24.829 E25.61972
G1 X62.899 Y24.772 E25.74883
G1 X65.794 Y24.601 E25.87796
G1 X68.679 Y24.317 E26.00704
G1 X71.352 Y23.947 E26.1272
G1 X73.085 Y34.883 E26.62022
G1 X73.112 Y35.058 E26.62811
G1 X72.936 Y35.082 E26.63319
G1 X70.004 Y35.488 E26.76499
G1 X66.68 Y35.815 E26.91371
G1 X63.83 Y35.983 E27.04083
G0 F810 X63.336 Y36.012
G0 F2700 X63.136 Y36.015
G0 X63.132 Y35.74
G0 X63.303 Y34.997
;TYPE:SKIN
G1 F900 X60 Y35.063 E27.18793
G1 X56.697 Y34.997 E27.33504
G1 X53.394 Y34.802 E27.48237
G1 X50.122 Y34.481 E27.62876
G1 X48.053 Y34.194 E27.72177
G1 X49.495 Y25.089 E28.13224
G1 X51.202 Y25.326 E28.20897
G1 X54.126 Y25.613 E28.3398
G1 X57.061 Y25.787 E28.47071
G1 X60 Y25.844 E28.6016
G1 X62.939 Y25.787 E28.73249
G1 X65.874 Y25.613 E28.86341
G1 X68.798 Y25.326 E28.99423
G1 X70.505 Y25.089 E29.07097
G1 X71.947 Y34.194 E29.48144
G1 X69.878 Y34.481 E29.57445
G1 X66.606 Y34.802 E29.72084
G1 X63.899 Y34.962 E29.84158
G0 F810 X63.303 Y34.997
G0 F2700 X63.315 Y35.251
G0 X69.897 Y34.674
G0 X72.157 Y34.349
G0 X70.657 Y24.883
G0 X70.316 Y25.274
G1 F900 X70.386 Y25.343 E29.84596
G0 F2700 X69.881 Y25.334
G1 F900 X70.479 Y25.931 E29.88358
G0 F2700 X70.572 Y26.519
G1 F900 X69.447 Y25.395 E29.9544
G0 F2700 X69.012 Y25.455
G1 F900 X70.665 Y27.107 E30.05845
G0 F2700 X70.758 Y27.695
G1 F900 X68.569 Y25.506 E30.1963
G0 F2700 X68.118 Y25.55
G1 F900 X70.851 Y28.283 E30.3684
G0 F2700 X70.944 Y28.871
G1 F900 X67.667 Y25.594 E30.57475
G0 F2700 X67.216 Y25.638
G1 F900 X71.038 Y29.46 E30.81543
G0 F2700 X71.131 Y30.048
G1 F900 X66.765 Y25.682 E31.09036
G0 F2700 X66.314 Y25.726
G1 F900 X71.224 Y30.636 E31.39954
G0 F2700 X71.317 Y31.224
G1 F900 X65.862 Y25.769 E31.74305
G0 F2700 X65.396 Y25.798
G1 F900 X71.41 Y31.812 E32.12175
G0 F2700 X71.504 Y32.401
G1 F900 X64.928 Y25.825 E32.53585
G0 F2700 X64.461 Y25.853
G1 F900 X71.596 Y32.988 E32.98514
G0 F2700 X71.69 Y33.576
G1 F900 X63.994 Y25.881 E33.46973
G0 F2700 X63.527 Y25.909
G1 F900 X71.689 Y34.071 E33.9837
G0 F2700 X71.254 Y34.131
G1 F900 X63.06 Y25.937 E34.49968
G0 F2700 X62.579 Y25.951
G1 F900 X70.819 Y34.191 E35.01856
G0 F2700 X70.385 Y34.252
G1 F900 X62.093 Y25.96 E35.54071
G0 F2700 X61.608 Y25.969
G1 F900 X69.95 Y34.312 E36.06605
G0 F2700 X69.502 Y34.359
G1 F900 X61.123 Y25.979 E36.59371
G0 F2700 X60.637 Y25.989
G1 F900 X69.052 Y34.404 E37.12361
G0 F2700 X68.601 Y34.448
G1 F900 X60.151 Y25.998 E37.65571
G0 F2700 X59.652 Y25.994
G1 F900 X68.15 Y34.491 E38.19081
G0 F2700 X67.699 Y34.536
G1 F900 X59.148 Y25.984 E38.7293
G0 F2700 X58.643 Y25.975
G1 F900 X67.248 Y34.58 E39.27116
G0 F2700 X66.798 Y34.624
G1 F900 X58.139 Y25.965 E39.81643
G0 F2700 X57.634 Y25.955
G1 F900 X66.337 Y34.659 E40.36449
G0 F2700 X65.87 Y34.687
G1 F900 X57.129 Y25.946 E40.91492
G0 F2700 X56.606 Y25.918
G1 F900 X65.403 Y34.714 E41.46884
G0 F2700 X64.935 Y34.742
G1 F900 X56.079 Y25.886 E42.02651
G0 F2700 X55.553 Y25.855
G1 F900 X64.468 Y34.769 E42.58786
G0 F2700 X64 Y34.797
G1 F900 X55.027 Y25.824 E43.1529
G0 F2700 X54.5 Y25.792
G1 F900 X63.533 Y34.825 E43.72171
G0 F2700 X63.057 Y34.844
G1 F900 X53.969 Y25.755 E44.29402
G0 F2700 X53.419 Y25.701
G1 F900 X62.572 Y34.854 E44.87039
G0 F2700 X62.087 Y34.863
G1 F900 X52.871 Y25.647 E45.45073
G0 F2700 X52.322 Y25.593
G1 F900 X61.601 Y34.873 E46.03506
G0 F2700 X61.116 Y34.882
G1 F900 X51.773 Y25.539 E46.6234
G0 F2700 X51.224 Y25.486
G1 F900 X60.631 Y34.892 E47.21573
G0 F2700 X60.145 Y34.902
G1 F900 X50.652 Y25.408 E47.81355
G0 F2700 X50.077 Y25.328
G1 F900 X59.647 Y34.898 E48.41618
G0 F2700 X59.141 Y34.887
G1 F900 X49.61 Y25.356 E49.01635
G0 F2700 X49.542 Y25.783
G1 F900 X58.636 Y34.878 E49.58904
G0 F2700 X58.131 Y34.868
G1 F900 X49.475 Y26.211 E50.13414
G0 F2700 X49.407 Y26.638
G1 F900 X57.627 Y34.858 E50.65176
G0 F2700 X57.121 Y34.847
G1 F900 X49.339 Y27.065 E51.1418
G0 F2700 X49.272 Y27.493
G1 F900 X56.613 Y34.834 E51.60407
G0 F2700 X56.087 Y34.803
G1 F900 X49.204 Y27.92 E52.03749
G0 F2700 X49.136 Y28.347
G1 F900 X55.56 Y34.771 E52.44202
G0 F2700 X55.034 Y34.74
G1 F900 X49.068 Y28.775 E52.81767
G0 F2700 X49.001 Y29.202
G1 F900 X54.509 Y34.71 E53.16451
G0 F2700 X53.983 Y34.679
G1 F900 X48.933 Y29.629 E53.48251
G0 F2700 X48.866 Y30.056
G1 F900 X53.457 Y34.648 E53.77164
G0 F2700 X52.91 Y34.596
G1 F900 X48.798 Y30.484 E54.03058
G0 F2700 X48.73 Y30.911
G1 F900 X52.361 Y34.542 E54.25923
G0 F2700 X51.813 Y34.489
G1 F900 X48.663 Y31.338 E54.45762
G0 F2700 X48.595 Y31.766
G1 F900 X51.264 Y34.435 E54.62568
G0 F2700 X50.715 Y34.381
G1 F900 X48.528 Y32.193 E54.76343
G0 F2700 X48.46 Y32.62
G1 F900 X50.167 Y34.327 E54.87092
G0 F2700 X49.594 Y34.25
G1 F900 X48.392 Y33.048 E54.94661
G0 F2700 X48.325 Y33.475
G1 F900 X49.019 Y34.17 E54.99035
G0 F2700 X48.445 Y34.091
G1 F900 X48.257 Y33.902 E55.00222
G0 F2700 X47.618 Y33.801
G1 F2400 E52.50222
G0 F2700 X50.015 Y35.295
G0 X49.946 Y36.326
G0 X54.265 Y43.764
G0 X54.191 Y44.794
G0 X49.343 Y44.883
G0 X47.843 Y54.349
G0 X50.103 Y54.674
G0 X53.382 Y54.996
G0 X56.058 Y55.153
G0 X63.323 Y55.337
;TYPE:WALL-INNER
G1 F2400 E55.00222
G1 F900 X60 Y55.403 E55.15021
G1 X56.677 Y55.337 E55.2982
G1 X53.374 Y55.142 E55.44553
G1 X50.089 Y54.819 E55.59251
G1 X47.839 Y54.507 E55.69365
G1 X47.663 Y54.483 E55.70156
G1 X47.69 Y54.308 E55.70663
G1 X49.211 Y44.707 E56.13946
G1 X51.242 Y44.988 E56.23076
G1 X54.153 Y45.274 E56.361
G1 X57.074 Y45.447 E56.49129
G1 X60 Y45.504 E56.6216
G1 X62.926 Y45.447 E56.75191
G1 X65.847 Y45.274 E56.88221
G1 X68.758 Y44.988 E57.01245
G1 X70.789 Y44.707 E57.10374
G1 X72.31 Y54.308 E57.53658
G1 X72.337 Y54.483 E57.54446
G1 X72.161 Y54.507 E57.54955
G1 X69.911 Y54.819 E57.65069
G1 X66.626 Y55.142 E57.79767
G1 X63.811 Y55.309 E57.92323
G0 F810 X63.323 Y55.337
G0 F2700 X63.33 Y55.687
G1 F900 X60 Y55.753 E58.07154
G1 X56.67 Y55.687 E58.21984
G1 X53.346 Y55.491 E58.3681
G1 X50.041 Y55.166 E58.51598
G1 X47.437 Y54.805 E58.63303
G1 X47.261 Y54.781 E58.64094
G1 X47.288 Y54.606 E58.64601
G1 X48.919 Y44.313 E59.11004
G1 X51.283 Y44.64 E59.21631
G1 X54.18 Y44.925 E59.34593
G1 X57.088 Y45.097 E59.47564
G1 X60 Y45.154 E59.60532
G1 X62.912 Y45.097 E59.73501
G1 X65.82 Y44.925 E59.86472
G1 X68.717 Y44.64 E59.99434
G1 X71.081 Y44.313 E60.1006
G1 X72.712 Y54.606 E60.56464
G1 X72.739 Y54.781 E60.57252
G1 X72.563 Y54.805 E60.57761
G1 X69.959 Y55.166 E60.69466
G1 X66.654 Y55.491 E60.84253
G1 X63.821 Y55.659 E60.9689
G0 F810 X63.33 Y55.687
G0 F2700 X63.336 Y56.012
;TYPE:WALL-OUTER
G1 F900 X60 Y56.078 E61.11747
G1 X56.664 Y56.012 E61.26604
G1 X53.32 Y55.815 E61.4152
G1 X49.996 Y55.488 E61.56392
