;FLAVOR:Marlin
;TIME:6754
;Filament used: 4.39619m
;Layer height: 0.263
;MINX:11.05
;MINY:22.185
;MINZ:0.263
;MAXX:108.321
;MAXY:98.663
;MAXZ:3.156
;Generated with Cura_SteamEngine master
M140 S65
M105
M190 S65
M104 S215
M105
M109 S215
M82 ;absolute extrusion mode
G21;(metric values)
G90;(absolute positioning)
M82;(set extruder to absolute mode)
M107;(start with the fan off)
G28;(Home the printer)
G92 E0;(Reset the extruder to 0)
G0 X0 Y-1 Z0;(Move outside the printable area)
G1 X60 E8 F500;(Draw a priming/wiping line to the side)
G92 E0;(Zero the extruder)
G1 X100; (Move the rest of the way to wipe)
G1 Z5;
G1 X0 Y0;
G1 Z0;
G92 E0
G92 E0
G1 F2400 E-2.5
;LAYER_COUNT:12
;LAYER:0
M107
;MESH:TRN_BLADE_8.STL
G0 F1800 X71.788 Y46.918 Z0.263
;TYPE:WALL-INNER
G1 F2400 E0
G1 F1200 X63.005 Y47.474 E0.3368
G1 X54.193 Y47.416 E0.67404
G1 X45.431 Y46.746 E1.01034
G1 X36.699 Y45.461 E1.34811
G1 X28.129 Y43.58 E1.68389
G1 X19.658 Y41.092 E2.02177
G1 X12.592 Y38.467 E2.31024
G1 X12.423 Y38.404 E2.31715
G1 X12.491 Y38.237 E2.32157
G1 X18.66 Y23.252 E2.94174
G1 X24.832 Y25.545 E3.19372
G1 X32.18 Y27.704 E3.48681
G1 X39.662 Y29.346 E3.77996
G1 X47.241 Y30.461 E4.07313
G1 X54.878 Y31.046 E4.36626
G1 X62.538 Y31.095 E4.65941
G1 X70.182 Y30.612 E4.95253
G1 X77.773 Y29.594 E5.24564
G1 X85.276 Y28.05 E5.53879
G1 X92.653 Y25.988 E5.83193
G1 X99.868 Y23.415 E6.12508
G1 X100.473 Y23.15 E6.15036
G1 X100.636 Y23.079 E6.15716
G1 X100.704 Y23.243 E6.16153
G1 X106.938 Y38.196 E6.78152
G1 X105.904 Y38.648 E6.82471
G1 X97.617 Y41.603 E7.16141
G1 X89.127 Y43.978 E7.4988
G1 X80.515 Y45.749 E7.83527
G1 X72.475 Y46.826 E8.14571
G0 F1080 X71.788 Y46.918
G0 F1800 X71.827 Y47.266
G1 F1200 X63.01 Y47.824 E8.48381
G1 X54.178 Y47.766 E8.82182
G1 X45.396 Y47.094 E9.15889
G1 X36.63 Y45.804 E9.49798
G1 X28.04 Y43.919 E9.83454
G1 X19.552 Y41.426 E10.1731
G1 X12.13 Y38.669 E10.4761
G1 X11.961 Y38.606 E10.483
G1 X12.029 Y38.439 E10.48743
G1 X18.465 Y22.806 E11.13442
G1 X24.942 Y25.213 E11.39886
G1 X32.267 Y27.365 E11.69103
G1 X39.725 Y29.002 E11.98324
G1 X47.28 Y30.113 E12.27548
G1 X54.893 Y30.696 E12.56768
G1 X62.528 Y30.745 E12.85988
G1 X70.148 Y30.263 E13.15208
G1 X77.714 Y29.249 E13.44422
G1 X85.194 Y27.71 E13.73648
G1 X92.547 Y25.654 E14.02867
G1 X99.739 Y23.089 E14.32089
G1 X100.659 Y22.686 E14.35932
G1 X100.822 Y22.615 E14.36613
G1 X100.89 Y22.779 E14.3705
G1 X107.394 Y38.379 E15.01732
G1 X106.03 Y38.975 E15.07428
G1 X97.731 Y41.934 E15.41147
G1 X89.207 Y44.319 E15.75021
G1 X80.574 Y46.094 E16.08751
G1 X72.514 Y47.174 E16.39872
G0 F1080 X71.827 Y47.266
G0 F1800 X71.861 Y47.589
;TYPE:WALL-OUTER
G1 F1200 X63.015 Y48.149 E16.73793
G1 X54.165 Y48.091 E17.07663
G1 X45.353 Y47.417 E17.41485
G1 X36.583 Y46.126 E17.75409
G1 X27.95 Y44.232 E18.09233
G1 X19.45 Y41.735 E18.43137
G1 X11.701 Y38.857 E18.74772
G1 X11.532 Y38.794 E18.75462
G1 X11.6 Y38.627 E18.75905
G1 X18.284 Y22.392 E19.43096
G1 X25.045 Y24.904 E19.70698
G1 X32.348 Y27.05 E19.99829
G1 X39.784 Y28.682 E20.28964
G1 X47.316 Y29.79 E20.58099
G1 X54.906 Y30.371 E20.87231
G1 X62.519 Y30.42 E21.16366
G1 X70.116 Y29.939 E21.45498
G1 X77.66 Y28.928 E21.74627
G1 X85.117 Y27.394 E22.03762
G1 X92.449 Y25.344 E22.32898
G1 X99.619 Y22.787 E22.6203
G1 X100.832 Y22.256 E22.67098
G1 X100.995 Y22.185 E22.67778
G1 X101.063 Y22.349 E22.68215
G1 X107.817 Y38.549 E23.35384
G1 X106.154 Y39.276 E23.4233
G1 X97.825 Y42.245 E23.7617
G1 X89.291 Y44.633 E24.10084
G1 X80.624 Y46.415 E24.43946
G1 X72.548 Y47.497 E24.75129
G0 F1080 X71.861 Y47.589
G0 F1800 X71.662 Y47.601
G0 X71.645 Y47.327
G0 X71.758 Y46.579
;TYPE:SKIN
G1 F1200 X62.986 Y47.134 E25.08767
G1 X54.207 Y47.076 E25.42365
G1 X45.468 Y46.408 E25.75906
G1 X36.766 Y45.128 E26.09567
G1 X28.208 Y43.25 E26.43098
G1 X19.77 Y40.771 E26.76755
G1 X12.872 Y38.208 E27.04917
G1 X18.85 Y23.685 E27.65021
G1 X24.725 Y25.868 E27.89006
G1 X32.096 Y28.034 E28.18408
G1 X39.6 Y29.68 E28.47808
G1 X47.204 Y30.799 E28.77222
G1 X54.864 Y31.386 E29.06623
G1 X62.548 Y31.435 E29.3603
G1 X70.215 Y30.95 E29.6543
G1 X77.83 Y29.93 E29.94833
G1 X85.356 Y28.38 E30.2424
G1 X92.756 Y26.312 E30.53644
G1 X99.994 Y23.731 E30.83053
G1 X100.456 Y23.529 E30.84982
G1 X106.496 Y38.019 E31.4506
G1 X105.78 Y38.332 E31.48051
G1 X97.522 Y41.276 E31.81602
G1 X89.047 Y43.647 E32.15281
G1 X80.459 Y45.413 E32.48835
G1 X72.445 Y46.487 E32.79779
G0 F1080 X71.758 Y46.579
G0 F1800 X71.773 Y46.833
G0 X80.489 Y45.606
G0 X89.09 Y43.837
G0 X97.575 Y41.464
G0 X105.844 Y38.515
G0 X106.734 Y38.113
G0 X100.551 Y23.287
G0 X100.088 Y23.862
G1 F1200 X100.665 Y24.439 E32.82902
G1 X100.727 Y24.501
G0 F1800 X101.018 Y25.287
G1 F1200 X99.725 Y23.994 E32.899
G0 F1800 X99.36 Y24.124
G1 F1200 X101.372 Y26.136 E33.00789
G1 X101.434 Y26.198
G0 F1800 X101.725 Y26.984
G1 F1200 X98.995 Y24.254 E33.15564
G0 F1800 X98.63 Y24.384
G1 F1200 X102.079 Y27.833 E33.34231
G1 X102.141 Y27.895
G0 F1800 X102.433 Y28.682
G1 F1200 X98.265 Y24.514 E33.56789
G0 F1800 X97.901 Y24.644
G1 F1200 X102.787 Y29.53 E33.83233
G1 X102.849 Y29.592
G0 F1800 X103.14 Y30.379
G1 F1200 X97.536 Y24.774 E34.13566
G0 F1800 X97.171 Y24.905
G1 F1200 X103.494 Y31.227 E34.47784
G1 X103.556 Y31.289
G0 F1800 X103.847 Y32.076
G1 F1200 X96.806 Y25.035 E34.85891
G0 F1800 X96.441 Y25.165
G1 F1200 X104.201 Y32.925 E35.2789
G1 X104.263 Y32.987
G0 F1800 X104.555 Y33.774
G1 F1200 X96.076 Y25.295 E35.7378
G0 F1800 X95.711 Y25.425
G1 F1200 X104.909 Y34.622 E36.23558
G1 X104.971 Y34.684
G0 F1800 X105.262 Y35.471
G1 F1200 X95.346 Y25.555 E36.77226
G0 F1800 X94.982 Y25.685
G1 F1200 X105.616 Y36.319 E37.34779
G1 X105.678 Y36.381
G0 F1800 X105.969 Y37.168
G1 F1200 X94.617 Y25.815 E37.96221
G0 F1800 X94.252 Y25.945
G1 F1200 X106.257 Y37.951 E38.61197
G0 F1800 X105.913 Y38.101
G1 F1200 X93.887 Y26.075 E39.26284
G0 F1800 X93.522 Y26.206
G1 F1200 X105.56 Y38.243 E39.91433
G0 F1800 X105.194 Y38.373
G1 F1200 X93.157 Y26.336 E40.56579
G0 F1800 X92.792 Y26.465
G1 F1200 X104.829 Y38.503 E41.21729
G0 F1800 X104.465 Y38.633
G1 F1200 X92.405 Y26.573 E41.87
G0 F1800 X92.018 Y26.681
G1 F1200 X104.1 Y38.763 E42.5239
G0 F1800 X103.735 Y38.893
G1 F1200 X91.631 Y26.789 E43.17899
G0 F1800 X91.244 Y26.897
G1 F1200 X103.37 Y39.023 E43.83527
G0 F1800 X103.005 Y39.153
G1 F1200 X90.857 Y27.005 E44.49274
G0 F1800 X90.47 Y27.114
G1 F1200 X102.64 Y39.284 E45.15141
G0 F1800 X102.275 Y39.414
G1 F1200 X90.083 Y27.222 E45.81126
G0 F1800 X89.697 Y27.33
G1 F1200 X101.91 Y39.543 E46.47225
G0 F1800 X101.545 Y39.673
G1 F1200 X89.31 Y27.438 E47.13443
G0 F1800 X88.923 Y27.546
G1 F1200 X101.18 Y39.803 E47.7978
G0 F1800 X100.815 Y39.933
G1 F1200 X88.536 Y27.654 E48.46237
G0 F1800 X88.149 Y27.762
G1 F1200 X100.45 Y40.063 E49.12812
G0 F1800 X100.086 Y40.194
G1 F1200 X87.762 Y27.87 E49.79512
G0 F1800 X87.375 Y27.978
G1 F1200 X99.721 Y40.324 E50.46331
G0 F1800 X99.356 Y40.454
G1 F1200 X86.988 Y28.086 E51.13268
G0 F1800 X86.602 Y28.195
G1 F1200 X98.991 Y40.584 E51.8032
G0 F1800 X98.625 Y40.713
G1 F1200 X86.215 Y28.303 E52.47485
G0 F1800 X85.827 Y28.41
G1 F1200 X98.26 Y40.843 E53.14775
G0 F1800 X97.896 Y40.974
G1 F1200 X85.441 Y28.519 E53.82184
G0 F1800 X85.033 Y28.606
G1 F1200 X97.531 Y41.104 E54.49825
G0 F1800 X97.147 Y41.215
G1 F1200 X84.623 Y28.691 E55.17608
G0 F1800 X84.212 Y28.775
G1 F1200 X96.761 Y41.324 E55.85525
G0 F1800 X96.374 Y41.432
G1 F1200 X83.802 Y28.86 E56.53567
G0 F1800 X83.391 Y28.944
G1 F1200 X95.987 Y41.54 E57.21739
G0 F1800 X95.6 Y41.648
G1 F1200 X82.981 Y29.029 E57.90035
G0 F1800 X82.57 Y29.113
G1 F1200 X95.214 Y41.756 E58.58464
G0 F1800 X94.827 Y41.864
G1 F1200 X82.16 Y29.198 E59.27018
G0 F1800 X81.75 Y29.283
G1 F1200 X94.44 Y41.973 E59.95698
G0 F1800 X94.053 Y42.081
G1 F1200 X81.339 Y29.367 E60.64509
G0 F1800 X80.929 Y29.452
G1 F1200 X93.667 Y42.19 E61.33449
G0 F1800 X93.28 Y42.298
G1 F1200 X80.518 Y29.536 E62.0252
G0 F1800 X80.108 Y29.621
G1 F1200 X92.894 Y42.406 E62.71717
G0 F1800 X92.507 Y42.514
G1 F1200 X79.698 Y29.705 E63.41042
G0 F1800 X79.287 Y29.79
G1 F1200 X92.12 Y42.622 E64.10494
G0 F1800 X91.733 Y42.731
G1 F1200 X78.877 Y29.875 E64.80073
G0 F1800 X78.466 Y29.959
G1 F1200 X91.346 Y42.839 E65.49782
G0 F1800 X90.96 Y42.947
G1 F1200 X78.056 Y30.044 E66.19618
G0 F1800 X77.633 Y30.115
G1 F1200 X90.573 Y43.055 E66.89652
G0 F1800 X90.186 Y43.163
G1 F1200 X77.196 Y30.173 E67.59956
G0 F1800 X76.759 Y30.232
G1 F1200 X89.799 Y43.272 E68.30531
G0 F1800 X89.412 Y43.38
G1 F1200 X76.323 Y30.291 E69.01371
G0 F1800 X75.886 Y30.349
G1 F1200 X89.026 Y43.488 E69.72485
G0 F1800 X88.617 Y43.574
G1 F1200 X75.45 Y30.407 E70.43747
G0 F1800 X75.014 Y30.466
G1 F1200 X88.206 Y43.658 E71.15144
G0 F1800 X87.796 Y43.743
G1 F1200 X74.577 Y30.524 E71.86688
G0 F1800 X74.14 Y30.583
G1 F1200 X87.385 Y43.827 E72.5837
G0 F1800 X86.974 Y43.912
G1 F1200 X73.704 Y30.641 E73.30192
G0 F1800 X73.267 Y30.699
G1 F1200 X86.564 Y43.996 E74.02158
G0 F1800 X86.153 Y44.081
G1 F1200 X72.831 Y30.758 E74.74262
G0 F1800 X72.394 Y30.816
G1 F1200 X85.743 Y44.165 E75.46509
G0 F1800 X85.332 Y44.25
G1 F1200 X71.958 Y30.875 E76.18895
G0 F1800 X71.521 Y30.933
G1 F1200 X84.922 Y44.334 E76.91423
G0 F1800 X84.511 Y44.419
G1 F1200 X71.084 Y30.991 E77.64095
G0 F1800 X70.648 Y31.05
G1 F1200 X84.101 Y44.503 E78.36906
G0 F1800 X83.69 Y44.587
G1 F1200 X70.21 Y31.107 E79.09862
G0 F1800 X69.745 Y31.137
G1 F1200 X83.28 Y44.672 E79.83116
G0 F1800 X82.869 Y44.756
G1 F1200 X69.279 Y31.166 E80.56668
G0 F1800 X68.814 Y31.196
G1 F1200 X82.459 Y44.841 E81.30517
G0 F1800 X82.048 Y44.925
G1 F1200 X68.348 Y31.225 E82.04664
G0 F1800 X67.882 Y31.254
G1 F1200 X81.637 Y45.009 E82.79108
G0 F1800 X81.227 Y45.094
G1 F1200 X67.417 Y31.284 E83.53851
G0 F1800 X66.951 Y31.313
G1 F1200 X80.816 Y45.178 E84.28891
G0 F1800 X80.404 Y45.261
G1 F1200 X66.486 Y31.343 E85.04218
G0 F1800 X66.021 Y31.372
G1 F1200 X79.968 Y45.319 E85.79701
G0 F1800 X79.531 Y45.378
G1 F1200 X65.555 Y31.401 E86.55345
G0 F1800 X65.089 Y31.431
G1 F1200 X79.095 Y45.437 E87.31148
G0 F1800 X78.658 Y45.495
G1 F1200 X64.623 Y31.46 E88.07108
G0 F1800 X64.158 Y31.49
G1 F1200 X78.222 Y45.553 E88.83222
G0 F1800 X77.785 Y45.612
G1 F1200 X63.693 Y31.519 E89.59493
G0 F1800 X63.227 Y31.548
G1 F1200 X77.349 Y45.671 E90.35927
G0 F1800 X76.912 Y45.729
G1 F1200 X62.762 Y31.578 E91.12512
G0 F1800 X62.278 Y31.589
G1 F1200 X76.476 Y45.787 E91.89354
G0 F1800 X76.04 Y45.846
G1 F1200 X61.78 Y31.587 E92.66529
G0 F1800 X61.282 Y31.583
G1 F1200 X75.603 Y45.905 E93.4404
G0 F1800 X75.166 Y45.963
G1 F1200 X60.784 Y31.58 E94.21881
G0 F1800 X60.285 Y31.577
G1 F1200 X74.73 Y46.022 E95.0006
G0 F1800 X74.294 Y46.08
G1 F1200 X59.787 Y31.574 E95.78572
G0 F1800 X59.289 Y31.57
G1 F1200 X73.858 Y46.139 E96.57422
G0 F1800 X73.421 Y46.197
G1 F1200 X58.791 Y31.568 E97.366
G0 F1800 X58.293 Y31.564
G1 F1200 X72.984 Y46.256 E98.16113
G0 F1800 X72.548 Y46.314
G1 F1200 X57.795 Y31.561 E98.95959
G0 F1800 X57.296 Y31.558
G1 F1200 X72.111 Y46.372 E99.76138
G0 F1800 X71.67 Y46.426
G1 F1200 X56.799 Y31.555 E100.56622
G0 F1800 X56.3 Y31.551
G1 F1200 X71.204 Y46.456 E101.37288
G0 F1800 X70.739 Y46.485
G1 F1200 X55.802 Y31.548 E102.1813
G0 F1800 X55.304 Y31.546
G1 F1200 X70.273 Y46.514 E102.99142
G0 F1800 X69.808 Y46.544
G1 F1200 X54.802 Y31.539 E103.80355
G0 F1800 X54.266 Y31.497
G1 F1200 X69.343 Y46.574 E104.61954
G0 F1800 X68.877 Y46.603
G1 F1200 X53.73 Y31.456 E105.43933
G0 F1800 X53.194 Y31.415
G1 F1200 X68.411 Y46.632 E106.2629
G0 F1800 X67.946 Y46.662
G1 F1200 X52.658 Y31.374 E107.09032
G0 F1800 X52.122 Y31.333
G1 F1200 X67.48 Y46.691 E107.92152
G0 F1800 X67.015 Y46.721
G1 F1200 X51.586 Y31.292 E108.75657
G0 F1800 X51.05 Y31.251
G1 F1200 X66.55 Y46.751 E109.59546
G0 F1800 X66.084 Y46.78
G1 F1200 X50.514 Y31.21 E110.43813
G0 F1800 X49.978 Y31.169
G1 F1200 X65.618 Y46.809 E111.2846
G0 F1800 X65.153 Y46.839
G1 F1200 X49.442 Y31.128 E112.13491
G0 F1800 X48.906 Y31.087
G1 F1200 X64.687 Y46.868 E112.98901
G0 F1800 X64.222 Y46.898
G1 F1200 X48.37 Y31.046 E113.84695
G0 F1800 X47.834 Y31.005
G1 F1200 X63.756 Y46.927 E114.70867
G0 F1800 X63.291 Y46.956
G1 F1200 X47.297 Y30.963 E115.57427
G0 F1800 X46.727 Y30.887
G1 F1200 X62.815 Y46.975 E116.44498
G0 F1800 X62.316 Y46.972
G1 F1200 X46.146 Y30.802 E117.32014
G0 F1800 X45.565 Y30.716
G1 F1200 X61.818 Y46.969 E118.19978
G0 F1800 X61.32 Y46.966
G1 F1200 X44.985 Y30.631 E119.08386
G0 F1800 X44.404 Y30.545
G1 F1200 X60.821 Y46.962 E119.97238
G0 F1800 X60.323 Y46.958
G1 F1200 X43.825 Y30.46 E120.86528
G0 F1800 X43.244 Y30.375
G1 F1200 X59.825 Y46.956 E121.76267
G0 F1800 X59.326 Y46.952
G1 F1200 X42.663 Y30.289 E122.66451
G0 F1800 X42.083 Y30.204
G1 F1200 X58.828 Y46.949 E123.57078
G0 F1800 X58.33 Y46.946
G1 F1200 X41.503 Y30.119 E124.48149
G0 F1800 X40.923 Y30.033
G1 F1200 X57.832 Y46.942 E125.39663
G0 F1800 X57.333 Y46.939
G1 F1200 X40.342 Y29.948 E126.31622
G0 F1800 X39.762 Y29.862
G1 F1200 X56.835 Y46.935 E127.24024
G0 F1800 X56.337 Y46.932
G1 F1200 X39.145 Y29.74 E128.1707
G0 F1800 X38.511 Y29.602
G1 F1200 X55.838 Y46.929 E129.10847
G0 F1800 X55.34 Y46.925
G1 F1200 X37.877 Y29.463 E130.05358
G0 F1800 X37.243 Y29.323
G1 F1200 X54.842 Y46.922 E131.00607
G0 F1800 X54.343 Y46.919
G1 F1200 X36.609 Y29.185 E131.96587
G0 F1800 X35.975 Y29.045
G1 F1200 X53.818 Y46.888 E132.93156
G0 F1800 X53.282 Y46.847
G1 F1200 X35.341 Y28.906 E133.90256
G0 F1800 X34.707 Y28.767
G1 F1200 X52.746 Y46.806 E134.87887
G0 F1800 X52.21 Y46.765
G1 F1200 X34.073 Y28.628 E135.86048
G0 F1800 X33.439 Y28.489
G1 F1200 X51.674 Y46.724 E136.84739
G0 F1800 X51.138 Y46.683
G1 F1200 X32.805 Y28.35 E137.8396
G0 F1800 X32.171 Y28.211
G1 F1200 X50.602 Y46.642 E138.83712
G0 F1800 X50.066 Y46.601
G1 F1200 X31.483 Y28.018 E139.84287
G1 X31.421 Y27.956
G0 F1800 X30.782 Y27.812
G1 F1200 X49.53 Y46.56 E140.85755
G0 F1800 X48.994 Y46.519
G1 F1200 X30.081 Y27.606 E141.88115
G1 X30.019 Y27.544
G0 F1800 X29.38 Y27.4
G1 F1200 X48.458 Y46.478 E142.91369
G0 F1800 X47.922 Y46.437
G1 F1200 X28.678 Y27.193 E143.95521
G1 X28.616 Y27.131
G0 F1800 X27.977 Y26.987
G1 F1200 X47.387 Y46.397 E145.00572
G0 F1800 X46.851 Y46.356
G1 F1200 X27.276 Y26.781 E146.06515
G1 X27.214 Y26.719
G0 F1800 X26.575 Y26.575
G1 F1200 X46.315 Y46.315 E147.13352
G0 F1800 X45.779 Y46.274
G1 F1200 X25.874 Y26.369 E148.21082
G1 X25.812 Y26.307
G0 F1800 X25.173 Y26.162
G1 F1200 X45.223 Y46.212 E149.29596
G0 F1800 X44.642 Y46.127
G1 F1200 X24.446 Y25.931 E150.389
G1 X24.384 Y25.869
G0 F1800 X23.659 Y25.638
G1 F1200 X44.061 Y46.041 E151.49323
G0 F1800 X43.482 Y45.956
G1 F1200 X22.871 Y25.346 E152.60871
G1 X22.809 Y25.284
G0 F1800 X22.083 Y25.053
G1 F1200 X42.901 Y45.871 E153.73541
G0 F1800 X42.321 Y45.785
G1 F1200 X21.296 Y24.761 E154.8733
G1 X21.234 Y24.699
G0 F1800 X20.508 Y24.468
G1 F1200 X41.741 Y45.701 E156.02247
G0 F1800 X41.16 Y45.615
G1 F1200 X19.721 Y24.175 E157.18282
G1 X19.659 Y24.113
G0 F1800 X18.936 Y23.886
G1 F1200 X40.58 Y45.529 E158.3542
G0 F1800 X39.999 Y45.444
G1 F1200 X18.792 Y24.236 E159.50199
G0 F1800 X18.647 Y24.587
G1 F1200 X39.419 Y45.359 E160.62621
G0 F1800 X38.839 Y45.273
G1 F1200 X18.503 Y24.938 E161.72681
G0 F1800 X18.359 Y25.288
G1 F1200 X38.258 Y45.188 E162.8038
G0 F1800 X37.678 Y45.102
G1 F1200 X18.215 Y25.639 E163.85718
G0 F1800 X18.07 Y25.99
G1 F1200 X37.098 Y45.017 E164.88698
G0 F1800 X36.491 Y44.906
G1 F1200 X17.925 Y26.34 E165.89181
G0 F1800 X17.781 Y26.691
G1 F1200 X35.857 Y44.766 E166.87009
G0 F1800 X35.223 Y44.627
G1 F1200 X17.637 Y27.041 E167.82188
G0 F1800 X17.493 Y27.392
G1 F1200 X34.588 Y44.488 E168.74712
G0 F1800 X33.954 Y44.349
G1 F1200 X17.348 Y27.743 E169.64586
G0 F1800 X17.204 Y28.094
G1 F1200 X33.32 Y44.209 E170.51807
G0 F1800 X32.686 Y44.07
G1 F1200 X17.06 Y28.444 E171.36377
G0 F1800 X16.916 Y28.795
G1 F1200 X32.052 Y43.931 E172.18296
G0 F1800 X31.418 Y43.792
G1 F1200 X16.771 Y29.146 E172.97566
G0 F1800 X16.626 Y29.496
G1 F1200 X30.783 Y43.653 E173.74186
G0 F1800 X30.149 Y43.513
G1 F1200 X16.482 Y29.846 E174.48155
G0 F1800 X16.338 Y30.197
G1 F1200 X29.515 Y43.374 E175.19471
G0 F1800 X28.881 Y43.235
G1 F1200 X16.194 Y30.548 E175.88135
G0 F1800 X16.049 Y30.899
G1 F1200 X28.246 Y43.096 E176.54148
G1 X28.308 Y43.158
G0 F1800 X27.546 Y42.89
G1 F1200 X15.905 Y31.249 E177.17151
