;FLAVOR:Marlin
;TIME:2268
;Filament used: 1.46631m
;Layer height: 0.263
;MINX:11.746
;MINY:92.484
;MINZ:0.263
;MAXX:108.031
;MAXY:118.376
;MAXZ:3.156
;Generated with Cura_SteamEngine master
M140 S60
M105
M190 S60
M104 S200
M105
M109 S200
M82 ;absolute extrusion mode
G21;(metric values)
G90;(absolute positioning)
M82;(set extruder to absolute mode)
M107;(start with the fan off)
G28;(Home the printer)
G92 E0;(Reset the extruder to 0)
G0 X0 Y-1 Z0;(Move outside the printable area)
G1 X60 E8 F500;(Draw a priming/wiping line to the side)
G92 E0;(Zero the extruder)
G1 X100; (Move the rest of the way to wipe)
G1 Z5;
G1 X0 Y0;
G1 Z0;
G92 E0
G92 E0
G1 F2400 E-2.5
;LAYER_COUNT:12
;LAYER:0
M107
;MESH:TRN_BLADE_8.STL
G0 F1800 X107.071 Y102.548 Z0.263
;TYPE:WALL-INNER
G1 F2400 E0
G1 F1200 X100.856 Y117.515 E0.62021
G1 X94.691 Y115.204 E0.87217
G1 X87.349 Y113.022 E1.1653
G1 X79.873 Y111.358 E1.4584
G1 X72.298 Y110.22 E1.75155
G1 X64.662 Y109.612 E2.04471
G1 X57.003 Y109.54 E2.33783
G1 X49.357 Y110 E2.63097
G1 X41.761 Y110.995 E2.92415
G1 X34.254 Y112.515 E3.21727
G1 X26.871 Y114.556 E3.51042
G1 X19.649 Y117.107 E3.80354
G1 X19.041 Y117.372 E3.82892
G1 X18.878 Y117.442 E3.83571
G1 X18.811 Y117.278 E3.84008
G1 X12.622 Y102.305 E4.46011
G1 X13.649 Y101.86 E4.50295
G1 X21.966 Y98.922 E4.84052
G1 X30.43 Y96.582 E5.17658
G1 X39.087 Y94.828 E5.51462
G1 X47.797 Y93.689 E5.85079
G1 X56.581 Y93.159 E6.18756
G1 X65.393 Y93.244 E6.52481
G1 X74.168 Y93.942 E6.86169
G1 X82.867 Y95.249 E7.19834
G1 X91.443 Y97.158 E7.53457
G1 X99.924 Y99.677 E7.87316
G1 X106.971 Y102.318 E8.16116
G1 X107.14 Y102.381 E8.16806
G1 X107.071 Y102.548 E8.17249
G0 F1800 X107.533 Y102.347
G1 F1200 X101.049 Y117.962 E8.81955
G1 X94.58 Y115.536 E9.08395
G1 X87.261 Y113.361 E9.37616
G1 X79.809 Y111.702 E9.66833
G1 X72.258 Y110.568 E9.96054
G1 X64.646 Y109.962 E10.25278
G1 X57.012 Y109.89 E10.54494
G1 X49.39 Y110.349 E10.83716
G1 X41.819 Y111.34 E11.12938
G1 X34.335 Y112.856 E11.42161
G1 X26.976 Y114.89 E11.71379
G1 X19.777 Y117.433 E12.00598
G1 X18.854 Y117.835 E12.04451
G1 X18.691 Y117.905 E12.0513
G1 X18.624 Y117.741 E12.05567
G1 X12.168 Y102.121 E12.70249
G1 X13.525 Y101.532 E12.7591
G1 X21.854 Y98.59 E13.09715
G1 X30.352 Y96.241 E13.43457
G1 X39.03 Y94.483 E13.77342
G1 X47.76 Y93.341 E14.11036
G1 X56.578 Y92.809 E14.44844
G1 X65.41 Y92.894 E14.78646
G1 X74.205 Y93.594 E15.12411
G1 X82.938 Y94.906 E15.46207
G1 X91.534 Y96.819 E15.79908
G1 X100.032 Y99.343 E16.13834
G1 X107.433 Y102.117 E16.44082
G1 X107.602 Y102.18 E16.44772
G1 X107.533 Y102.347 E16.45215
G0 F1800 X107.962 Y102.161
;TYPE:WALL-OUTER
G1 F1200 X101.229 Y118.376 E17.12407
G1 X94.477 Y115.844 E17.40004
G1 X87.179 Y113.676 E17.6914
G1 X79.749 Y112.022 E17.9827
G1 X72.221 Y110.891 E18.27403
G1 X64.632 Y110.287 E18.56538
G1 X57.02 Y110.215 E18.8567
G1 X49.421 Y110.673 E19.14805
G1 X41.872 Y111.661 E19.43941
G1 X34.411 Y113.172 E19.73074
G1 X27.074 Y115.2 E20.02205
G1 X19.896 Y117.736 E20.31339
G1 X18.68 Y118.265 E20.36414
G1 X18.517 Y118.335 E20.37093
G1 X18.45 Y118.171 E20.3753
G1 X11.746 Y101.95 E21.047
G1 X13.403 Y101.231 E21.11613
G1 X21.762 Y98.279 E21.45539
G1 X30.287 Y95.922 E21.79388
G1 X38.965 Y94.164 E22.13274
G1 X47.728 Y93.018 E22.47095
G1 X56.575 Y92.484 E22.81014
G1 X65.425 Y92.569 E23.14885
G1 X74.235 Y93.27 E23.48707
G1 X83.001 Y94.587 E23.82631
G1 X91.627 Y96.507 E24.1645
G1 X100.125 Y99.031 E24.50376
G1 X107.862 Y101.931 E24.81997
G1 X108.031 Y101.994 E24.82688
G1 X107.962 Y102.161 E24.8313
G0 F1800 X107.886 Y102.345
G0 X107.632 Y102.239
G0 X106.926 Y102.674
G0 X106.691 Y102.576
;TYPE:SKIN
G1 F1200 X100.668 Y117.082 E25.4324
G1 X94.8 Y114.881 E25.67224
G1 X87.434 Y112.693 E25.96631
G1 X79.935 Y111.024 E26.26032
G1 X72.337 Y109.882 E26.55436
G1 X64.677 Y109.272 E26.84844
G1 X56.995 Y109.2 E27.14244
G1 X49.324 Y109.662 E27.43654
G1 X41.705 Y110.659 E27.73061
G1 X34.175 Y112.184 E28.02463
G1 X26.768 Y114.232 E28.31873
G1 X19.525 Y116.79 E28.6127
G1 X19.06 Y116.992 E28.6321
G1 X13.064 Y102.485 E29.23284
G1 X13.774 Y102.177 E29.26245
G1 X22.068 Y99.247 E29.59909
G1 X30.502 Y96.915 E29.93397
G1 X39.143 Y95.164 E30.27138
G1 X47.832 Y94.029 E30.60673
G1 X56.598 Y93.499 E30.94282
G1 X65.389 Y93.584 E31.27927
G1 X74.119 Y94.278 E31.61442
G1 X82.801 Y95.583 E31.95041
G1 X91.357 Y97.487 E32.28586
G1 X99.816 Y100 E32.62357
G1 X106.042 Y102.333 E32.87801
G0 F1080 X106.691 Y102.576
G0 F1800 X106.379 Y102.915
G1 F1200 X105.92 Y102.455 E32.90288
G0 F1800 X105.128 Y102.158
G1 F1200 X106.235 Y103.265 E32.96279
G0 F1800 X106.09 Y103.615
G1 F1200 X104.336 Y101.861 E33.05772
G1 X104.274 Y101.799
G0 F1800 X103.544 Y101.564
G1 F1200 X105.944 Y103.964 E33.18762
G0 F1800 X105.799 Y104.314
G1 F1200 X102.752 Y101.267 E33.35253
G1 X102.69 Y101.205
G0 F1800 X101.96 Y100.97
G1 F1200 X105.654 Y104.664 E33.55245
G0 F1800 X105.508 Y105.013
G1 F1200 X101.168 Y100.673 E33.78734
G1 X101.106 Y100.611
G0 F1800 X100.376 Y100.376
G1 F1200 X105.363 Y105.363 E34.05725
G0 F1800 X105.218 Y105.713
G1 F1200 X99.605 Y100.1 E34.36103
G1 X99.543 Y100.038
G0 F1800 X98.901 Y99.891
G1 F1200 X105.073 Y106.063 E34.69507
G0 F1800 X104.928 Y106.413
G1 F1200 X98.197 Y99.682 E35.05937
G1 X98.135 Y99.62
G0 F1800 X97.493 Y99.472
G1 F1200 X104.782 Y106.762 E35.45389
G0 F1800 X104.637 Y107.112
G1 F1200 X96.789 Y99.264 E35.87864
G1 X96.727 Y99.202
G0 F1800 X96.085 Y99.055
G1 F1200 X104.492 Y107.462 E36.33364
G0 F1800 X104.347 Y107.811
G1 F1200 X95.381 Y98.846 E36.81887
G1 X95.319 Y98.784
G0 F1800 X94.677 Y98.637
G1 F1200 X104.202 Y108.161 E37.33435
G0 F1800 X104.056 Y108.511
G1 F1200 X93.973 Y98.427 E37.88009
G1 X93.911 Y98.365
G0 F1800 X93.269 Y98.219
G1 F1200 X103.911 Y108.861 E38.45606
G0 F1800 X103.766 Y109.211
G1 F1200 X92.565 Y98.009 E39.0623
G1 X92.503 Y97.947
G0 F1800 X91.86 Y97.8
G1 F1200 X103.62 Y109.56 E39.69878
G0 F1800 X103.475 Y109.91
G1 F1200 X91.172 Y97.606 E40.36466
G0 F1800 X90.535 Y97.465
G1 F1200 X103.33 Y110.26 E41.05715
G0 F1800 X103.185 Y110.609
G1 F1200 X89.898 Y97.323 E41.77624
G0 F1800 X89.262 Y97.181
G1 F1200 X103.04 Y110.959 E42.52194
G0 F1800 X102.894 Y111.309
G1 F1200 X88.625 Y97.039 E43.29423
G0 F1800 X87.988 Y96.898
G1 F1200 X102.749 Y111.659 E44.09312
G0 F1800 X102.604 Y112.009
G1 F1200 X87.351 Y96.756 E44.91864
G0 F1800 X86.715 Y96.614
G1 F1200 X102.459 Y112.358 E45.77074
G0 F1800 X102.314 Y112.708
G1 F1200 X86.078 Y96.472 E46.64946
G0 F1800 X85.441 Y96.331
G1 F1200 X102.169 Y113.058 E47.55478
G0 F1800 X102.023 Y113.407
G1 F1200 X84.804 Y96.189 E48.48668
G0 F1800 X84.168 Y96.047
G1 F1200 X101.878 Y113.757 E49.44518
G0 F1800 X101.732 Y114.107
G1 F1200 X83.531 Y95.906 E50.43025
G0 F1800 X82.894 Y95.764
G1 F1200 X101.587 Y114.457 E51.44195
G0 F1800 X101.442 Y114.807
G1 F1200 X82.301 Y95.665 E52.47792
G0 F1800 X81.718 Y95.578
G1 F1200 X101.297 Y115.156 E53.53755
G0 F1800 X101.152 Y115.506
G1 F1200 X81.136 Y95.49 E54.62085
G0 F1800 X80.554 Y95.403
G1 F1200 X101.007 Y115.856 E55.72781
G0 F1800 X100.861 Y116.205
G1 F1200 X79.971 Y95.315 E56.85841
G0 F1800 X79.388 Y95.228
G1 F1200 X100.716 Y116.555 E58.0127
G0 F1800 X100.526 Y116.86
G1 F1200 X78.806 Y95.14 E59.18822
G0 F1800 X78.223 Y95.052
G1 F1200 X99.733 Y116.563 E60.35241
G1 X99.795 Y116.625
G0 F1800 X98.941 Y116.266
G1 F1200 X77.641 Y94.965 E61.50524
G0 F1800 X77.058 Y94.877
G1 F1200 X98.149 Y115.969 E62.64675
G1 X98.211 Y116.031
G0 F1800 X97.357 Y115.671
G1 F1200 X76.476 Y94.79 E63.77687
G0 F1800 X75.893 Y94.702
G1 F1200 X96.565 Y115.374 E64.89567
G1 X96.627 Y115.436
G0 F1800 X95.773 Y115.077
G1 F1200 X75.311 Y94.615 E66.00312
G0 F1800 X74.728 Y94.527
G1 F1200 X94.98 Y114.779 E67.09919
G1 X95.042 Y114.841
G0 F1800 X94.262 Y114.556
G1 F1200 X74.145 Y94.439 E68.18796
G0 F1800 X73.604 Y94.393
G1 F1200 X93.558 Y114.346 E69.26788
G1 X93.62 Y114.408
G0 F1800 X92.853 Y114.137
G1 F1200 X73.066 Y94.35 E70.33879
G0 F1800 X72.529 Y94.308
G1 F1200 X92.15 Y113.929 E71.40072
G1 X92.212 Y113.991
G0 F1800 X91.445 Y113.719
G1 F1200 X71.991 Y94.265 E72.4536
G0 F1800 X71.453 Y94.222
G1 F1200 X90.741 Y113.51 E73.49751
G1 X90.803 Y113.572
G0 F1800 X90.038 Y113.301
G1 F1200 X70.915 Y94.179 E74.53245
G0 F1800 X70.378 Y94.137
G1 F1200 X89.333 Y113.092 E75.55833
G1 X89.395 Y113.154
G0 F1800 X88.629 Y112.883
G1 F1200 X69.84 Y94.094 E76.57523
G0 F1800 X69.302 Y94.051
G1 F1200 X87.925 Y112.674 E77.58314
G1 X87.987 Y112.736
G0 F1800 X87.246 Y112.49
G1 F1200 X68.765 Y94.009 E78.58337
G0 F1800 X68.227 Y93.966
G1 F1200 X86.609 Y112.348 E79.57823
G0 F1800 X85.972 Y112.206
G1 F1200 X67.689 Y93.923 E80.56774
G0 F1800 X67.152 Y93.881
G1 F1200 X85.336 Y112.065 E81.5519
G0 F1800 X84.699 Y111.922
G1 F1200 X66.614 Y93.838 E82.53066
G0 F1800 X66.077 Y93.795
G1 F1200 X84.062 Y111.781 E83.50407
G0 F1800 X83.426 Y111.64
G1 F1200 X65.538 Y93.752 E84.4722
G0 F1800 X65.029 Y93.737
G1 F1200 X82.789 Y111.498 E85.43344
G0 F1800 X82.153 Y111.356
G1 F1200 X64.529 Y93.732 E86.38728
G0 F1800 X64.029 Y93.727
G1 F1200 X81.515 Y111.214 E87.33368
G0 F1800 X80.879 Y111.073
G1 F1200 X63.529 Y93.722 E88.27272
G0 F1800 X63.029 Y93.717
G1 F1200 X80.243 Y110.931 E89.20438
G0 F1800 X79.636 Y110.819
G1 F1200 X62.529 Y93.712 E90.13024
G0 F1800 X62.029 Y93.707
G1 F1200 X79.053 Y110.732 E91.05164
G0 F1800 X78.471 Y110.644
G1 F1200 X61.529 Y93.702 E91.96857
G0 F1800 X61.029 Y93.698
G1 F1200 X77.888 Y110.556 E92.88098
G0 F1800 X77.306 Y110.469
G1 F1200 X60.53 Y93.693 E93.78893
G0 F1800 X60.03 Y93.688
G1 F1200 X76.723 Y110.382 E94.69242
G0 F1800 X76.141 Y110.294
G1 F1200 X59.53 Y93.683 E95.59143
G0 F1800 X59.03 Y93.678
G1 F1200 X75.558 Y110.206 E96.48596
G0 F1800 X74.975 Y110.119
G1 F1200 X58.53 Y93.673 E97.37602
G0 F1800 X58.03 Y93.669
G1 F1200 X74.393 Y110.031 E98.26159
G0 F1800 X73.81 Y109.943
G1 F1200 X57.53 Y93.664 E99.14267
G0 F1800 X57.03 Y93.659
G1 F1200 X73.227 Y109.856 E100.01928
G0 F1800 X72.645 Y109.768
G1 F1200 X56.536 Y93.659 E100.89113
G0 F1800 X56.07 Y93.688
G1 F1200 X72.085 Y109.703 E101.75789
G0 F1800 X71.547 Y109.66
G1 F1200 X55.602 Y93.715 E102.62086
G0 F1800 X55.135 Y93.743
G1 F1200 X71.009 Y109.617 E103.48
G0 F1800 X70.471 Y109.574
G1 F1200 X54.669 Y93.772 E104.33523
G0 F1800 X54.202 Y93.8
G1 F1200 X69.934 Y109.532 E105.18667
G0 F1800 X69.396 Y109.489
G1 F1200 X53.735 Y93.828 E106.03428
G0 F1800 X53.269 Y93.857
G1 F1200 X68.858 Y109.446 E106.87798
G0 F1800 X68.32 Y109.403
G1 F1200 X52.802 Y93.885 E107.71785
G0 F1800 X52.335 Y93.913
G1 F1200 X67.783 Y109.361 E108.55392
G0 F1800 X67.245 Y109.318
G1 F1200 X51.869 Y93.941 E109.38613
G0 F1800 X51.402 Y93.97
G1 F1200 X66.707 Y109.274 E110.21443
G0 F1800 X66.169 Y109.232
G1 F1200 X50.935 Y93.998 E111.03893
G0 F1800 X50.469 Y94.026
G1 F1200 X65.631 Y109.189 E111.85955
G0 F1800 X65.094 Y109.146
G1 F1200 X50.002 Y94.055 E112.67633
G0 F1800 X49.535 Y94.083
G1 F1200 X64.565 Y109.112 E113.48975
G0 F1800 X64.065 Y109.107
G1 F1200 X49.068 Y94.111 E114.30139
G0 F1800 X48.602 Y94.139
G1 F1200 X63.566 Y109.103 E115.11127
G0 F1800 X63.066 Y109.098
G1 F1200 X48.135 Y94.168 E115.91934
G0 F1800 X47.68 Y94.207
G1 F1200 X62.566 Y109.093 E116.725
G0 F1800 X62.067 Y109.089
G1 F1200 X47.242 Y94.265 E117.52733
G0 F1800 X46.804 Y94.321
G1 F1200 X61.567 Y109.084 E118.32633
G0 F1800 X61.067 Y109.08
G1 F1200 X46.366 Y94.378 E119.122
G0 F1800 X45.928 Y94.436
G1 F1200 X60.567 Y109.075 E119.91429
G0 F1800 X60.068 Y109.07
G1 F1200 X45.491 Y94.493 E120.70323
G0 F1800 X45.053 Y94.55
G1 F1200 X59.568 Y109.066 E121.48883
G0 F1800 X59.068 Y109.061
G1 F1200 X44.615 Y94.608 E122.27106
G0 F1800 X44.177 Y94.665
G1 F1200 X58.568 Y109.056 E123.04992
G0 F1800 X58.069 Y109.052
G1 F1200 X43.739 Y94.721 E123.82552
G0 F1800 X43.301 Y94.779
G1 F1200 X57.569 Y109.047 E124.59773
G0 F1800 X57.07 Y109.042
G1 F1200 X42.864 Y94.836 E125.36658
G0 F1800 X42.426 Y94.893
G1 F1200 X56.598 Y109.065 E126.1336
G0 F1800 X56.131 Y109.093
G1 F1200 X41.988 Y94.951 E126.89902
G0 F1800 X41.551 Y95.008
G1 F1200 X55.664 Y109.122 E127.66287
G0 F1800 X55.197 Y109.149
G1 F1200 X41.113 Y95.065 E128.42512
G0 F1800 X40.674 Y95.122
G1 F1200 X54.73 Y109.177 E129.18583
G0 F1800 X54.264 Y109.206
G1 F1200 X40.237 Y95.179 E129.945
G0 F1800 X39.799 Y95.236
G1 F1200 X53.797 Y109.234 E130.70259
G0 F1800 X53.33 Y109.262
G1 F1200 X39.361 Y95.293 E131.45862
G0 F1800 X38.938 Y95.366
G1 F1200 X52.863 Y109.29 E132.21224
G0 F1800 X52.396 Y109.318
G1 F1200 X38.526 Y95.448 E132.96291
G0 F1800 X38.115 Y95.532
G1 F1200 X51.929 Y109.346 E133.71055
G0 F1800 X51.463 Y109.375
G1 F1200 X37.703 Y95.615 E134.45527
G0 F1800 X37.292 Y95.699
G1 F1200 X50.996 Y109.403 E135.19696
G0 F1800 X50.529 Y109.431
G1 F1200 X36.88 Y95.782 E135.93566
G0 F1800 X36.469 Y95.866
G1 F1200 X50.062 Y109.459 E136.67134
G0 F1800 X49.595 Y109.487
G1 F1200 X36.057 Y95.949 E137.40404
G0 F1800 X35.645 Y96.032
G1 F1200 X49.14 Y109.527 E138.13442
G0 F1800 X48.702 Y109.584
G1 F1200 X35.234 Y96.116 E138.86333
G0 F1800 X34.822 Y96.199
G1 F1200 X48.264 Y109.641 E139.59084
G0 F1800 X47.827 Y109.699
G1 F1200 X34.411 Y96.283 E140.31694
G0 F1800 X33.999 Y96.366
G1 F1200 X47.389 Y109.756 E141.04163
G0 F1800 X46.951 Y109.813
G1 F1200 X33.588 Y96.45 E141.76486
G0 F1800 X33.176 Y96.532
G1 F1200 X46.513 Y109.87 E142.48671
G0 F1800 X46.075 Y109.927
G1 F1200 X32.764 Y96.616 E143.20713
G0 F1800 X32.352 Y96.699
G1 F1200 X45.638 Y109.984 E143.92616
G0 F1800 X45.2 Y110.042
G1 F1200 X31.941 Y96.783 E144.64377
G0 F1800 X31.529 Y96.866
G1 F1200 X44.762 Y110.099 E145.35996
G0 F1800 X44.324 Y110.156
G1 F1200 X31.118 Y96.949 E146.07472
G0 F1800 X30.706 Y97.033
G1 F1200 X43.887 Y110.213 E146.78807
G0 F1800 X43.449 Y110.271
G1 F1200 X30.309 Y97.131 E147.49924
G0 F1800 X29.921 Y97.237
G1 F1200 X43.011 Y110.328 E148.20772
G0 F1800 X42.574 Y110.385
G1 F1200 X29.533 Y97.345 E148.91349
G0 F1800 X29.146 Y97.452
G1 F1200 X42.136 Y110.443 E149.61656
G0 F1800 X41.698 Y110.5
G1 F1200 X28.758 Y97.559 E150.31693
G0 F1800 X28.37 Y97.667
G1 F1200 X41.285 Y110.582 E151.01591
G0 F1800 X40.874 Y110.665
G1 F1200 X27.983 Y97.774 E151.7136
G0 F1800 X27.594 Y97.881
G1 F1200 X40.462 Y110.749 E152.41004
G0 F1800 X40.051 Y110.832
G1 F1200 X27.207 Y97.988 E153.10518
G0 F1800 X26.819 Y98.096
G1 F1200 X39.639 Y110.916 E153.79902
G0 F1800 X39.228 Y110.999
G1 F1200 X26.431 Y98.202 E154.49162
G0 F1800 X26.044 Y98.31
G1 F1200 X38.816 Y111.082 E155.18286
G0 F1800 X38.405 Y111.166
G1 F1200 X25.656 Y98.417 E155.87286
G0 F1800 X25.268 Y98.524
G1 F1200 X37.993 Y111.249 E156.56156
G0 F1800 X37.582 Y111.333
G1 F1200 X24.88 Y98.632 E157.24899
G0 F1800 X24.493 Y98.739
G1 F1200 X37.17 Y111.416 E157.9351
G0 F1800 X36.758 Y111.5
G1 F1200 X24.105 Y98.846 E158.61993
G0 F1800 X23.717 Y98.953
G1 F1200 X36.346 Y111.582 E159.30343
G0 F1800 X35.935 Y111.666
G1 F1200 X23.329 Y99.06 E159.98569
G0 F1800 X22.942 Y99.168
G1 F1200 X35.523 Y111.749 E160.6666
G0 F1800 X35.112 Y111.833
G1 F1200 X22.554 Y99.275 E161.34626
G0 F1800 X22.166 Y99.382
G1 F1200 X34.7 Y111.916 E162.02463
G0 F1800 X34.289 Y112
G1 F1200 X21.797 Y99.509 E162.70069
G0 F1800 X21.431 Y99.637
G1 F1200 X33.892 Y112.098 E163.3751
G0 F1800 X33.504 Y112.205
G1 F1200 X21.066 Y99.767 E164.04827
G0 F1800 X20.7 Y99.896
G1 F1200 X33.116 Y112.312 E164.72025
G0 F1800 X32.728 Y112.419
G1 F1200 X20.334 Y100.025 E165.39103
G0 F1800 X19.968 Y100.154
G1 F1200 X32.34 Y112.526 E166.06063
G0 F1800 X31.953 Y112.634
G1 F1200 X19.603 Y100.284 E166.72903
G0 F1800 X19.237 Y100.413
G1 F1200 X31.565 Y112.741 E167.39625
G0 F1800 X31.177 Y112.848
G1 F1200 X18.871 Y100.542 E168.06227
G0 F1800 X18.505 Y100.671
G1 F1200 X30.79 Y112.956 E168.72716
G0 F1800 X30.402 Y113.062
G1 F1200 X18.14 Y100.8 E169.3908
G0 F1800 X17.774 Y100.93
G1 F1200 X30.014 Y113.17 E170.05325
G0 F1800 X29.626 Y113.277
G1 F1200 X17.408 Y101.058 E170.71454
G0 F1800 X17.042 Y101.188
G1 F1200 X29.238 Y113.384 E171.37461
G0 F1800 X28.851 Y113.492
G1 F1200 X16.677 Y101.317 E172.03352
G0 F1800 X16.311 Y101.447
G1 F1200 X28.463 Y113.598 E172.69118
G0 F1800 X28.075 Y113.706
G1 F1200 X15.945 Y101.575 E173.34771
G0 F1800 X15.579 Y101.705
G1 F1200 X27.687 Y113.813 E174.00301
G0 F1800 X27.299 Y113.92
G1 F1200 X15.214 Y101.834 E174.6571
G0 F1800 X14.848 Y101.964
