;FLAVOR:Marlin
;TIME:7157
;Filament used: 6.6962m
;Layer height: 0.263
;MINX:24.472
;MINY:26.981
;MINZ:0.306
;MAXX:93.825
;MAXY:93.03
;MAXZ:41.86
;Generated with Cura_SteamEngine master
M140 S65
M105
M190 S65
M104 S220
M105
M109 S220
M82 ;absolute extrusion mode
G90 ; set to absolute positioning - this line was added in case Cura doesn't include it by default
M82 ; set extruder to absolute mode - this line was added in case Cura doesn't include it by default (may not be needed)
G28 ; home all axes
; The lines below are to prep the nozzle before a print begins
G1 Z0.2 F1200 ; raise nozzle 0.2mm
G92 E0 ; reset extrusion distance
G1 Y-1 ; move Y-Axis (bed) 1mm to prep for purge
G1 X25 E3 F600 ; move X-carriage 50mm while purging 3mm of filament
G1 X120;
G92 E0 ; reset extrusion distance
G1 Z5;
G1 X-1 Y0;
G1 Z0;
G1 Y120;
G1 Z5;
G1 X0 Y0;
G1 Z0;
G92 E0
G92 E0
G1 F2400 E-2.5
;LAYER_COUNT:160
;LAYER:0
M107
G0 F2700 X44.22 Y45.303 Z0.306
;TYPE:SKIRT
G1 F2400 E0
G1 F900 X44.546 Y44.991 E0.02009
G1 X45.73 Y43.892 E0.09202
G1 X46.093 Y43.566 E0.11375
G1 X47.339 Y42.482 E0.18729
G1 X47.667 Y42.207 E0.20634
G1 X49.038 Y41.091 E0.28506
G1 X49.353 Y40.844 E0.30288
G1 X50.682 Y39.833 E0.37724
G1 X51.037 Y39.572 E0.39686
G1 X52.425 Y38.585 E0.47269
G1 X52.821 Y38.315 E0.49403
G1 X54.168 Y37.424 E0.56594
G1 X54.591 Y37.154 E0.58829
G1 X55.974 Y36.299 E0.66069
G1 X56.355 Y36.073 E0.68041
G1 X57.868 Y35.207 E0.75804
G1 X58.244 Y35.001 E0.77713
G1 X59.706 Y34.226 E0.85081
G1 X60.14 Y34.005 E0.87249
G1 X61.623 Y33.28 E0.946
G1 X62.066 Y33.073 E0.96777
G1 X63.565 Y32.399 E1.04095
G1 X64.049 Y32.192 E1.06439
G1 X65.494 Y31.6 E1.13392
G1 X65.959 Y31.417 E1.15617
G1 X67.566 Y30.817 E1.23255
G1 X67.95 Y30.68 E1.25071
G1 X69.589 Y30.13 E1.32769
G1 X70.021 Y29.993 E1.34787
G1 X71.575 Y29.526 E1.42012
G1 X72.047 Y29.392 E1.44196
G1 X73.668 Y28.962 E1.51664
G1 X74.116 Y28.851 E1.53719
G1 X75.728 Y28.479 E1.61085
G1 X76.205 Y28.377 E1.63257
G1 X77.808 Y28.061 E1.70532
G1 X78.298 Y27.973 E1.72749
G1 X79.911 Y27.709 E1.80027
G1 X80.422 Y27.635 E1.82326
G1 X82.026 Y27.426 E1.89528
G1 X82.558 Y27.365 E1.91913
G1 X84.14 Y27.212 E1.9899
G1 X84.693 Y27.167 E2.0146
G1 X86.249 Y27.066 E2.08403
G1 X86.773 Y27.041 E2.10739
G1 X88.423 Y26.987 E2.1809
G1 X88.767 Y26.982 E2.19622
G1 X89.496 Y26.981 E2.22868
G1 X89.842 Y27.02 E2.24418
G1 X90.171 Y27.137 E2.25973
G1 X90.464 Y27.326 E2.27526
G1 X90.707 Y27.576 E2.29078
G1 X90.886 Y27.875 E2.3063
G1 X90.993 Y28.207 E2.32183
G1 X91.023 Y28.482 E2.33415
G1 X91.035 Y29.229 E2.36741
G1 X91.035 Y55.097 E3.51924
G1 X91.025 Y55.826 E3.5517
G1 X90.98 Y56.172 E3.56724
G1 X90.858 Y56.498 E3.58274
G1 X90.665 Y56.789 E3.59828
G1 X90.411 Y57.028 E3.61381
G1 X90.09 Y57.211 E3.63027
G1 X89.128 Y57.614 E3.67671
G1 X88.382 Y57.915 E3.71253
G1 X85.815 Y59.036 E3.83725
G1 X83.272 Y60.234 E3.96242
G1 X80.801 Y61.484 E4.08572
G1 X78.351 Y62.81 E4.20977
G1 X75.964 Y64.194 E4.33263
G1 X73.557 Y65.68 E4.45858
G1 X71.259 Y67.191 E4.58104
G1 X68.948 Y68.806 E4.70658
G1 X66.745 Y70.439 E4.82869
G1 X64.532 Y72.179 E4.95404
G1 X62.382 Y73.97 E5.07863
G1 X60.327 Y75.784 E5.20069
G1 X58.269 Y77.704 E5.32601
G1 X56.287 Y79.663 E5.4501
G1 X54.371 Y81.667 E5.57355
G1 X52.5 Y83.737 E5.69779
G1 X50.679 Y85.872 E5.82274
G1 X48.958 Y88.006 E5.94481
G1 X47.258 Y90.244 E6.06995
G1 X46.522 Y91.278 E6.12646
G1 X45.783 Y92.291 E6.1823
G1 X45.547 Y92.547 E6.1978
G1 X45.073 Y92.825 E6.22227
G1 X44.845 Y92.908 E6.23307
G1 X44.342 Y93 E6.25584
G1 X43.926 Y93.005 E6.27437
G1 X39.986 Y93.003 E6.4498
G1 X38.677 Y93.022 E6.50809
G1 X37.575 Y93.03 E6.55716
G1 X26.669 Y93.03 E7.04278
G1 X25.991 Y93.02 E7.07297
G1 X25.645 Y92.975 E7.0885
G1 X25.318 Y92.853 E7.10405
G1 X25.028 Y92.659 E7.11958
G1 X24.806 Y92.428 E7.13385
G1 X24.621 Y92.132 E7.14939
G1 X24.508 Y91.802 E7.16492
G1 X24.472 Y91.473 E7.17966
G1 X24.473 Y90.648 E7.21639
G1 X24.479 Y90.357 E7.22935
G1 X24.534 Y88.725 E7.30206
G1 X24.555 Y88.298 E7.3211
G1 X24.667 Y86.613 E7.39629
G1 X24.709 Y86.112 E7.41868
G1 X24.864 Y84.559 E7.48817
G1 X24.922 Y84.054 E7.51081
G1 X25.142 Y82.406 E7.58484
G1 X25.207 Y81.968 E7.60455
G1 X25.486 Y80.3 E7.67986
G1 X25.568 Y79.858 E7.69987
G1 X25.89 Y78.251 E7.77285
G1 X25.982 Y77.827 E7.79217
G1 X26.38 Y76.133 E7.86965
G1 X26.472 Y75.775 E7.88611
G1 X26.926 Y74.094 E7.96364
G1 X27.036 Y73.714 E7.98126
G1 X27.54 Y72.067 E8.05795
G1 X27.676 Y71.649 E8.07752
G1 X28.211 Y70.087 E8.15104
G1 X28.366 Y69.658 E8.17135
G1 X28.951 Y68.118 E8.2447
G1 X29.123 Y67.688 E8.26532
G1 X29.773 Y66.129 E8.34053
G1 X29.97 Y65.683 E8.36224
G1 X30.628 Y64.244 E8.4327
G1 X30.841 Y63.795 E8.45483
G1 X31.576 Y62.318 E8.52829
G1 X31.809 Y61.871 E8.55073
G1 X32.569 Y60.46 E8.62209
G1 X32.811 Y60.028 E8.64414
G1 X33.639 Y58.607 E8.71737
G1 X33.863 Y58.237 E8.73663
G1 X34.782 Y56.772 E8.81364
G1 X35.009 Y56.424 E8.83214
G1 X35.958 Y55.013 E8.90785
G1 X36.198 Y54.67 E8.92649
G1 X37.19 Y53.298 E9.00188
G1 X37.463 Y52.934 E9.02214
G1 X38.479 Y51.624 E9.09596
G1 X38.784 Y51.243 E9.11769
G1 X39.816 Y49.996 E9.18976
G1 X40.13 Y49.631 E9.2112
G1 X41.228 Y48.387 E9.28508
G1 X41.51 Y48.08 E9.30364
G1 X42.708 Y46.81 E9.38138
G1 X42.984 Y46.528 E9.39895
G1 X43.796 Y45.723 E9.44987
G0 F810 X44.22 Y45.303
G0 F2700 X44.462 Y45.555
G1 F900 X44.784 Y45.247 E9.46971
G1 X45.964 Y44.152 E9.54138
G1 X46.323 Y43.83 E9.56286
G1 X47.564 Y42.75 E9.63611
G1 X47.887 Y42.479 E9.65488
G1 X49.255 Y41.366 E9.73341
G1 X49.565 Y41.123 E9.75095
G1 X50.89 Y40.115 E9.82508
G1 X51.239 Y39.857 E9.84441
G1 X52.623 Y38.875 E9.91997
G1 X53.014 Y38.607 E9.94107
G1 X54.357 Y37.719 E10.01276
G1 X54.775 Y37.451 E10.03487
G1 X56.153 Y36.6 E10.10699
G1 X56.529 Y36.377 E10.12645
G1 X58.06 Y35.501 E10.205
G1 X58.408 Y35.31 E10.22267
G1 X59.864 Y34.538 E10.29605
G1 X60.294 Y34.319 E10.31754
G1 X61.772 Y33.597 E10.39078
G1 X62.209 Y33.392 E10.41228
G1 X63.703 Y32.721 E10.4852
G1 X64.182 Y32.516 E10.5084
G1 X65.622 Y31.925 E10.57771
G1 X66.081 Y31.745 E10.59966
G1 X67.684 Y31.147 E10.67584
G1 X68.061 Y31.012 E10.69367
G1 X69.695 Y30.463 E10.77043
G1 X70.122 Y30.328 E10.79037
G1 X71.67 Y29.862 E10.86235
G1 X72.137 Y29.73 E10.88396
G1 X73.753 Y29.301 E10.95841
G1 X74.194 Y29.192 E10.97864
G1 X75.801 Y28.821 E11.05207
G1 X76.273 Y28.72 E11.07357
G1 X77.87 Y28.406 E11.14604
G1 X78.355 Y28.318 E11.16799
G1 X79.962 Y28.055 E11.24049
G1 X80.467 Y27.982 E11.26321
G1 X82.066 Y27.774 E11.33501
G1 X82.592 Y27.713 E11.35859
G1 X84.169 Y27.561 E11.42913
G1 X84.716 Y27.517 E11.45357
G1 X86.266 Y27.415 E11.52273
G1 X86.785 Y27.391 E11.54587
G1 X88.429 Y27.337 E11.61911
G1 X88.767 Y27.332 E11.63416
G1 X89.496 Y27.331 E11.66662
G1 X89.8 Y27.37 E11.68027
G1 X90.083 Y27.487 E11.69391
G1 X90.326 Y27.672 E11.7075
G1 X90.513 Y27.914 E11.72112
G1 X90.631 Y28.196 E11.73473
G1 X90.673 Y28.487 E11.74783
G1 X90.685 Y29.234 E11.78109
G1 X90.685 Y55.092 E12.93247
G1 X90.675 Y55.821 E12.96493
G1 X90.631 Y56.124 E12.97857
G1 X90.51 Y56.405 E12.99219
G1 X90.321 Y56.645 E13.00579
G1 X89.954 Y56.889 E13.02542
G1 X88.997 Y57.29 E13.07162
G1 X88.227 Y57.601 E13.10859
G1 X85.668 Y58.718 E13.23292
G1 X83.142 Y59.908 E13.35725
G1 X80.627 Y61.18 E13.48275
G1 X78.198 Y62.495 E13.60573
G1 X75.752 Y63.913 E13.73163
G1 X73.383 Y65.376 E13.8556
G1 X71.052 Y66.908 E13.97981
G1 X68.774 Y68.5 E14.10355
G1 X66.512 Y70.177 E14.22894
G1 X64.319 Y71.901 E14.35314
G1 X62.184 Y73.679 E14.47686
G1 X60.064 Y75.55 E14.60276
G1 X58.032 Y77.447 E14.72654
G1 X56.041 Y79.414 E14.85116
G1 X54.123 Y81.42 E14.97474
G1 X52.238 Y83.506 E15.09993
G1 X50.434 Y85.62 E15.22367
G1 X48.658 Y87.822 E15.34964
G1 X46.969 Y90.047 E15.47402
G1 X46.239 Y91.071 E15.53002
G1 X45.5 Y92.084 E15.58585
G1 X45.289 Y92.306 E15.59949
G1 X44.725 Y92.579 E15.62739
G1 X44.338 Y92.65 E15.64491
G1 X43.926 Y92.655 E15.66326
G1 X39.981 Y92.653 E15.83891
G1 X38.675 Y92.672 E15.89707
G1 X37.573 Y92.68 E15.94614
G1 X26.674 Y92.68 E16.43144
G1 X25.996 Y92.67 E16.46164
G1 X25.693 Y92.626 E16.47527
G1 X25.412 Y92.505 E16.48889
G1 X25.079 Y92.209 E16.50873
G1 X24.921 Y91.947 E16.52235
G1 X24.822 Y91.474 E16.54387
G1 X24.823 Y90.654 E16.58038
G1 X24.829 Y90.369 E16.59308
G1 X24.883 Y88.743 E16.66552
G1 X24.905 Y88.321 E16.68433
G1 X25.016 Y86.642 E16.75926
G1 X25.057 Y86.147 E16.78137
G1 X25.212 Y84.599 E16.85065
G1 X25.269 Y84.1 E16.87301
G1 X25.488 Y82.457 E16.94681
G1 X25.552 Y82.025 E16.96626
G1 X25.83 Y80.363 E17.04129
G1 X25.911 Y79.927 E17.06104
G1 X26.233 Y78.325 E17.1338
G1 X26.323 Y77.907 E17.15283
G1 X26.719 Y76.22 E17.22999
G1 X26.81 Y75.867 E17.24623
G1 X27.263 Y74.191 E17.32353
G1 X27.37 Y73.816 E17.34089
G1 X27.873 Y72.175 E17.41732
G1 X28.007 Y71.762 E17.43665
G1 X28.541 Y70.206 E17.5099
G1 X28.694 Y69.782 E17.52997
G1 X29.276 Y68.247 E17.60307
G1 X29.446 Y67.822 E17.62345
G1 X30.094 Y66.271 E17.6983
G1 X30.288 Y65.829 E17.71979
G1 X30.944 Y64.395 E17.79001
G1 X31.155 Y63.951 E17.8119
G1 X31.886 Y62.479 E17.88508
G1 X32.117 Y62.037 E17.90728
G1 X32.874 Y60.631 E17.97839
G1 X33.114 Y60.205 E18.00016
G1 X33.939 Y58.788 E18.07317
G1 X34.16 Y58.423 E18.09217
G1 X35.076 Y56.963 E18.16891
G1 X35.299 Y56.619 E18.18717
G1 X36.245 Y55.214 E18.26259
G1 X36.482 Y54.876 E18.28097
G1 X37.471 Y53.508 E18.35613
G1 X37.739 Y53.148 E18.37612
G1 X38.752 Y51.842 E18.44971
G1 X39.053 Y51.466 E18.47116
G1 X40.081 Y50.224 E18.54295
G1 X40.392 Y49.862 E18.5642
G1 X41.487 Y48.623 E18.63782
G1 X41.764 Y48.32 E18.6561
G1 X42.957 Y47.055 E18.73353
G1 X43.231 Y46.777 E18.75091
G1 X44.039 Y45.975 E18.8016
G0 F810 X44.462 Y45.555
G1 F2400 E16.3016
G0 F2700 X38.671 Y52.797
G0 X36.232 Y56.167
G0 X33.95 Y59.807
G0 X31.982 Y63.461
G0 X30.237 Y67.283
G0 X28.758 Y71.181
G0 X27.515 Y75.263
G0 X26.589 Y79.2
G0 X25.906 Y83.26
G0 X25.479 Y87.55
G0 X25.345 Y91.64
G0 X25.837 Y92.141
G0 X38.023 Y92.141
G0 X49.652 Y69.719
;TYPE:SUPPORT
G1 F2400 E18.8016
G1 F900 X49.541 Y69.944 E18.81277
G1 X48.973 Y70.961 E18.86464
G1 X47.844 Y72.826 E18.96171
G1 X47.855 Y73.277 E18.9818
G1 X47.997 Y73.486 E18.99305
G1 X47.631 Y74.41 E19.0373
G1 X47.482 Y74.828 E19.05706
G1 X47.026 Y75.932 E19.11025
G1 X46.507 Y77.305 E19.17561
G1 X45.772 Y79.447 E19.27644
G1 X45.81 Y79.868 E19.29526
G1 X45.924 Y80.071 E19.30563
G1 X45.78 Y80.639 E19.33172
G1 X45.496 Y81.955 E19.39167
G1 X45.438 Y82.323 E19.40826
G1 X45.052 Y84.114 E19.48984
G1 X44.586 Y87.387 E19.63704
G1 X44.445 Y88.821 E19.7012
G1 X44.39 Y91.305 E19.81183
G1 X38.727 Y91.303 E20.06399
G1 X38.727 Y77.284 E20.68821
G1 X49.162 Y70.058 E21.25338
G0 F810 X49.652 Y69.719
G0 F2700 X48.993 Y70.346
G1 F900 X48.993 Y70.638 E21.26638
G0 F2700 X47.983 Y72.323
G1 F900 X46.138 Y72.323 E21.34854
G0 F2700 X46.66 Y71.961
G1 F900 X46.66 Y76.505 E21.55087
G0 F2700 X46.475 Y76.989
G1 F900 X39.399 Y76.989 E21.86594
G0 F2700 X39.661 Y76.808
G1 F900 X39.661 Y91.163 E22.50512
G0 F2700 X38.866 Y90.987
G1 F900 X44.255 Y90.987 E22.74508
G0 F2700 X41.994 Y91.164
G1 F900 X41.994 Y75.192 E23.45627
G0 F2700 X42.769 Y74.656
G1 F900 X47.394 Y74.656 E23.6622
G0 F2700 X44.327 Y73.577
G1 F900 X44.327 Y88.59 E24.33069
G0 F2700 X44.319 Y88.654
G1 F900 X38.866 Y88.654 E24.57349
G0 F2700 X38.866 Y86.321
G1 F900 X44.595 Y86.321 E24.82859
G0 F2700 X44.934 Y83.988
G1 F900 X38.866 Y83.988 E25.09878
G0 F2700 X38.866 Y81.655
G1 F900 X45.416 Y81.655 E25.39043
G0 F2700 X45.665 Y79.322
G1 F900 X38.866 Y79.322 E25.69317
G1 F2400 E23.19317
;MESH:body_a.stl
G0 F2700 X37.482 Y79.322
G0 X37.002 Y76.38
;TYPE:WALL-INNER
G1 F2400 E25.69317
G1 F900 X37.002 Y90.63 E26.32768
G1 X27.052 Y90.63 E26.77072
G1 X27.051 Y90.63 E26.77077
G1 X26.874 Y90.63 E26.77865
G1 X26.876 Y90.453 E26.78374
G1 X26.877 Y90.452 E26.7838
G1 X26.891 Y89.67 E26.81863
G1 X26.991 Y87.627 E26.9097
G1 X27.16 Y85.599 E27.00032
G1 X27.397 Y83.551 E27.09212
G1 X27.695 Y81.556 E27.18193
G1 X28.066 Y79.542 E27.27312
G1 X28.5 Y77.545 E27.36412
G1 X28.996 Y75.576 E27.45453
G1 X29.561 Y73.615 E27.5454
G1 X30.19 Y71.673 E27.63629
G1 X30.883 Y69.752 E27.72722
G1 X31.642 Y67.848 E27.81849
G1 X32.462 Y65.974 E27.90957
G1 X33.336 Y64.14 E28.00003
G1 X34.285 Y62.309 E28.09186
G1 X35.28 Y60.532 E28.18255
G1 X36.343 Y58.773 E28.27406
G1 X37.449 Y57.071 E28.36444
G1 X38.615 Y55.401 E28.45513
G1 X39.841 Y53.761 E28.54631
G1 X41.127 Y52.156 E28.63788
G1 X42.458 Y50.6 E28.72906
G1 X43.824 Y49.104 E28.81926
G1 X45.266 Y47.626 E28.91121
G1 X46.756 Y46.197 E29.00313
G1 X48.268 Y44.838 E29.09365
G1 X49.848 Y43.507 E29.18564
G1 X51.444 Y42.252 E29.27605
G1 X53.11 Y41.027 E29.36812
G1 X54.792 Y39.873 E29.45895
G1 X56.534 Y38.759 E29.55102
G1 X58.285 Y37.718 E29.64173
G1 X60.088 Y36.726 E29.73336
G1 X61.917 Y35.793 E29.82478
G1 X63.766 Y34.926 E29.91571
G1 X65.671 Y34.108 E30.00803
G1 X67.594 Y33.354 E30.1
G1 X69.515 Y32.673 E30.19075
G1 X71.479 Y32.047 E30.28254
G1 X73.45 Y31.489 E30.37375
G1 X75.447 Y30.994 E30.46536
G1 X77.468 Y30.561 E30.55739
G1 X79.47 Y30.2 E30.64797
G1 X81.517 Y29.9 E30.74009
G1 X83.576 Y29.664 E30.83237
G1 X85.6 Y29.502 E30.92279
G1 X87.67 Y29.4 E31.01507
G1 X88.458 Y29.386 E31.05016
G1 X88.459 Y29.385 E31.05022
G1 X88.635 Y29.384 E31.05806
G1 X88.635 Y29.56 E31.06313
G1 X88.635 Y29.561 E31.06317
G1 X88.635 Y54.937 E32.19309
G1 X67.969 Y54.937 E33.11328
G1 X37.492 Y76.041 E34.76392
G0 F810 X37.002 Y76.38
G0 F2700 X37.352 Y76.563
G1 F900 X37.352 Y90.98 E35.40587
G1 X26.696 Y90.98 E35.88035
G1 X26.695 Y90.98 E35.88039
G1 X26.518 Y90.98 E35.88827
G1 X26.52 Y90.803 E35.89336
G1 X26.521 Y90.802 E35.89343
G1 X26.541 Y89.653 E35.94459
G1 X26.642 Y87.598 E36.03621
G1 X26.812 Y85.559 E36.12731
G1 X27.049 Y83.511 E36.21911
G1 X27.351 Y81.493 E36.30997
G1 X27.724 Y79.468 E36.40165
G1 X28.161 Y77.459 E36.4932
G1 X28.66 Y75.479 E36.58412
G1 X29.228 Y73.507 E36.6755
G1 X29.861 Y71.554 E36.76691
G1 X30.558 Y69.622 E36.85837
G1 X31.321 Y67.708 E36.95011
G1 X32.146 Y65.823 E37.04173
G1 X33.025 Y63.979 E37.13269
G1 X33.974 Y62.148 E37.22452
G1 X34.98 Y60.351 E37.31622
G1 X36.043 Y58.592 E37.40774
G1 X37.162 Y56.871 E37.49914
G1 X38.335 Y55.191 E37.59038
G1 X39.568 Y53.542 E37.68206
G1 X40.861 Y51.928 E37.77414
G1 X42.192 Y50.372 E37.86531
G1 X43.573 Y48.86 E37.9565
G1 X45.024 Y47.373 E38.04901
G1 X46.514 Y45.944 E38.14093
G1 X48.043 Y44.57 E38.23246
G1 X49.623 Y43.239 E38.32445
G1 X51.237 Y41.97 E38.41587
G1 X52.912 Y40.738 E38.50846
G1 X54.603 Y39.578 E38.59977
G1 X56.345 Y38.464 E38.69184
G1 X58.116 Y37.411 E38.78358
G1 X59.919 Y36.419 E38.87521
G1 X61.768 Y35.476 E38.96763
G1 X63.628 Y34.604 E39.0591
G1 X65.533 Y33.786 E39.15141
G1 X67.466 Y33.028 E39.24387
G1 X69.398 Y32.343 E39.33514
G1 X71.384 Y31.71 E39.42795
G1 X73.366 Y31.149 E39.51967
G1 X75.363 Y30.654 E39.61128
G1 X77.395 Y30.219 E39.70381
G1 X79.419 Y29.854 E39.79539
G1 X81.477 Y29.552 E39.88801
G1 X83.536 Y29.316 E39.98029
G1 X85.583 Y29.152 E40.07173
G1 X87.653 Y29.05 E40.16401
G1 X88.808 Y29.03 E40.21545
G1 X88.809 Y29.029 E40.21551
G1 X88.985 Y29.028 E40.22335
G1 X88.985 Y29.204 E40.22841
G1 X88.985 Y29.205 E40.22846
G1 X88.985 Y55.287 E41.38981
G1 X68.078 Y55.287 E42.32073
G1 X37.842 Y76.224 E43.95832
G0 F810 X37.352 Y76.563
G0 F2700 X37.677 Y76.733
;TYPE:WALL-OUTER
G1 F900 X37.677 Y91.305 E44.60717
G1 X26.365 Y91.305 E45.11086
G1 X26.364 Y91.305 E45.1109
G1 X26.187 Y91.305 E45.11878
G1 X26.189 Y91.128 E45.12387
G1 X26.19 Y91.127 E45.12393
G1 X26.216 Y89.637 E45.19029
G1 X26.318 Y87.571 E45.28239
G1 X26.489 Y85.522 E45.37395
G1 X26.726 Y83.474 E45.46575
G1 X27.031 Y81.434 E45.55759
G1 X27.406 Y79.399 E45.64973
G1 X27.843 Y77.39 E45.74128
G1 X28.348 Y75.389 E45.83317
G1 X28.919 Y73.407 E45.92501
G1 X29.555 Y71.444 E46.01689
G1 X30.256 Y69.502 E46.10882
G1 X31.023 Y67.578 E46.20105
G1 X31.848 Y65.693 E46.29267
G1 X32.736 Y63.829 E46.3846
G1 X33.69 Y61.989 E46.47689
G1 X34.696 Y60.192 E46.56859
G1 X35.765 Y58.424 E46.66059
G1 X36.896 Y56.685 E46.75296
G1 X38.075 Y54.996 E46.84467
G1 X39.314 Y53.339 E46.9368
G1 X40.607 Y51.725 E47.02888
G1 X41.952 Y50.153 E47.121
G1 X43.34 Y48.633 E47.21266
G1 X44.799 Y47.138 E47.30567
G1 X46.289 Y45.709 E47.3976
G1 X47.834 Y44.321 E47.49008
G1 X49.414 Y42.99 E47.58206
G1 X51.044 Y41.708 E47.6744
G1 X52.719 Y40.476 E47.76699
