;FLAVOR:Marlin
;TIME:5104
;Filament used: 4.59793m
;Layer height: 0.263
;MINX:24.472
;MINY:26.981
;MINZ:0.306
;MAXX:93.825
;MAXY:93.03
;MAXZ:41.86
;Generated with Cura_SteamEngine master
M140 S65
M105
M190 S65
M104 S220
M105
M109 S220
M82 ;absolute extrusion mode
G90 ; set to absolute positioning - this line was added in case Cura doesn't include it by default
M82 ; set extruder to absolute mode - this line was added in case Cura doesn't include it by default (may not be needed)
G28 ; home all axes
; The lines below are to prep the nozzle before a print begins
G1 Z0.2 F1200 ; raise nozzle 0.2mm
G92 E0 ; reset extrusion distance
G1 Y-1 ; move Y-Axis (bed) 1mm to prep for purge
G1 X25 E3 F600 ; move X-carriage 50mm while purging 3mm of filament
G1 X120;
G92 E0 ; reset extrusion distance
G1 Z5;
G1 X-1 Y0;
G1 Z0;
G1 Y120;
G1 Z5;
G1 X0 Y0;
G1 Z0;
G92 E0
G92 E0
G1 F2400 E-2.5
;LAYER_COUNT:160
;LAYER:0
M107
G0 F2700 X44.22 Y45.303 Z0.306
;TYPE:SKIRT
G1 F2400 E0
G1 F900 X44.546 Y44.991 E0.02009
G1 X45.73 Y43.892 E0.09202
G1 X46.093 Y43.566 E0.11375
G1 X47.339 Y42.482 E0.18729
G1 X47.667 Y42.207 E0.20634
G1 X49.038 Y41.091 E0.28506
G1 X49.353 Y40.844 E0.30288
G1 X50.682 Y39.833 E0.37724
G1 X51.037 Y39.572 E0.39686
G1 X52.425 Y38.585 E0.47269
G1 X52.821 Y38.315 E0.49403
G1 X54.168 Y37.424 E0.56594
G1 X54.591 Y37.154 E0.58829
G1 X55.974 Y36.299 E0.66069
G1 X56.355 Y36.073 E0.68041
G1 X57.868 Y35.207 E0.75804
G1 X58.244 Y35.001 E0.77713
G1 X59.706 Y34.226 E0.85081
G1 X60.14 Y34.005 E0.87249
G1 X61.623 Y33.28 E0.946
G1 X62.066 Y33.073 E0.96777
G1 X63.565 Y32.399 E1.04095
G1 X64.049 Y32.192 E1.06439
G1 X65.494 Y31.6 E1.13392
G1 X65.959 Y31.417 E1.15617
G1 X67.566 Y30.817 E1.23255
G1 X67.95 Y30.68 E1.25071
G1 X69.589 Y30.13 E1.32769
G1 X70.021 Y29.993 E1.34787
G1 X71.575 Y29.526 E1.42012
G1 X72.047 Y29.392 E1.44196
G1 X73.668 Y28.962 E1.51664
G1 X74.116 Y28.851 E1.53719
G1 X75.728 Y28.479 E1.61085
G1 X76.205 Y28.377 E1.63257
G1 X77.808 Y28.061 E1.70532
G1 X78.298 Y27.973 E1.72749
G1 X79.911 Y27.709 E1.80027
G1 X80.422 Y27.635 E1.82326
G1 X82.026 Y27.426 E1.89528
G1 X82.558 Y27.365 E1.91913
G1 X84.14 Y27.212 E1.9899
G1 X84.693 Y27.167 E2.0146
G1 X86.249 Y27.066 E2.08403
G1 X86.773 Y27.041 E2.10739
G1 X88.423 Y26.987 E2.1809
G1 X88.767 Y26.982 E2.19622
G1 X89.496 Y26.981 E2.22868
G1 X89.842 Y27.02 E2.24418
G1 X90.171 Y27.137 E2.25973
G1 X90.464 Y27.326 E2.27526
G1 X90.707 Y27.576 E2.29078
G1 X90.886 Y27.875 E2.3063
G1 X90.993 Y28.207 E2.32183
G1 X91.023 Y28.482 E2.33415
G1 X91.035 Y29.229 E2.36741
G1 X91.035 Y55.097 E3.51924
G1 X91.025 Y55.825 E3.55166
G1 X90.98 Y56.171 E3.56719
G1 X90.858 Y56.497 E3.58269
G1 X90.665 Y56.788 E3.59824
G1 X90.411 Y57.027 E3.61377
G1 X89.968 Y57.255 E3.63595
G1 X89.733 Y57.331 E3.64695
G1 X87.496 Y58.017 E3.75114
G1 X84.817 Y58.923 E3.87706
G1 X82.238 Y59.877 E3.9995
G1 X79.633 Y60.925 E4.12453
G1 X77.075 Y62.039 E4.24876
G1 X74.566 Y63.218 E4.3722
G1 X72.099 Y64.463 E4.49524
G1 X69.61 Y65.808 E4.62122
G1 X67.23 Y67.183 E4.74361
G1 X64.843 Y68.654 E4.86845
G1 X62.535 Y70.167 E4.99134
G1 X60.216 Y71.785 E5.11724
G1 X57.991 Y73.431 E5.24048
G1 X55.785 Y75.162 E5.36534
G1 X53.665 Y76.926 E5.48814
G1 X51.572 Y78.769 E5.61231
G1 X49.548 Y80.654 E5.73547
G1 X47.535 Y82.64 E5.86138
G1 X45.625 Y84.634 E5.98433
G1 X43.753 Y86.701 E6.1085
G1 X41.95 Y88.811 E6.23208
G1 X40.181 Y91.002 E6.35747
G1 X39.744 Y91.578 E6.38966
G1 X39.069 Y92.438 E6.43834
G1 X38.823 Y92.685 E6.45386
G1 X38.528 Y92.871 E6.46939
G1 X38.199 Y92.985 E6.4849
G1 X37.59 Y93.029 E6.51208
G1 X26.671 Y93.03 E6.99827
G1 X25.977 Y93.021 E7.02918
G1 X25.631 Y92.977 E7.04471
G1 X25.305 Y92.855 E7.06021
G1 X25.014 Y92.662 E7.07576
G1 X24.775 Y92.408 E7.09129
G1 X24.6 Y92.107 E7.10679
G1 X24.497 Y91.773 E7.12235
G1 X24.472 Y91.494 E7.13482
G1 X24.473 Y90.653 E7.17227
G1 X24.478 Y90.406 E7.18327
G1 X24.534 Y88.725 E7.25816
G1 X24.555 Y88.298 E7.2772
G1 X24.667 Y86.613 E7.35239
G1 X24.709 Y86.112 E7.37478
G1 X24.864 Y84.559 E7.44427
G1 X24.922 Y84.054 E7.46691
G1 X25.142 Y82.406 E7.54094
G1 X25.207 Y81.968 E7.56066
G1 X25.486 Y80.3 E7.63596
G1 X25.568 Y79.858 E7.65598
G1 X25.89 Y78.251 E7.72895
G1 X25.982 Y77.827 E7.74827
G1 X26.38 Y76.133 E7.82575
G1 X26.472 Y75.775 E7.84221
G1 X26.926 Y74.094 E7.91974
G1 X27.036 Y73.714 E7.93736
G1 X27.54 Y72.067 E8.01405
G1 X27.676 Y71.649 E8.03362
G1 X28.211 Y70.087 E8.10714
G1 X28.366 Y69.658 E8.12745
G1 X28.951 Y68.118 E8.20081
G1 X29.123 Y67.688 E8.22143
G1 X29.773 Y66.129 E8.29664
G1 X29.97 Y65.683 E8.31835
G1 X30.628 Y64.244 E8.3888
G1 X30.845 Y63.787 E8.41133
G1 X31.576 Y62.318 E8.48439
G1 X31.809 Y61.871 E8.50683
G1 X32.569 Y60.46 E8.5782
G1 X32.811 Y60.028 E8.60024
G1 X33.639 Y58.607 E8.67348
G1 X33.863 Y58.237 E8.69273
G1 X34.782 Y56.772 E8.76974
G1 X35.009 Y56.424 E8.78824
G1 X35.958 Y55.013 E8.86395
G1 X36.198 Y54.67 E8.8826
G1 X37.19 Y53.298 E8.95798
G1 X37.463 Y52.934 E8.97824
G1 X38.479 Y51.624 E9.05206
G1 X38.784 Y51.243 E9.07379
G1 X39.816 Y49.996 E9.14586
G1 X40.13 Y49.631 E9.1673
G1 X41.228 Y48.387 E9.24118
G1 X41.51 Y48.08 E9.25975
G1 X42.708 Y46.81 E9.33749
G1 X42.984 Y46.528 E9.35506
G1 X43.796 Y45.723 E9.40597
G0 F810 X44.22 Y45.303
G0 F2700 X44.462 Y45.555
G1 F900 X44.784 Y45.247 E9.42581
G1 X45.964 Y44.152 E9.49749
G1 X46.323 Y43.83 E9.51896
G1 X47.564 Y42.75 E9.59221
G1 X47.887 Y42.479 E9.61099
G1 X49.255 Y41.366 E9.68951
G1 X49.565 Y41.123 E9.70705
G1 X50.89 Y40.115 E9.78118
G1 X51.239 Y39.857 E9.80051
G1 X52.623 Y38.875 E9.87607
G1 X53.014 Y38.607 E9.89718
G1 X54.357 Y37.719 E9.96887
G1 X54.775 Y37.451 E9.99098
G1 X56.153 Y36.6 E10.06309
G1 X56.529 Y36.377 E10.08256
G1 X58.06 Y35.501 E10.1611
G1 X58.408 Y35.31 E10.17877
G1 X59.864 Y34.538 E10.25215
G1 X60.294 Y34.319 E10.27364
G1 X61.772 Y33.597 E10.34689
G1 X62.209 Y33.392 E10.36838
G1 X63.703 Y32.721 E10.4413
G1 X64.182 Y32.516 E10.4645
G1 X65.622 Y31.925 E10.53381
G1 X66.081 Y31.745 E10.55576
G1 X67.684 Y31.147 E10.63195
G1 X68.061 Y31.012 E10.64978
G1 X69.695 Y30.463 E10.72653
G1 X70.122 Y30.328 E10.74647
G1 X71.67 Y29.862 E10.81845
G1 X72.137 Y29.73 E10.84006
G1 X73.753 Y29.301 E10.91451
G1 X74.194 Y29.192 E10.93474
G1 X75.801 Y28.821 E11.00818
G1 X76.273 Y28.72 E11.02967
G1 X77.87 Y28.406 E11.10214
G1 X78.355 Y28.318 E11.12409
G1 X79.962 Y28.055 E11.19659
G1 X80.467 Y27.982 E11.21931
G1 X82.066 Y27.774 E11.29111
G1 X82.592 Y27.713 E11.31469
G1 X84.169 Y27.561 E11.38524
G1 X84.716 Y27.517 E11.40967
G1 X86.266 Y27.415 E11.47884
G1 X86.785 Y27.391 E11.50197
G1 X88.429 Y27.337 E11.57521
G1 X88.767 Y27.332 E11.59026
G1 X89.496 Y27.331 E11.62272
G1 X89.8 Y27.37 E11.63637
G1 X90.083 Y27.487 E11.65001
G1 X90.326 Y27.672 E11.66361
G1 X90.513 Y27.914 E11.67722
G1 X90.631 Y28.196 E11.69084
G1 X90.673 Y28.487 E11.70393
G1 X90.685 Y29.234 E11.73719
G1 X90.685 Y55.092 E12.88857
G1 X90.675 Y55.82 E12.92099
G1 X90.631 Y56.123 E12.93462
G1 X90.51 Y56.404 E12.94825
G1 X90.321 Y56.645 E12.96188
G1 X90.076 Y56.828 E12.9755
G1 X89.631 Y56.996 E12.99668
G1 X87.367 Y57.69 E13.10212
G1 X84.73 Y58.582 E13.22607
G1 X82.098 Y59.556 E13.35104
G1 X79.49 Y60.605 E13.4762
G1 X76.957 Y61.709 E13.59924
G1 X74.398 Y62.911 E13.72513
G1 X71.933 Y64.155 E13.84807
G1 X69.444 Y65.5 E13.97404
G1 X67.034 Y66.892 E14.09797
G1 X64.672 Y68.348 E14.22152
G1 X62.319 Y69.891 E14.34681
G1 X60.042 Y71.479 E14.47042
G1 X57.768 Y73.161 E14.59636
G1 X55.582 Y74.876 E14.72008
G1 X53.445 Y76.654 E14.84386
G1 X51.324 Y78.522 E14.96971
G1 X49.278 Y80.428 E15.09421
G1 X47.313 Y82.367 E15.21714
G1 X45.356 Y84.41 E15.34311
G1 X43.48 Y86.482 E15.46756
G1 X41.677 Y88.591 E15.59111
G1 X39.908 Y90.782 E15.7165
G1 X39.468 Y91.361 E15.74888
G1 X38.793 Y92.221 E15.79756
G1 X38.575 Y92.435 E15.81116
G1 X38.308 Y92.586 E15.82482
G1 X37.902 Y92.671 E15.84329
G1 X37.58 Y92.68 E15.85763
G1 X26.676 Y92.68 E16.34316
G1 X25.982 Y92.671 E16.37406
G1 X25.679 Y92.627 E16.38769
G1 X25.398 Y92.507 E16.4013
G1 X25.157 Y92.318 E16.41494
G1 X24.973 Y92.073 E16.42858
G1 X24.859 Y91.789 E16.4422
G1 X24.822 Y91.495 E16.4554
G1 X24.823 Y90.659 E16.49262
G1 X24.828 Y90.418 E16.50336
G1 X24.883 Y88.743 E16.57798
G1 X24.905 Y88.321 E16.5968
G1 X25.016 Y86.642 E16.67172
G1 X25.057 Y86.147 E16.69384
G1 X25.212 Y84.599 E16.76311
G1 X25.269 Y84.1 E16.78547
G1 X25.488 Y82.457 E16.85928
G1 X25.552 Y82.025 E16.87872
G1 X25.83 Y80.363 E16.95375
G1 X25.911 Y79.927 E16.9735
G1 X26.233 Y78.325 E17.04626
G1 X26.323 Y77.907 E17.0653
G1 X26.719 Y76.22 E17.14246
G1 X26.81 Y75.867 E17.15869
G1 X27.263 Y74.191 E17.23599
G1 X27.37 Y73.816 E17.25336
G1 X27.873 Y72.175 E17.32978
G1 X28.007 Y71.762 E17.34912
G1 X28.541 Y70.206 E17.42237
G1 X28.694 Y69.782 E17.44244
G1 X29.276 Y68.247 E17.51553
G1 X29.446 Y67.822 E17.53592
G1 X30.094 Y66.271 E17.61076
G1 X30.288 Y65.829 E17.63226
G1 X30.944 Y64.394 E17.70251
G1 X31.159 Y63.943 E17.72476
G1 X31.886 Y62.479 E17.79754
G1 X32.117 Y62.037 E17.81975
G1 X32.874 Y60.631 E17.89085
G1 X33.114 Y60.205 E17.91262
G1 X33.939 Y58.788 E17.98563
G1 X34.16 Y58.423 E18.00463
G1 X35.076 Y56.963 E18.08138
G1 X35.299 Y56.619 E18.09963
G1 X36.245 Y55.214 E18.17505
G1 X36.482 Y54.876 E18.19343
G1 X37.471 Y53.508 E18.2686
G1 X37.739 Y53.148 E18.28858
G1 X38.752 Y51.842 E18.36217
G1 X39.053 Y51.466 E18.38362
G1 X40.081 Y50.224 E18.45541
G1 X40.392 Y49.862 E18.47666
G1 X41.487 Y48.623 E18.55029
G1 X41.764 Y48.32 E18.56857
G1 X42.957 Y47.055 E18.64599
G1 X43.231 Y46.777 E18.66337
G1 X44.039 Y45.975 E18.71406
G0 F810 X44.462 Y45.555
G1 F2400 E16.21406
;MESH:body_a.stl
G0 F2700 X42.744 Y48.042
G0 X43.479 Y48.768
G0 X37.568 Y57.155
G0 X35.404 Y60.608
G0 X33.468 Y64.203
G0 X32.607 Y66.021
G0 X31.018 Y69.807
G0 X29.699 Y73.661
G0 X28.643 Y77.575
G0 X27.838 Y81.584
G0 X27.305 Y85.617
G0 X27.037 Y89.678
G0 X27.034 Y90.473
G0 X36.845 Y90.473
G0 X37.002 Y76.38
;TYPE:WALL-INNER
G1 F2400 E18.71406
G1 F900 X37.002 Y90.63 E19.34857
G1 X27.052 Y90.63 E19.79162
G1 X27.051 Y90.63 E19.79166
G1 X26.874 Y90.63 E19.79954
G1 X26.876 Y90.453 E19.80463
G1 X26.877 Y90.452 E19.80469
G1 X26.891 Y89.67 E19.83952
G1 X26.991 Y87.627 E19.93059
G1 X27.16 Y85.599 E20.02121
G1 X27.397 Y83.551 E20.11301
G1 X27.695 Y81.556 E20.20283
G1 X28.066 Y79.542 E20.29401
G1 X28.5 Y77.545 E20.38501
G1 X28.996 Y75.576 E20.47542
G1 X29.561 Y73.615 E20.56629
G1 X30.19 Y71.673 E20.65718
G1 X30.883 Y69.752 E20.74812
G1 X31.642 Y67.848 E20.83938
G1 X32.462 Y65.974 E20.93047
G1 X33.336 Y64.14 E21.02093
G1 X34.285 Y62.309 E21.11276
G1 X35.28 Y60.532 E21.20344
G1 X36.343 Y58.773 E21.29495
G1 X37.449 Y57.071 E21.38533
G1 X38.615 Y55.401 E21.47603
G1 X39.841 Y53.761 E21.5672
G1 X41.127 Y52.156 E21.65878
G1 X42.458 Y50.6 E21.74995
G1 X43.824 Y49.104 E21.84015
G1 X45.266 Y47.626 E21.9321
G1 X46.756 Y46.197 E22.02402
G1 X48.268 Y44.838 E22.11455
G1 X49.848 Y43.507 E22.20653
G1 X51.444 Y42.252 E22.29694
G1 X53.11 Y41.027 E22.38902
G1 X54.792 Y39.873 E22.47984
G1 X56.534 Y38.759 E22.57191
G1 X58.285 Y37.718 E22.66262
G1 X60.088 Y36.726 E22.75425
G1 X61.917 Y35.793 E22.84567
G1 X63.766 Y34.926 E22.93661
G1 X65.671 Y34.108 E23.02892
G1 X67.594 Y33.354 E23.12089
G1 X69.515 Y32.673 E23.21164
G1 X71.479 Y32.047 E23.30343
G1 X73.45 Y31.489 E23.39464
G1 X75.447 Y30.994 E23.48625
G1 X77.468 Y30.561 E23.57828
G1 X79.47 Y30.2 E23.66886
G1 X81.517 Y29.9 E23.76099
G1 X83.576 Y29.664 E23.85327
G1 X85.6 Y29.502 E23.94368
G1 X87.67 Y29.4 E24.03596
G1 X88.458 Y29.386 E24.07105
G1 X88.459 Y29.385 E24.07112
G1 X88.635 Y29.384 E24.07895
G1 X88.635 Y29.56 E24.08402
G1 X88.635 Y29.561 E24.08406
G1 X88.635 Y54.937 E25.21398
G1 X67.969 Y54.937 E26.13417
G1 X37.492 Y76.041 E27.78482
G0 F810 X37.002 Y76.38
G0 F2700 X37.352 Y76.563
G1 F900 X37.352 Y90.98 E28.42676
G1 X26.696 Y90.98 E28.90124
G1 X26.695 Y90.98 E28.90129
G1 X26.518 Y90.98 E28.90917
G1 X26.52 Y90.803 E28.91425
G1 X26.521 Y90.802 E28.91432
G1 X26.541 Y89.653 E28.96549
G1 X26.642 Y87.598 E29.0571
G1 X26.812 Y85.559 E29.14821
G1 X27.049 Y83.511 E29.24001
G1 X27.351 Y81.493 E29.33086
G1 X27.724 Y79.468 E29.42255
G1 X28.161 Y77.459 E29.51409
G1 X28.66 Y75.479 E29.60501
G1 X29.228 Y73.507 E29.69639
G1 X29.861 Y71.554 E29.7878
G1 X30.558 Y69.622 E29.87926
G1 X31.321 Y67.708 E29.971
G1 X32.146 Y65.823 E30.06263
G1 X33.025 Y63.979 E30.15358
G1 X33.974 Y62.148 E30.24541
G1 X34.98 Y60.351 E30.33711
G1 X36.043 Y58.592 E30.42863
G1 X37.162 Y56.871 E30.52003
G1 X38.335 Y55.191 E30.61127
G1 X39.568 Y53.542 E30.70295
G1 X40.861 Y51.928 E30.79503
G1 X42.192 Y50.372 E30.88621
G1 X43.573 Y48.86 E30.97739
G1 X45.024 Y47.373 E31.0699
G1 X46.514 Y45.944 E31.16182
G1 X48.043 Y44.57 E31.25336
G1 X49.623 Y43.239 E31.34534
G1 X51.237 Y41.97 E31.43676
G1 X52.912 Y40.738 E31.52935
G1 X54.603 Y39.578 E31.62066
G1 X56.345 Y38.464 E31.71273
G1 X58.116 Y37.411 E31.80447
G1 X59.919 Y36.419 E31.8961
G1 X61.768 Y35.476 E31.98852
G1 X63.628 Y34.604 E32.07999
G1 X65.533 Y33.786 E32.17231
G1 X67.466 Y33.028 E32.26476
G1 X69.398 Y32.343 E32.35603
G1 X71.384 Y31.71 E32.44884
G1 X73.366 Y31.149 E32.54056
G1 X75.363 Y30.654 E32.63218
G1 X77.395 Y30.219 E32.7247
G1 X79.419 Y29.854 E32.81628
G1 X81.477 Y29.552 E32.9089
G1 X83.536 Y29.316 E33.00118
G1 X85.583 Y29.152 E33.09262
G1 X87.653 Y29.05 E33.1849
G1 X88.808 Y29.03 E33.23634
G1 X88.809 Y29.029 E33.2364
G1 X88.985 Y29.028 E33.24424
G1 X88.985 Y29.204 E33.2493
G1 X88.985 Y29.205 E33.24935
G1 X88.985 Y55.287 E34.4107
G1 X68.078 Y55.287 E35.34163
G1 X37.842 Y76.224 E36.97921
G0 F810 X37.352 Y76.563
G0 F2700 X37.677 Y76.733
;TYPE:WALL-OUTER
G1 F900 X37.677 Y91.305 E37.62806
G1 X26.365 Y91.305 E38.13175
G1 X26.364 Y91.305 E38.13179
G1 X26.187 Y91.305 E38.13968
G1 X26.189 Y91.128 E38.14476
G1 X26.19 Y91.127 E38.14483
G1 X26.216 Y89.637 E38.21118
G1 X26.318 Y87.571 E38.30329
G1 X26.489 Y85.522 E38.39484
G1 X26.726 Y83.474 E38.48664
G1 X27.031 Y81.434 E38.57848
G1 X27.406 Y79.399 E38.67062
G1 X27.843 Y77.39 E38.76217
G1 X28.348 Y75.389 E38.85406
G1 X28.919 Y73.407 E38.9459
G1 X29.555 Y71.444 E39.03778
G1 X30.256 Y69.502 E39.12971
G1 X31.023 Y67.578 E39.22194
G1 X31.848 Y65.693 E39.31356
G1 X32.736 Y63.829 E39.4055
G1 X33.69 Y61.989 E39.49778
G1 X34.696 Y60.192 E39.58948
G1 X35.765 Y58.424 E39.68148
G1 X36.896 Y56.685 E39.77385
G1 X38.075 Y54.996 E39.86556
G1 X39.314 Y53.339 E39.95769
G1 X40.607 Y51.725 E40.04977
G1 X41.952 Y50.153 E40.1419
G1 X43.34 Y48.633 E40.23355
G1 X44.799 Y47.138 E40.32656
G1 X46.289 Y45.709 E40.41849
G1 X47.834 Y44.321 E40.51097
G1 X49.414 Y42.99 E40.60296
G1 X51.044 Y41.708 E40.69529
G1 X52.719 Y40.476 E40.78788
G1 X54.428 Y39.304 E40.88015
G1 X56.17 Y38.19 E40.97222
G1 X57.959 Y37.126 E41.0649
G1 X59.771 Y36.129 E41.15699
G1 X61.62 Y35.187 E41.24939
G1 X63.5 Y34.305 E41.34186
G1 X65.414 Y33.483 E41.43461
G1 X67.347 Y32.725 E41.52706
G1 X69.299 Y32.033 E41.61928
G1 X71.285 Y31.4 E41.71209
G1 X73.278 Y30.836 E41.80432
G1 X75.295 Y30.336 E41.89685
G1 X77.333 Y29.9 E41.98965
G1 X79.372 Y29.532 E42.08191
G1 X81.43 Y29.23 E42.17452
G1 X83.502 Y28.993 E42.26739
G1 X85.567 Y28.827 E42.35963
G1 X87.637 Y28.725 E42.45191
G1 X89.133 Y28.7 E42.51853
G1 X89.134 Y28.699 E42.5186
G1 X89.31 Y28.698 E42.52643
G1 X89.31 Y28.874 E42.5315
G1 X89.31 Y28.875 E42.53154
G1 X89.31 Y55.612 E43.72206
G1 X68.18 Y55.612 E44.66292
G1 X38.167 Y76.394 E46.28841
G0 F810 X37.677 Y76.733
G0 F2700 X37.677 Y76.933
G0 X37.402 Y76.933
G0 X36.905 Y76.329
G0 X36.662 Y76.202
;TYPE:SKIN
G1 F900 X36.662 Y90.29 E46.91571
G1 X27.22 Y90.29 E47.33613
G1 X27.231 Y89.687 E47.36299
G1 X27.331 Y87.644 E47.45406
G1 X27.498 Y85.638 E47.54369
G1 X27.733 Y83.601 E47.635
G1 X28.029 Y81.618 E47.72427
G1 X28.398 Y79.614 E47.815
G1 X28.83 Y77.628 E47.9055
G1 X29.33 Y75.642 E47.99669
G1 X29.886 Y73.715 E48.086
G1 X30.501 Y71.813 E48.175
G1 X31.199 Y69.878 E48.2666
G1 X31.965 Y67.955 E48.35877
G1 X32.769 Y66.12 E48.44797
G1 X33.64 Y64.292 E48.53814
G1 X34.582 Y62.475 E48.62927
G1 X35.574 Y60.704 E48.71965
G1 X36.631 Y58.954 E48.81069
G1 X37.731 Y57.26 E48.90062
G1 X38.887 Y55.605 E48.99051
G1 X40.107 Y53.973 E49.08124
G1 X41.389 Y52.373 E49.17253
G1 X42.713 Y50.825 E49.26323
G1 X44.067 Y49.341 E49.35268
G1 X45.501 Y47.871 E49.44412
