;FLAVOR:Marlin
;TIME:6218
;Filament used: 4.47772m
;Layer height: 0.263
;MINX:22.566
;MINY:15.368
;MINZ:0.306
;MAXX:97.443
;MAXY:107.025
;MAXZ:5.566
;Generated with Cura_SteamEngine master
M140 S65
M105
M190 S65
M104 S220
M105
M109 S220
M82 ;absolute extrusion mode
G90 ; set to absolute positioning - this line was added in case Cura doesn't include it by default
M82 ; set extruder to absolute mode - this line was added in case Cura doesn't include it by default (may not be needed)
G28 ; home all axes
; The lines below are to prep the nozzle before a print begins
G1 Z0.2 F1200 ; raise nozzle 0.2mm
G92 E0 ; reset extrusion distance
G1 Y-1 ; move Y-Axis (bed) 1mm to prep for purge
G1 X25 E3 F600 ; move X-carriage 50mm while purging 3mm of filament
G1 X120;
G92 E0 ; reset extrusion distance
G1 Z5;
G1 X-1 Y0;
G1 Z0;
G1 Y120;
G1 Z5;
G1 X0 Y0;
G1 Z0;
G92 E0
G92 E0
G1 F2400 E-2.5
;LAYER_COUNT:21
;LAYER:0
M107
G0 F2700 X23.864 Y15.807 Z0.306
;TYPE:SKIRT
G1 F2400 E0
G1 F900 X24.084 Y15.595 E0.0136
G1 X24.352 Y15.447 E0.02724
G1 X24.649 Y15.373 E0.04086
G1 X24.872 Y15.369 E0.0508
G1 X25.642 Y15.429 E0.08519
G1 X26.808 Y15.54 E0.13734
G1 X29.574 Y15.725 E0.26078
G1 X32.367 Y15.832 E0.38523
G1 X35.163 Y15.86 E0.50973
G1 X37.961 Y15.808 E0.63434
G1 X40.754 Y15.679 E0.75884
G1 X43.63 Y15.462 E0.88726
G1 X44.672 Y15.369 E0.93384
G1 X44.87 Y15.368 E0.94266
G1 X45.642 Y15.429 E0.97714
G1 X46.808 Y15.54 E1.0293
G1 X49.572 Y15.725 E1.15264
G1 X52.367 Y15.832 E1.27719
G1 X55.163 Y15.86 E1.40169
G1 X57.961 Y15.808 E1.5263
G1 X60.754 Y15.679 E1.6508
G1 X63.631 Y15.462 E1.77926
G1 X64.672 Y15.369 E1.8258
G1 X64.87 Y15.368 E1.83462
G1 X65.642 Y15.429 E1.8691
G1 X66.808 Y15.54 E1.92125
G1 X69.574 Y15.725 E2.04469
G1 X72.366 Y15.832 E2.1691
G1 X75.163 Y15.86 E2.29365
G1 X77.961 Y15.808 E2.41826
G1 X80.754 Y15.679 E2.54275
G1 X83.631 Y15.462 E2.67122
G1 X84.643 Y15.371 E2.71647
G1 X84.912 Y15.377 E2.72845
G1 X85.818 Y15.504 E2.76918
G1 X95.806 Y17.086 E3.21946
G1 X96.47 Y17.202 E3.24948
G1 X96.762 Y17.293 E3.26309
G1 X97.021 Y17.457 E3.27674
G1 X97.228 Y17.682 E3.29036
G1 X97.37 Y17.952 E3.30394
G1 X97.438 Y18.251 E3.31759
G1 X97.437 Y18.478 E3.3277
G1 X97.3 Y19.831 E3.38826
G1 X97.3 Y19.894 E3.39106
G1 X97.218 Y20.649 E3.42488
G1 X96.995 Y23.435 E3.54933
G1 X96.854 Y26.193 E3.67229
G1 X96.788 Y29.021 E3.79825
G1 X96.802 Y31.812 E3.92252
G1 X96.895 Y34.577 E4.04571
G1 X97.069 Y37.397 E4.17152
G1 X97.317 Y40.154 E4.29477
G1 X97.398 Y40.858 E4.32633
G1 X97.443 Y41.411 E4.35103
G1 X97.437 Y41.672 E4.36266
G1 X97.362 Y44.01 E4.46681
G1 X97.351 Y46.804 E4.59122
G1 X97.428 Y49.818 E4.72547
G1 X97.436 Y50.372 E4.75014
G1 X97.3 Y51.717 E4.81034
G1 X97.3 Y51.781 E4.81319
G1 X97.218 Y52.536 E4.847
G1 X96.995 Y55.322 E4.97145
G1 X96.854 Y58.08 E5.09442
G1 X96.788 Y60.908 E5.22037
G1 X96.802 Y63.699 E5.34465
G1 X96.895 Y66.464 E5.46784
G1 X97.069 Y69.284 E5.59364
G1 X97.317 Y72.041 E5.7169
G1 X97.398 Y72.745 E5.74845
G1 X97.443 Y73.295 E5.77302
G1 X97.429 Y74.045 E5.80642
G1 X97.387 Y75.347 E5.86443
G1 X97.375 Y78.141 E5.98884
G1 X97.44 Y80.699 E6.10277
G1 X97.436 Y81.137 E6.12228
G1 X97.3 Y82.482 E6.18247
G1 X97.3 Y82.546 E6.18532
G1 X97.218 Y83.301 E6.21914
G1 X96.995 Y86.087 E6.34359
G1 X96.854 Y88.845 E6.46655
G1 X96.788 Y91.673 E6.59251
G1 X96.802 Y94.464 E6.71679
G1 X96.895 Y97.229 E6.83997
G1 X97.069 Y100.049 E6.96578
G1 X97.32 Y102.83 E7.09011
G1 X97.4 Y103.53 E7.12148
G1 X97.426 Y104.229 E7.15263
G1 X97.336 Y104.521 E7.16623
G1 X97.174 Y104.78 E7.17984
G1 X96.95 Y104.989 E7.19348
G1 X96.502 Y105.184 E7.21523
G1 X95.882 Y105.294 E7.24327
G1 X85.653 Y106.915 E7.70442
G1 X84.939 Y107.017 E7.73654
G1 X84.675 Y107.025 E7.7483
G1 X83.569 Y106.933 E7.79771
G1 X83.097 Y106.886 E7.81884
G1 X80.311 Y106.691 E7.94319
G1 X77.516 Y106.574 E8.06775
G1 X74.718 Y106.536 E8.19235
G1 X71.924 Y106.578 E8.31677
G1 X69.13 Y106.698 E8.4413
G1 X66.252 Y106.906 E8.56978
G1 X64.879 Y107.025 E8.63114
G1 X64.682 Y107.025 E8.63992
G1 X63.569 Y106.933 E8.68964
G1 X63.097 Y106.886 E8.71076
G1 X60.311 Y106.691 E8.83512
G1 X57.516 Y106.574 E8.95968
G1 X54.718 Y106.536 E9.08428
G1 X51.923 Y106.578 E9.20875
G1 X49.13 Y106.698 E9.33323
G1 X46.252 Y106.906 E9.46171
G1 X44.879 Y107.025 E9.52307
G1 X44.682 Y107.025 E9.53185
G1 X43.569 Y106.933 E9.58157
G1 X43.097 Y106.886 E9.60269
G1 X40.311 Y106.691 E9.72705
G1 X37.516 Y106.574 E9.85161
G1 X34.718 Y106.536 E9.97621
G1 X31.923 Y106.578 E10.10068
G1 X29.13 Y106.698 E10.22515
G1 X26.251 Y106.906 E10.35368
G1 X24.885 Y107.023 E10.41473
G1 X24.58 Y107.009 E10.42832
G1 X24.288 Y106.917 E10.44196
G1 X24.03 Y106.752 E10.45559
G1 X23.823 Y106.527 E10.46921
G1 X23.682 Y106.256 E10.48281
G1 X23.624 Y106.033 E10.49307
G1 X23.49 Y105.172 E10.53187
G1 X23.277 Y103.629 E10.60122
G1 X23.047 Y101.677 E10.68874
G1 X22.909 Y100.274 E10.75151
G1 X22.755 Y98.313 E10.8391
G1 X22.673 Y96.908 E10.90177
G1 X22.594 Y94.908 E10.99089
G1 X22.566 Y93.51 E11.05315
G1 X22.566 Y91.535 E11.14109
G1 X22.595 Y90.109 E11.2046
G1 X22.673 Y88.12 E11.29323
G1 X22.756 Y86.726 E11.35542
G1 X22.898 Y84.91 E11.43652
G1 X23.08 Y82.088 E11.56244
G1 X23.18 Y79.32 E11.68577
G1 X23.202 Y76.533 E11.80987
G1 X23.145 Y73.738 E11.93435
G1 X23.007 Y70.913 E12.06029
G1 X22.899 Y69.377 E12.12885
G1 X22.754 Y67.532 E12.21126
G1 X22.672 Y66.137 E12.27348
G1 X22.594 Y64.148 E12.36211
G1 X22.566 Y62.745 E12.4246
G1 X22.566 Y60.771 E12.51249
G1 X22.595 Y59.343 E12.57609
G1 X22.673 Y57.356 E12.66463
G1 X22.757 Y55.943 E12.72766
G1 X22.942 Y53.58 E12.8332
G1 X23.124 Y50.757 E12.95916
G1 X23.224 Y47.99 E13.08245
G1 X23.246 Y45.202 E13.20659
G1 X23.189 Y42.408 E13.33103
G1 X23.051 Y39.583 E13.45697
G1 X22.943 Y38.055 E13.52517
G1 X22.755 Y35.663 E13.63201
G1 X22.672 Y34.25 E13.69503
G1 X22.594 Y32.261 E13.78367
G1 X22.566 Y30.858 E13.84615
G1 X22.566 Y28.884 E13.93405
G1 X22.595 Y27.456 E13.99764
G1 X22.673 Y25.468 E14.08623
G1 X22.758 Y24.046 E14.14966
G1 X22.911 Y22.098 E14.23667
G1 X23.05 Y20.684 E14.29993
G1 X23.283 Y18.717 E14.38813
G1 X23.514 Y17.051 E14.46302
G1 X23.62 Y16.362 E14.49406
G1 X23.624 Y16.348 E14.49471
G0 F810 X23.705 Y16.069
G0 X23.864 Y15.807
G1 F2400 E11.99471
;MESH:TRN_STRIP_8.STL(1)
G0 F2700 X23.679 Y19.758
G0 X24.703 Y19.899
G0 X24.742 Y29.892
G0 X24.809 Y33.184
G0 X25.002 Y36.476
G0 X25.262 Y39.131
G0 X25.692 Y42.181
;TYPE:WALL-INNER
G1 F2400 E14.49471
G1 F900 X25.517 Y42.208 E14.50259
G1 X25.493 Y42.032 E14.50768
G1 X25.18 Y39.775 E14.60914
G1 X24.856 Y36.484 E14.75638
G1 X24.663 Y33.194 E14.90313
G1 X24.597 Y29.888 E15.05036
G1 X24.663 Y26.547 E15.19916
G1 X24.856 Y23.257 E15.3459
G1 X25.18 Y19.966 E15.49315
G1 X25.493 Y17.71 E15.59457
G1 X25.517 Y17.534 E15.60248
G1 X25.692 Y17.561 E15.60754
G1 X35.293 Y19.081 E16.04037
G1 X35.012 Y21.114 E16.13175
G1 X34.727 Y24.024 E16.26195
G1 X34.553 Y26.945 E16.39224
G1 X34.497 Y29.871 E16.52255
G1 X34.553 Y32.797 E16.65286
G1 X34.727 Y35.717 E16.78311
G1 X35.012 Y38.628 E16.91335
G1 X35.293 Y40.66 E17.00469
G1 X26.281 Y42.088 E17.41097
G0 F810 X25.692 Y42.181
G0 F2700 X25.394 Y42.583
G1 F900 X25.219 Y42.61 E17.41886
G1 X25.195 Y42.434 E17.42394
G1 X24.833 Y39.823 E17.54131
G1 X24.508 Y36.518 E17.68918
G1 X24.313 Y33.201 E17.83714
G1 X24.247 Y29.881 E17.98499
G1 X24.313 Y26.54 E18.13379
G1 X24.508 Y23.223 E18.28174
G1 X24.833 Y19.918 E18.42961
G1 X25.195 Y17.308 E18.54694
G1 X25.219 Y17.132 E18.55485
G1 X25.394 Y17.159 E18.55991
G1 X35.687 Y18.789 E19.02394
G1 X35.36 Y21.155 E19.13029
G1 X35.076 Y24.051 E19.25986
G1 X34.903 Y26.959 E19.38958
G1 X34.847 Y29.871 E19.51926
G1 X34.903 Y32.783 E19.64895
G1 X35.076 Y35.69 E19.77862
G1 X35.36 Y38.587 E19.90823
G1 X35.687 Y40.952 E20.01454
G1 X25.983 Y42.49 E20.45202
G0 F810 X25.394 Y42.583
G0 F2700 X25.117 Y42.956
;TYPE:WALL-OUTER
G1 F900 X24.942 Y42.983 E20.45991
G1 X24.918 Y42.807 E20.46499
G1 X24.511 Y39.868 E20.5971
G1 X24.185 Y36.55 E20.74556
G1 X23.988 Y33.207 E20.89467
G1 X23.922 Y29.875 E21.04306
G1 X23.988 Y26.534 E21.19186
G1 X24.185 Y23.191 E21.34097
G1 X24.511 Y19.873 E21.48942
G1 X24.918 Y16.935 E21.62149
G1 X24.942 Y16.759 E21.6294
G1 X25.117 Y16.786 E21.63447
G1 X36.053 Y18.518 E22.12748
G1 X35.683 Y21.193 E22.24773
G1 X35.4 Y24.077 E22.37676
G1 X35.228 Y26.972 E22.50589
G1 X35.172 Y29.871 E22.635
G1 X35.228 Y32.77 E22.76411
G1 X35.4 Y35.664 E22.8932
G1 X35.683 Y38.549 E23.02227
G1 X36.053 Y41.223 E23.14247
G1 X25.706 Y42.863 E23.60894
G0 F810 X25.117 Y42.956
G0 F2700 X24.942 Y42.983
G0 X24.939 Y42.961
G0 X25.15 Y42.702
G0 X25.553 Y41.852
G0 X25.806 Y41.818
;TYPE:SKIN
G1 F900 X25.516 Y39.728 E23.7029
G1 X25.196 Y36.464 E23.84893
G1 X25.003 Y33.174 E23.99568
G1 X24.937 Y29.894 E24.14175
G1 X25.003 Y26.567 E24.28993
G1 X25.196 Y23.277 E24.43667
G1 X25.516 Y20.013 E24.5827
G1 X25.806 Y17.924 E24.67661
G1 X34.911 Y19.365 E25.08708
G1 X34.674 Y21.074 E25.1639
G1 X34.388 Y23.997 E25.29468
G1 X34.213 Y26.932 E25.42559
G1 X34.157 Y29.871 E25.55648
G1 X34.213 Y32.811 E25.68742
G1 X34.388 Y35.744 E25.81825
G1 X34.674 Y38.668 E25.94906
G1 X34.911 Y40.376 E26.02585
G1 X26.395 Y41.725 E26.40977
G0 F810 X25.806 Y41.818
G0 F2700 X26.244 Y41.588
G1 F900 X25.882 Y41.226 E26.43256
G0 F2700 X25.802 Y40.651
G1 F900 X26.671 Y41.52 E26.48728
G0 F2700 X27.099 Y41.453
G1 F900 X25.722 Y40.076 E26.57399
G0 F2700 X25.651 Y39.511
G1 F900 X27.526 Y41.385 E26.69203
G0 F2700 X27.953 Y41.317
G1 F900 X25.597 Y38.962 E26.84036
G0 F2700 X25.544 Y38.413
G1 F900 X28.381 Y41.25 E27.01901
G0 F2700 X28.808 Y41.182
G1 F900 X25.49 Y37.864 E27.22794
G0 F2700 X25.436 Y37.316
G1 F900 X29.235 Y41.114 E27.46714
G0 F2700 X29.662 Y41.046
G1 F900 X25.383 Y36.767 E27.73659
G0 F2700 X25.339 Y36.228
G1 F900 X30.09 Y40.979 E28.03576
G0 F2700 X30.517 Y40.911
G1 F900 X25.308 Y35.702 E28.36378
G0 F2700 X25.277 Y35.177
G1 F900 X30.944 Y40.843 E28.7206
G0 F2700 X31.372 Y40.776
G1 F900 X25.246 Y34.651 E29.10633
G0 F2700 X25.216 Y34.125
G1 F900 X31.799 Y40.708 E29.52086
G0 F2700 X32.226 Y40.64
G1 F900 X25.185 Y33.6 E29.96421
G0 F2700 X25.158 Y33.077
G1 F900 X32.653 Y40.573 E30.43621
G0 F2700 X33.081 Y40.505
G1 F900 X25.147 Y32.572 E30.93578
G0 F2700 X25.137 Y32.067
G1 F900 X33.508 Y40.438 E31.46291
G0 F2700 X33.935 Y40.37
G1 F900 X25.127 Y31.561 E32.01759
G0 F2700 X25.117 Y31.056
G1 F900 X34.363 Y40.302 E32.59982
G0 F2700 X34.724 Y40.169
G1 F900 X25.106 Y30.551 E33.20547
G0 F2700 X25.096 Y30.046
G1 F900 X34.644 Y39.594 E33.80671
G0 F2700 X34.564 Y39.019
G1 F900 X25.1 Y29.554 E34.4027
G0 F2700 X25.11 Y29.069
G1 F900 X34.496 Y38.456 E34.99377
G0 F2700 X34.442 Y37.907
G1 F900 X25.119 Y28.584 E35.58085
G0 F2700 X25.129 Y28.099
G1 F900 X34.388 Y37.358 E36.16389
G0 F2700 X34.334 Y36.809
G1 F900 X25.139 Y27.613 E36.74294
G0 F2700 X25.148 Y27.128
G1 F900 X34.281 Y36.261 E37.31805
G0 F2700 X34.229 Y35.714
G1 F900 X25.158 Y26.643 E37.88926
G0 F2700 X25.183 Y26.173
G1 F900 X34.197 Y35.187 E38.45688
G0 F2700 X34.166 Y34.661
G1 F900 X25.21 Y25.705 E39.02084
G0 F2700 X25.238 Y25.238
G1 F900 X34.134 Y34.134 E39.58103
G0 F2700 X34.103 Y33.608
G1 F900 X25.264 Y24.769 E40.13763
G0 F2700 X25.292 Y24.302
G1 F900 X34.071 Y33.081 E40.69045
G0 F2700 X34.051 Y32.566
G1 F900 X25.319 Y23.834 E41.24031
G0 F2700 X25.346 Y23.367
G1 F900 X34.041 Y32.061 E41.78781
G0 F2700 X34.031 Y31.556
G1 F900 X25.387 Y22.913 E42.33209
G0 F2700 X25.432 Y22.462
G1 F900 X34.022 Y31.052 E42.87301
G0 F2700 X34.012 Y30.547
G1 F900 X25.476 Y22.011 E43.41053
G0 F2700 X25.52 Y21.561
G1 F900 X34.002 Y30.042 E43.94462
G0 F2700 X34.005 Y29.55
G1 F900 X25.564 Y21.109 E44.47615
G0 F2700 X25.609 Y20.659
G1 F900 X34.014 Y29.064 E45.00542
G0 F2700 X34.023 Y28.579
G1 F900 X25.653 Y20.208 E45.53252
G0 F2700 X25.707 Y19.767
G1 F900 X34.033 Y28.093 E46.05681
G0 F2700 X34.042 Y27.607
G1 F900 X25.767 Y19.333 E46.57786
G0 F2700 X25.827 Y18.897
G1 F900 X34.051 Y27.121 E47.09573
G0 F2700 X34.071 Y26.647
G1 F900 X25.887 Y18.462 E47.61112
G0 F2700 X26.039 Y18.12
G1 F900 X34.1 Y26.18 E48.11869
G0 F2700 X34.127 Y25.713
G1 F900 X26.628 Y18.213 E48.59094
G0 F2700 X27.216 Y18.306
G1 F900 X34.156 Y25.246 E49.02796
G0 F2700 X34.183 Y24.779
G1 F900 X27.804 Y18.399 E49.42968
G0 F2700 X28.392 Y18.492
G1 F900 X34.211 Y24.312 E49.79614
G0 F2700 X34.244 Y23.85
G1 F900 X28.98 Y18.586 E50.12762
G0 F2700 X29.568 Y18.678
G1 F900 X34.289 Y23.399 E50.4249
G0 F2700 X34.332 Y22.948
G1 F900 X30.156 Y18.772 E50.68787
G0 F2700 X30.745 Y18.865
G1 F900 X34.376 Y22.497 E50.91654
G0 F2700 X34.421 Y22.046
G1 F900 X31.332 Y18.958 E51.11103
G0 F2700 X31.92 Y19.051
G1 F900 X34.465 Y21.595 E51.27126
G0 F2700 X34.508 Y21.144
G1 F900 X32.509 Y19.144 E51.39717
G0 F2700 X33.096 Y19.237
G1 F900 X34.566 Y20.706 E51.4897
G0 F2700 X34.626 Y20.272
G1 F900 X33.685 Y19.33 E51.54899
G0 F2700 X34.272 Y19.423
G1 F900 X34.686 Y19.837 E51.57506
G0 F2700 X35.329 Y19.927
G1 F2400 E49.07506
G0 F2700 X35.49 Y21.17
G0 X36.517 Y21.282
G0 X43.348 Y36.6
G0 X44.379 Y36.539
G0 X45.692 Y42.181
;TYPE:WALL-INNER
G1 F2400 E51.57506
G1 F900 X45.517 Y42.208 E51.58294
G1 X45.493 Y42.032 E51.58803
G1 X45.18 Y39.775 E51.68949
G1 X44.856 Y36.484 E51.83673
G1 X44.663 Y33.194 E51.98348
G1 X44.597 Y29.888 E52.13071
G1 X44.663 Y26.547 E52.27951
G1 X44.856 Y23.257 E52.42625
G1 X45.18 Y19.966 E52.5735
G1 X45.493 Y17.71 E52.67492
G1 X45.517 Y17.534 E52.68283
G1 X45.692 Y17.561 E52.68789
G1 X55.293 Y19.081 E53.12072
G1 X55.012 Y21.114 E53.2121
G1 X54.727 Y24.024 E53.3423
G1 X54.553 Y26.945 E53.47259
G1 X54.497 Y29.871 E53.6029
G1 X54.553 Y32.797 E53.73321
G1 X54.727 Y35.717 E53.86346
G1 X55.012 Y38.628 E53.9937
G1 X55.293 Y40.66 E54.08504
G1 X46.281 Y42.088 E54.49132
G0 F810 X45.692 Y42.181
G0 F2700 X45.394 Y42.583
G1 F900 X45.219 Y42.61 E54.49921
G1 X45.195 Y42.434 E54.50429
G1 X44.833 Y39.823 E54.62166
G1 X44.508 Y36.518 E54.76953
G1 X44.313 Y33.201 E54.91748
G1 X44.247 Y29.881 E55.06534
G1 X44.313 Y26.54 E55.21414
G1 X44.508 Y23.223 E55.36209
G1 X44.833 Y19.918 E55.50996
G1 X45.195 Y17.308 E55.62729
G1 X45.219 Y17.132 E55.6352
G1 X45.394 Y17.159 E55.64026
G1 X55.687 Y18.789 E56.10429
G1 X55.36 Y21.155 E56.21064
G1 X55.076 Y24.051 E56.34021
G1 X54.903 Y26.959 E56.46993
G1 X54.847 Y29.871 E56.59961
G1 X54.903 Y32.783 E56.7293
G1 X55.076 Y35.69 E56.85897
G1 X55.36 Y38.587 E56.98858
G1 X55.687 Y40.952 E57.09489
G1 X45.983 Y42.49 E57.53237
G0 F810 X45.394 Y42.583
G0 F2700 X45.117 Y42.956
;TYPE:WALL-OUTER
G1 F900 X44.942 Y42.983 E57.54026
G1 X44.918 Y42.807 E57.54534
G1 X44.511 Y39.868 E57.67745
G1 X44.185 Y36.55 E57.82591
G1 X43.988 Y33.207 E57.97502
G1 X43.922 Y29.875 E58.12341
G1 X43.988 Y26.534 E58.27221
G1 X44.185 Y23.191 E58.42132
G1 X44.511 Y19.873 E58.56977
G1 X44.918 Y16.935 E58.70184
G1 X44.942 Y16.759 E58.70975
G1 X45.117 Y16.786 E58.71482
G1 X56.053 Y18.518 E59.20783
G1 X55.683 Y21.193 E59.32808
G1 X55.4 Y24.077 E59.45711
G1 X55.228 Y26.972 E59.58624
G1 X55.172 Y29.871 E59.71535
G1 X55.228 Y32.77 E59.84446
G1 X55.4 Y35.664 E59.97355
G1 X55.683 Y38.549 E60.10262
G1 X56.053 Y41.223 E60.22282
G1 X45.706 Y42.863 E60.68929
G0 F810 X45.117 Y42.956
G0 F2700 X44.942 Y42.983
G0 X44.939 Y42.961
G0 X45.15 Y42.702
G0 X45.553 Y41.852
G0 X45.806 Y41.818
;TYPE:SKIN
G1 F900 X45.516 Y39.728 E60.78325
G1 X45.196 Y36.464 E60.92928
G1 X45.003 Y33.174 E61.07603
G1 X44.937 Y29.894 E61.2221
G1 X45.003 Y26.567 E61.37027
G1 X45.196 Y23.277 E61.51702
G1 X45.516 Y20.013 E61.66305
G1 X45.806 Y17.924 E61.75696
G1 X54.911 Y19.365 E62.16743
G1 X54.674 Y21.074 E62.24425
G1 X54.388 Y23.997 E62.37503
G1 X54.213 Y26.932 E62.50594
G1 X54.157 Y29.871 E62.63683
G1 X54.213 Y32.811 E62.76777
G1 X54.388 Y35.744 E62.8986
G1 X54.674 Y38.668 E63.02941
G1 X54.911 Y40.376 E63.1062
G1 X46.395 Y41.725 E63.49012
G0 F810 X45.806 Y41.818
G0 F2700 X46.071 Y41.616
G1 F900 X45.913 Y41.458 E63.50006
G0 F2700 X45.833 Y40.883
G1 F900 X46.498 Y41.548 E63.54194
G0 F2700 X46.925 Y41.481
G1 F900 X45.753 Y40.308 E63.61577
G0 F2700 X45.673 Y39.733
G1 F900 X47.353 Y41.413 E63.72156
G0 F2700 X47.78 Y41.345
G1 F900 X45.618 Y39.183 E63.85771
G0 F2700 X45.565 Y38.635
G1 F900 X48.207 Y41.278 E64.02411
G0 F2700 X48.634 Y41.21
G1 F900 X45.511 Y38.086 E64.2208
G0 F2700 X45.457 Y37.538
