;FLAVOR:Marlin
;TIME:4437
;Filament used: 3.81447m
;Layer height: 0.263
;MINX:25.864
;MINY:26.97
;MINZ:0.306
;MAXX:92.428
;MAXY:93.01
;MAXZ:35.285
;Generated with Cura_SteamEngine master
M140 S65
M105
M190 S65
M104 S220
M105
M109 S220
M82 ;absolute extrusion mode
G90 ; set to absolute positioning - this line was added in case Cura doesn't include it by default
M82 ; set extruder to absolute mode - this line was added in case Cura doesn't include it by default (may not be needed)
G28 ; home all axes
; The lines below are to prep the nozzle before a print begins
G1 Z0.2 F1200 ; raise nozzle 0.2mm
G92 E0 ; reset extrusion distance
G1 Y-1 ; move Y-Axis (bed) 1mm to prep for purge
G1 X25 E3 F600 ; move X-carriage 50mm while purging 3mm of filament
G1 X120;
G92 E0 ; reset extrusion distance
G1 Z5;
G1 X-1 Y0;
G1 Z0;
G1 Y120;
G1 Z5;
G1 X0 Y0;
G1 Z0;
G92 E0
G92 E0
G1 F2400 E-2.5
;LAYER_COUNT:135
;LAYER:0
M107
G0 F2700 X26.935 Y62.742 Z0.306
;TYPE:SKIRT
G1 F2400 E0
G1 F900 X27.168 Y62.668 E0.01089
G1 X29.471 Y61.961 E0.11815
G1 X32.078 Y61.079 E0.2407
G1 X34.704 Y60.106 E0.3654
G1 X37.285 Y59.068 E0.48927
G1 X39.854 Y57.946 E0.61409
G1 X42.363 Y56.767 E0.73753
G1 X44.852 Y55.51 E0.86169
G1 X47.308 Y54.182 E0.98601
G1 X49.684 Y52.808 E1.10822
G1 X52.083 Y51.329 E1.23371
G1 X54.402 Y49.807 E1.35722
G1 X56.712 Y48.195 E1.48265
G1 X58.94 Y46.545 E1.6061
G1 X61.13 Y44.825 E1.73009
G1 X63.26 Y43.052 E1.85349
G1 X65.338 Y41.221 E1.97681
G1 X67.408 Y39.292 E2.1028
G1 X69.358 Y37.367 E2.22481
G1 X71.314 Y35.324 E2.35075
G1 X73.17 Y33.271 E2.47398
G1 X74.975 Y31.159 E2.59769
G1 X76.72 Y28.997 E2.7214
G1 X77.228 Y28.331 E2.7587
G1 X77.831 Y27.563 E2.80217
G1 X78.076 Y27.315 E2.8177
G1 X78.371 Y27.13 E2.8332
G1 X78.701 Y27.016 E2.84875
G1 X79.314 Y26.971 E2.87612
G1 X90.23 Y26.97 E3.36217
G1 X90.925 Y26.98 E3.39312
G1 X91.271 Y27.025 E3.40866
G1 X91.597 Y27.147 E3.42416
G1 X91.888 Y27.34 E3.4397
G1 X92.126 Y27.595 E3.45524
G1 X92.301 Y27.896 E3.47074
G1 X92.403 Y28.23 E3.48629
G1 X92.428 Y28.507 E3.49867
G1 X92.427 Y29.294 E3.53372
G1 X92.423 Y29.557 E3.54543
G1 X92.366 Y31.289 E3.62259
G1 X92.346 Y31.689 E3.64042
G1 X92.233 Y33.392 E3.71642
G1 X92.197 Y33.822 E3.73563
G1 X92.031 Y35.487 E3.81014
G1 X91.979 Y35.936 E3.83027
G1 X91.76 Y37.583 E3.90425
G1 X91.696 Y38.004 E3.92321
G1 X91.413 Y39.71 E4.00021
G1 X91.348 Y40.06 E4.01606
G1 X90.997 Y41.81 E4.09553
G1 X90.91 Y42.209 E4.11372
G1 X90.538 Y43.793 E4.18617
G1 X90.421 Y44.25 E4.20717
G1 X89.982 Y45.88 E4.28234
G1 X89.867 Y46.276 E4.3007
G1 X89.363 Y47.923 E4.37739
G1 X89.227 Y48.341 E4.39696
G1 X88.692 Y49.903 E4.47048
G1 X88.549 Y50.299 E4.48923
G1 X87.942 Y51.898 E4.56539
G1 X87.791 Y52.279 E4.58363
G1 X87.128 Y53.865 E4.66018
G1 X86.934 Y54.306 E4.68163
G1 X86.289 Y55.719 E4.75079
G1 X85.772 Y56.804 E4.80431
G1 X84.612 Y59.33 E4.92807
G1 X83.233 Y62.606 E5.08634
G1 X82.998 Y63.193 E5.1145
G1 X82.877 Y63.432 E5.12642
G1 X82.547 Y63.961 E5.15419
G1 X81.867 Y64.972 E5.20844
G1 X81.596 Y65.358 E5.22944
G1 X80.715 Y66.577 E5.29641
G1 X80.395 Y67.004 E5.32017
G1 X79.397 Y68.296 E5.39286
G1 X79.077 Y68.697 E5.41571
G1 X78.049 Y69.941 E5.48756
G1 X77.706 Y70.342 E5.51106
G1 X76.89 Y71.264 E5.56588
G1 X76.598 Y71.552 E5.58414
G1 X75.498 Y72.434 E5.64692
G1 X73.608 Y73.984 E5.75576
G1 X71.198 Y76.082 E5.89804
G1 X70.816 Y76.427 E5.92096
G1 X69.572 Y77.507 E5.99431
G1 X69.192 Y77.827 E6.01643
G1 X67.938 Y78.849 E6.08846
G1 X67.546 Y79.157 E6.11066
G1 X66.22 Y80.165 E6.18483
G1 X65.884 Y80.412 E6.20339
G1 X64.469 Y81.418 E6.2807
G1 X64.124 Y81.655 E6.29934
G1 X62.718 Y82.585 E6.3744
G1 X62.347 Y82.824 E6.39405
G1 X60.907 Y83.712 E6.46938
G1 X60.491 Y83.959 E6.49092
G1 X59.093 Y84.759 E6.56264
G1 X58.65 Y85.002 E6.58514
G1 X57.212 Y85.765 E6.65763
G1 X56.738 Y86.006 E6.6813
G1 X55.318 Y86.7 E6.75168
G1 X54.865 Y86.913 E6.77397
G1 X53.321 Y87.607 E6.84934
G1 X52.926 Y87.776 E6.86847
G1 X51.364 Y88.419 E6.94369
G1 X50.952 Y88.581 E6.9634
G1 X49.34 Y89.182 E7.04
G1 X48.922 Y89.33 E7.05975
G1 X47.376 Y89.849 E7.13236
G1 X46.897 Y90.001 E7.15474
G1 X45.332 Y90.472 E7.22751
G1 X44.877 Y90.601 E7.24857
G1 X43.219 Y91.041 E7.32495
G1 X42.796 Y91.146 E7.34436
G1 X41.177 Y91.52 E7.41834
G1 X40.747 Y91.611 E7.43792
G1 X39.071 Y91.943 E7.51399
G1 X38.62 Y92.024 E7.5344
G1 X36.991 Y92.291 E7.6079
G1 X36.464 Y92.368 E7.63161
G1 X34.918 Y92.57 E7.70104
G1 X34.347 Y92.635 E7.72663
G1 X32.778 Y92.787 E7.79682
G1 X32.236 Y92.831 E7.82103
G1 X30.635 Y92.935 E7.89247
G1 X30.338 Y92.949 E7.90571
G1 X28.273 Y93.009 E7.99769
G1 X28.121 Y93.01 E8.00446
G1 X27.391 Y93.006 E8.03697
G1 X27.044 Y92.964 E8.05253
G1 X26.717 Y92.845 E8.06802
G1 X26.425 Y92.654 E8.08356
G1 X26.184 Y92.402 E8.09909
G1 X26.006 Y92.102 E8.11462
G1 X25.902 Y91.77 E8.13011
G1 X25.87 Y91.39 E8.14709
G1 X25.864 Y90.867 E8.17038
G1 X25.864 Y64.864 E9.32822
G1 X25.874 Y64.173 E9.35899
G1 X25.919 Y63.827 E9.37452
G1 X26.041 Y63.501 E9.39002
G1 X26.235 Y63.21 E9.4056
G1 X26.419 Y63.037 E9.41684
G0 F810 X26.489 Y62.972
G0 X26.935 Y62.742
G0 F2700 X27.27 Y63.003
G1 F900 X29.554 Y62.302 E9.52322
G1 X32.212 Y61.402 E9.64818
G1 X34.833 Y60.431 E9.77263
G1 X37.425 Y59.388 E9.89704
G1 X40.004 Y58.263 E10.02233
G1 X42.502 Y57.089 E10.14523
G1 X45.026 Y55.814 E10.27114
G1 X47.464 Y54.495 E10.39456
G1 X49.873 Y53.103 E10.51845
G1 X52.273 Y51.623 E10.644
G1 X54.601 Y50.095 E10.76799
G1 X56.913 Y48.482 E10.89352
G1 X59.132 Y46.839 E11.01646
G1 X61.342 Y45.103 E11.14159
G1 X63.484 Y43.32 E11.26569
G1 X65.601 Y41.455 E11.39131
G1 X67.647 Y39.548 E11.51585
G1 X69.611 Y37.609 E11.63874
G1 X71.567 Y35.566 E11.76468
G1 X73.441 Y33.493 E11.88911
G1 X75.251 Y31.375 E12.01317
G1 X76.992 Y29.218 E12.13659
G1 X77.503 Y28.547 E12.17415
G1 X78.106 Y27.779 E12.21763
G1 X78.324 Y27.565 E12.23123
G1 X78.591 Y27.415 E12.24486
G1 X78.994 Y27.331 E12.26319
G1 X79.36 Y27.32 E12.2795
G1 X90.225 Y27.32 E12.76328
G1 X90.92 Y27.33 E12.79423
G1 X91.223 Y27.374 E12.80787
G1 X91.504 Y27.495 E12.82149
G1 X91.744 Y27.684 E12.83509
G1 X91.927 Y27.929 E12.84871
G1 X92.041 Y28.213 E12.86234
G1 X92.078 Y28.507 E12.87553
G1 X92.077 Y29.289 E12.91035
G1 X92.073 Y29.546 E12.92179
G1 X92.017 Y31.271 E12.99864
G1 X91.996 Y31.666 E13.01626
G1 X91.884 Y33.363 E13.09198
G1 X91.848 Y33.787 E13.11093
G1 X91.683 Y35.447 E13.18521
G1 X91.632 Y35.889 E13.20502
G1 X91.414 Y37.531 E13.27878
G1 X91.351 Y37.946 E13.29747
G1 X91.069 Y39.647 E13.37424
G1 X91.005 Y39.991 E13.38982
G1 X90.655 Y41.735 E13.46902
G1 X90.569 Y42.129 E13.48698
G1 X90.199 Y43.706 E13.55911
G1 X90.083 Y44.159 E13.57993
G1 X89.645 Y45.783 E13.65482
G1 X89.533 Y46.174 E13.67293
G1 X89.03 Y47.815 E13.74936
G1 X88.896 Y48.228 E13.76869
G1 X88.362 Y49.784 E13.84194
G1 X88.222 Y50.175 E13.86044
G1 X87.617 Y51.769 E13.93635
G1 X87.468 Y52.144 E13.95432
G1 X86.808 Y53.724 E14.03056
G1 X86.615 Y54.161 E14.05183
G1 X85.974 Y55.569 E14.12072
G1 X85.447 Y56.674 E14.17523
G1 X84.282 Y59.21 E14.2995
G1 X82.91 Y62.47 E14.45699
G1 X82.673 Y63.063 E14.48542
G1 X82.58 Y63.247 E14.4946
G1 X82.257 Y63.766 E14.52182
G1 X81.58 Y64.772 E14.57581
G1 X81.312 Y65.153 E14.59656
G1 X80.435 Y66.367 E14.66324
G1 X80.118 Y66.79 E14.68678
G1 X79.123 Y68.078 E14.75925
G1 X78.807 Y68.474 E14.78181
G1 X77.783 Y69.713 E14.85338
G1 X77.444 Y70.11 E14.87662
G1 X76.636 Y71.023 E14.93091
G1 X76.379 Y71.279 E14.94706
G1 X75.279 Y72.161 E15.00984
G1 X73.387 Y73.713 E15.11881
G1 X70.983 Y75.805 E15.26071
G1 X70.586 Y76.163 E15.28451
G1 X69.347 Y77.24 E15.35761
G1 X68.971 Y77.556 E15.37948
G1 X67.722 Y78.574 E15.45122
G1 X67.334 Y78.878 E15.47317
G1 X66.013 Y79.883 E15.54708
G1 X65.682 Y80.127 E15.56539
G1 X64.271 Y81.129 E15.64245
G1 X63.931 Y81.363 E15.66082
G1 X62.529 Y82.291 E15.73569
G1 X62.163 Y82.526 E15.75506
G1 X60.728 Y83.411 E15.83013
G1 X60.318 Y83.655 E15.85137
G1 X58.924 Y84.452 E15.92287
G1 X58.486 Y84.693 E15.94513
G1 X57.053 Y85.453 E16.01736
G1 X56.584 Y85.691 E16.04077
G1 X55.17 Y86.383 E16.11087
G1 X54.722 Y86.594 E16.13292
G1 X53.182 Y87.285 E16.20808
G1 X52.793 Y87.453 E16.22695
G1 X51.236 Y88.093 E16.3019
G1 X50.83 Y88.253 E16.32133
G1 X49.224 Y88.852 E16.39766
G1 X48.81 Y88.998 E16.4172
G1 X47.27 Y89.516 E16.48955
G1 X46.796 Y89.666 E16.51169
G1 X45.236 Y90.135 E16.58422
G1 X44.787 Y90.263 E16.60501
G1 X43.135 Y90.701 E16.68111
G1 X42.717 Y90.805 E16.70029
G1 X41.104 Y91.177 E16.774
G1 X40.679 Y91.268 E16.79335
G1 X39.009 Y91.598 E16.86915
G1 X38.563 Y91.679 E16.88933
G1 X36.94 Y91.944 E16.96256
G1 X36.419 Y92.021 E16.98601
G1 X34.879 Y92.222 E17.05516
G1 X34.314 Y92.287 E17.08048
G1 X32.75 Y92.438 E17.15045
G1 X32.213 Y92.481 E17.17443
G1 X30.618 Y92.586 E17.24561
G1 X30.328 Y92.6 E17.25854
G1 X28.27 Y92.659 E17.35021
G1 X28.123 Y92.66 E17.35676
G1 X27.393 Y92.656 E17.38926
G1 X27.089 Y92.614 E17.40293
G1 X26.807 Y92.496 E17.41654
G1 X26.565 Y92.309 E17.43016
G1 X26.38 Y92.066 E17.44376
G1 X26.263 Y91.783 E17.45739
G1 X26.22 Y91.386 E17.47517
G1 X26.214 Y90.863 E17.49846
G1 X26.214 Y64.869 E18.6559
G1 X26.224 Y64.178 E18.68667
G1 X26.268 Y63.875 E18.7003
G1 X26.389 Y63.594 E18.71392
G1 X26.579 Y63.354 E18.72755
G1 X26.727 Y63.243 E18.73579
G0 F810 X26.823 Y63.171
G0 X27.27 Y63.003
G1 F2400 E16.23579
;MESH:body_b.stl
G0 F2700 X48.458 Y63.55
G0 X48.78 Y64.582
G0 X79.897 Y43.62
;TYPE:WALL-INNER
G1 F2400 E18.73579
G1 F900 X79.898 Y29.37 E19.3703
G1 X89.849 Y29.37 E19.81339
G1 X89.85 Y29.37 E19.81343
G1 X90.026 Y29.37 E19.82127
G1 X90.025 Y29.546 E19.82633
G1 X90.024 Y29.547 E19.8264
G1 X90.01 Y30.32 E19.86082
G1 X89.909 Y32.363 E19.9519
G1 X89.741 Y34.391 E20.04251
G1 X89.504 Y36.439 E20.13431
G1 X89.206 Y38.434 E20.22413
G1 X88.837 Y40.447 E20.31526
G1 X88.399 Y42.456 E20.40681
G1 X87.907 Y44.414 E20.49671
G1 X87.342 Y46.375 E20.58758
G1 X86.713 Y48.317 E20.67847
G1 X86.02 Y50.239 E20.76944
G1 X85.262 Y52.142 E20.86065
G1 X84.442 Y54.016 E20.95173
G1 X83.568 Y55.851 E21.04224
G1 X82.62 Y57.682 E21.13404
G1 X81.625 Y59.459 E21.22473
G1 X80.562 Y61.218 E21.31624
G1 X79.456 Y62.919 E21.40659
G1 X78.284 Y64.599 E21.4978
G1 X77.065 Y66.23 E21.58846
G1 X75.78 Y67.836 E21.68005
G1 X74.449 Y69.392 E21.77122
G1 X73.075 Y70.896 E21.86193
G1 X71.642 Y72.366 E21.95334
G1 X70.152 Y73.795 E22.04526
G1 X68.64 Y75.155 E22.13581
G1 X67.06 Y76.486 E22.2278
G1 X65.465 Y77.741 E22.31817
G1 X63.799 Y78.966 E22.41025
G1 X62.117 Y80.121 E22.5011
G1 X60.377 Y81.234 E22.59307
G1 X58.625 Y82.276 E22.68384
G1 X56.822 Y83.269 E22.77549
G1 X54.993 Y84.202 E22.86691
G1 X53.145 Y85.069 E22.95781
G1 X51.242 Y85.887 E23.05004
G1 X49.32 Y86.641 E23.14197
G1 X47.396 Y87.323 E23.23286
G1 X45.437 Y87.948 E23.32442
G1 X43.45 Y88.512 E23.41639
G1 X41.465 Y89.003 E23.50744
G1 X39.444 Y89.437 E23.59948
G1 X37.442 Y89.798 E23.69006
G1 X35.396 Y90.099 E23.78215
G1 X33.338 Y90.335 E23.87438
G1 X31.313 Y90.498 E23.96484
G1 X29.23 Y90.6 E24.0577
G1 X28.44 Y90.608 E24.09288
G1 X28.439 Y90.609 E24.09294
G1 X28.264 Y90.609 E24.10074
G1 X28.264 Y90.434 E24.10578
G1 X28.264 Y90.433 E24.10582
G1 X28.264 Y65.063 E25.23547
G1 X48.931 Y65.063 E26.15571
G1 X79.407 Y43.959 E27.80632
G0 F810 X79.897 Y43.62
G0 F2700 X79.547 Y43.437
G1 F900 X79.548 Y29.02 E28.44826
G1 X90.205 Y29.02 E28.92279
G1 X90.206 Y29.02 E28.92283
G1 X90.382 Y29.02 E28.93067
G1 X90.381 Y29.196 E28.93573
G1 X90.38 Y29.197 E28.9358
G1 X90.36 Y30.337 E28.98657
G1 X90.258 Y32.392 E29.07818
G1 X90.089 Y34.431 E29.16928
G1 X89.852 Y36.479 E29.26108
G1 X89.55 Y38.497 E29.35194
G1 X89.179 Y40.522 E29.44361
G1 X88.741 Y42.531 E29.53516
G1 X88.243 Y44.511 E29.62607
G1 X87.675 Y46.483 E29.71745
G1 X87.042 Y48.436 E29.80886
G1 X86.345 Y50.368 E29.90032
G1 X85.583 Y52.282 E29.99205
G1 X84.758 Y54.167 E30.08367
G1 X83.879 Y56.012 E30.17467
G1 X82.931 Y57.843 E30.26648
G1 X81.925 Y59.64 E30.35818
G1 X80.862 Y61.399 E30.44969
G1 X79.743 Y63.119 E30.54106
G1 X78.564 Y64.809 E30.63281
G1 X77.338 Y66.449 E30.72399
G1 X76.046 Y68.064 E30.81608
G1 X74.715 Y69.62 E30.90725
G1 X73.326 Y71.14 E30.99893
G1 X71.884 Y72.619 E31.09091
G1 X70.394 Y74.048 E31.18284
G1 X68.865 Y75.423 E31.2744
G1 X67.285 Y76.754 E31.36639
G1 X65.672 Y78.023 E31.45777
G1 X63.997 Y79.255 E31.55036
G1 X62.306 Y80.416 E31.64169
G1 X60.565 Y81.53 E31.73372
G1 X58.794 Y82.583 E31.82547
G1 X56.991 Y83.576 E31.91712
G1 X55.142 Y84.519 E32.00954
G1 X53.283 Y85.391 E32.10097
G1 X51.378 Y86.21 E32.1933
G1 X49.445 Y86.968 E32.28575
G1 X47.513 Y87.653 E32.37702
G1 X45.533 Y88.285 E32.46957
G1 X43.545 Y88.849 E32.56158
G1 X41.549 Y89.343 E32.65314
G1 X39.517 Y89.779 E32.74568
G1 X37.493 Y90.144 E32.83725
G1 X35.436 Y90.447 E32.92984
G1 X33.377 Y90.683 E33.02212
G1 X31.33 Y90.848 E33.11356
G1 X29.247 Y90.95 E33.20642
G1 X28.09 Y90.961 E33.25794
G1 X28.089 Y90.962 E33.258
G1 X27.914 Y90.962 E33.26579
G1 X27.914 Y90.787 E33.27084
G1 X27.914 Y90.786 E33.27088
G1 X27.914 Y64.713 E34.43183
G1 X48.822 Y64.713 E35.36281
G1 X79.057 Y43.776 E37.00035
G0 F810 X79.547 Y43.437
G0 F2700 X79.222 Y43.267
;TYPE:WALL-OUTER
G1 F900 X79.223 Y28.695 E37.6492
G1 X90.535 Y28.695 E38.15289
G1 X90.536 Y28.695 E38.15294
G1 X90.712 Y28.695 E38.16077
G1 X90.711 Y28.871 E38.16584
G1 X90.71 Y28.872 E38.1659
G1 X90.685 Y30.353 E38.23185
G1 X90.582 Y32.419 E38.32396
G1 X90.412 Y34.468 E38.41551
G1 X90.175 Y36.516 E38.50731
G1 X89.87 Y38.556 E38.59916
G1 X89.497 Y40.591 E38.69128
G1 X89.059 Y42.6 E38.78283
G1 X88.555 Y44.601 E38.87471
G1 X87.984 Y46.583 E38.96656
G1 X87.348 Y48.546 E39.05844
G1 X86.647 Y50.488 E39.15037
G1 X85.881 Y52.412 E39.24258
G1 X85.056 Y54.297 E39.3342
G1 X84.168 Y56.161 E39.42613
G1 X83.215 Y58.002 E39.51844
G1 X82.209 Y59.799 E39.61014
G1 X81.14 Y61.567 E39.70214
G1 X80.01 Y63.305 E39.79444
G1 X78.831 Y64.995 E39.8862
G1 X77.592 Y66.652 E39.97832
G1 X76.3 Y68.267 E40.07041
G1 X74.955 Y69.839 E40.16253
G1 X73.559 Y71.367 E40.25469
G1 X72.109 Y72.854 E40.34717
G1 X70.619 Y74.283 E40.4391
G1 X69.074 Y75.672 E40.53161
G1 X67.494 Y77.003 E40.62359
G1 X65.865 Y78.285 E40.7159
G1 X64.19 Y79.517 E40.80848
G1 X62.481 Y80.69 E40.90078
G1 X60.74 Y81.804 E40.99281
G1 X58.951 Y82.868 E41.08549
G1 X57.139 Y83.866 E41.1776
G1 X55.29 Y84.808 E41.27
G1 X53.411 Y85.69 E41.36243
G1 X51.497 Y86.513 E41.4552
G1 X49.564 Y87.271 E41.54765
G1 X47.612 Y87.963 E41.63987
G1 X45.627 Y88.596 E41.73264
G1 X43.634 Y89.161 E41.82488
G1 X41.617 Y89.661 E41.91741
G1 X39.579 Y90.098 E42.01022
G1 X37.54 Y90.466 E42.10247
G1 X35.483 Y90.769 E42.19505
G1 X33.411 Y91.006 E42.28792
G1 X31.346 Y91.173 E42.38016
G1 X29.263 Y91.275 E42.47302
G1 X27.765 Y91.289 E42.53973
G1 X27.764 Y91.29 E42.53979
G1 X27.589 Y91.29 E42.54758
G1 X27.589 Y91.115 E42.55263
G1 X27.589 Y91.114 E42.55267
G1 X27.589 Y64.388 E43.7427
G1 X48.72 Y64.388 E44.6836
G1 X78.732 Y43.606 E46.30906
G0 F810 X79.222 Y43.267
G0 F2700 X79.222 Y43.067
G0 X79.497 Y43.068
G0 X79.994 Y43.671
G0 X80.237 Y43.798
;TYPE:SKIN
G1 F900 X80.238 Y29.71 E46.93635
G1 X89.68 Y29.71 E47.35678
G1 X89.67 Y30.303 E47.38319
G1 X89.568 Y32.375 E47.47556
G1 X89.403 Y34.352 E47.56389
G1 X89.168 Y36.389 E47.6552
G1 X88.872 Y38.372 E47.74447
G1 X88.505 Y40.375 E47.83514
G1 X88.069 Y42.373 E47.9262
G1 X87.572 Y44.35 E48.01697
G1 X87.017 Y46.275 E48.10618
G1 X86.402 Y48.177 E48.19518
G1 X85.704 Y50.113 E48.28682
G1 X84.938 Y52.036 E48.37899
G1 X84.135 Y53.87 E48.46814
G1 X83.263 Y55.7 E48.5584
G1 X82.323 Y57.516 E48.64945
G1 X81.331 Y59.287 E48.73984
G1 X80.274 Y61.037 E48.83087
G1 X79.177 Y62.725 E48.92051
G1 X78.008 Y64.4 E49.01146
G1 X76.799 Y66.018 E49.10139
G1 X75.518 Y67.619 E49.19269
G1 X74.194 Y69.167 E49.28339
G1 X72.832 Y70.659 E49.37335
G1 X71.407 Y72.121 E49.46425
G1 X69.925 Y73.542 E49.55567
G1 X68.417 Y74.898 E49.64597
G1 X66.85 Y76.218 E49.7372
G1 X65.263 Y77.467 E49.82713
G1 X63.597 Y78.692 E49.91921
G1 X61.929 Y79.838 E50.00932
G1 X60.204 Y80.942 E50.10051
G1 X58.461 Y81.978 E50.19079
G1 X56.663 Y82.968 E50.28219
G1 X54.807 Y83.915 E50.37497
G1 X53.056 Y84.737 E50.4611
G1 X51.118 Y85.57 E50.55502
G1 X49.201 Y86.322 E50.64671
G1 X47.288 Y87.001 E50.7371
G1 X45.339 Y87.622 E50.82818
G1 X43.363 Y88.183 E50.91965
G1 X41.383 Y88.673 E51.01047
G1 X39.372 Y89.105 E51.10206
