;FLAVOR:Marlin
;TIME:5014
;Filament used: 4.59023m
;Layer height: 0.263
;MINX:24.468
;MINY:26.97
;MINZ:0.306
;MAXX:93.826
;MAXY:93.018
;MAXZ:41.86
;Generated with Cura_SteamEngine master
M140 S65
M105
M190 S65
M104 S220
M105
M109 S220
M82 ;absolute extrusion mode
G90 ; set to absolute positioning - this line was added in case Cura doesn't include it by default
M82 ; set extruder to absolute mode - this line was added in case Cura doesn't include it by default (may not be needed)
G28 ; home all axes
; The lines below are to prep the nozzle before a print begins
G1 Z0.2 F1200 ; raise nozzle 0.2mm
G92 E0 ; reset extrusion distance
G1 Y-1 ; move Y-Axis (bed) 1mm to prep for purge
G1 X25 E3 F600 ; move X-carriage 50mm while purging 3mm of filament
G1 X120;
G92 E0 ; reset extrusion distance
G1 Z5;
G1 X-1 Y0;
G1 Z0;
G1 Y120;
G1 Z5;
G1 X0 Y0;
G1 Z0;
G92 E0
G92 E0
G1 F2400 E-2.5
;LAYER_COUNT:160
;LAYER:0
M107
G0 F2700 X25.043 Y27.312 Z0.306
;TYPE:SKIRT
G1 F2400 E0
G1 F900 X25.338 Y27.128 E0.01548
G1 X25.668 Y27.015 E0.03101
G1 X26.303 Y26.971 E0.05936
G1 X37.192 Y26.97 E0.54421
G1 X37.894 Y26.98 E0.57547
G1 X38.24 Y27.025 E0.59101
G1 X38.566 Y27.147 E0.60651
G1 X38.856 Y27.34 E0.62202
G1 X39.371 Y27.955 E0.65773
G1 X41.096 Y30.152 E0.78211
G1 X42.868 Y32.282 E0.90548
G1 X44.713 Y34.377 E1.02978
G1 X46.596 Y36.397 E1.15275
G1 X48.554 Y38.38 E1.27683
G1 X50.595 Y40.334 E1.40265
G1 X52.646 Y42.19 E1.52581
G1 X54.758 Y43.994 E1.64949
G1 X56.924 Y45.742 E1.77343
G1 X59.166 Y47.448 E1.89887
G1 X61.413 Y49.06 E2.02201
G1 X63.718 Y50.617 E2.14586
G1 X66.08 Y52.117 E2.27045
G1 X68.445 Y53.526 E2.39303
G1 X70.909 Y54.901 E2.51867
G1 X73.368 Y56.184 E2.64217
G1 X75.85 Y57.391 E2.76506
G1 X78.42 Y58.552 E2.89063
G1 X80.967 Y59.618 E3.01357
G1 X83.618 Y60.64 E3.14008
G1 X86.182 Y61.543 E3.26112
G1 X88.869 Y62.407 E3.3868
G1 X89.923 Y62.73 E3.43589
G1 X90.347 Y62.928 E3.45672
G1 X90.613 Y63.153 E3.47224
G1 X90.821 Y63.433 E3.48777
G1 X90.96 Y63.753 E3.5033
G1 X91.034 Y64.475 E3.53562
G1 X91.035 Y90.79 E4.70735
G1 X91.025 Y91.514 E4.73959
G1 X90.98 Y91.86 E4.75512
G1 X90.858 Y92.187 E4.77066
G1 X90.665 Y92.477 E4.78618
G1 X90.411 Y92.716 E4.8017
G1 X90.11 Y92.891 E4.81721
G1 X89.776 Y92.993 E4.83276
G1 X89.498 Y93.018 E4.84519
G1 X88.702 Y93.017 E4.88063
G1 X88.402 Y93.012 E4.89399
G1 X86.722 Y92.958 E4.96883
G1 X86.291 Y92.936 E4.98805
G1 X84.588 Y92.826 E5.06404
G1 X84.097 Y92.785 E5.08598
G1 X82.527 Y92.632 E5.15622
G1 X81.956 Y92.567 E5.1818
G1 X80.41 Y92.365 E5.25123
G1 X79.883 Y92.287 E5.27495
G1 X78.255 Y92.02 E5.34841
G1 X77.803 Y91.938 E5.36886
G1 X76.131 Y91.607 E5.44476
G1 X75.696 Y91.514 E5.46456
G1 X74.08 Y91.14 E5.53842
G1 X73.629 Y91.029 E5.5591
G1 X72.008 Y90.598 E5.63379
G1 X71.592 Y90.479 E5.65305
G1 X69.946 Y89.984 E5.72959
G1 X69.528 Y89.851 E5.74912
G1 X67.925 Y89.31 E5.82445
G1 X67.534 Y89.172 E5.84291
G1 X65.92 Y88.569 E5.91963
G1 X65.516 Y88.41 E5.93896
G1 X63.948 Y87.766 E6.01444
G1 X63.556 Y87.597 E6.03345
G1 X62.009 Y86.902 E6.10897
G1 X61.56 Y86.69 E6.13107
G1 X60.138 Y85.995 E6.20155
G1 X59.665 Y85.753 E6.22521
G1 X58.23 Y84.992 E6.29753
G1 X57.837 Y84.776 E6.3175
G1 X56.319 Y83.904 E6.39545
G1 X55.94 Y83.679 E6.41508
G1 X54.546 Y82.819 E6.48801
G1 X54.117 Y82.545 E6.51068
G1 X52.788 Y81.663 E6.5817
G1 X52.411 Y81.404 E6.60206
G1 X50.994 Y80.397 E6.67947
G1 X50.66 Y80.151 E6.69794
G1 X49.332 Y79.141 E6.77223
G1 X48.941 Y78.832 E6.79442
G1 X47.69 Y77.813 E6.86626
G1 X47.308 Y77.491 E6.88851
G1 X46.07 Y76.414 E6.96157
G1 X45.713 Y76.092 E6.98298
G1 X44.501 Y74.967 E7.05661
G1 X44.168 Y74.645 E7.07724
G1 X42.979 Y73.467 E7.15177
G1 X42.656 Y73.136 E7.17236
G1 X41.537 Y71.951 E7.24493
G1 X41.225 Y71.609 E7.26554
G1 X40.085 Y70.321 E7.34213
G1 X39.806 Y69.993 E7.36131
G1 X38.754 Y68.721 E7.43481
G1 X38.425 Y68.313 E7.45814
G1 X37.46 Y67.063 E7.52846
G1 X37.17 Y66.674 E7.55006
G1 X36.178 Y65.3 E7.62552
G1 X35.92 Y64.931 E7.64557
G1 X35.002 Y63.569 E7.71871
G1 X34.748 Y63.177 E7.7395
G1 X33.859 Y61.759 E7.81403
G1 X33.62 Y61.363 E7.83462
G1 X32.792 Y59.94 E7.90793
G1 X32.581 Y59.563 E7.92717
G1 X31.76 Y58.04 E8.00421
G1 X31.577 Y57.685 E8.02199
G1 X30.807 Y56.134 E8.09909
G1 X30.613 Y55.725 E8.11925
G1 X29.955 Y54.284 E8.18979
G1 X29.76 Y53.838 E8.21146
G1 X29.097 Y52.252 E8.288
G1 X28.949 Y51.878 E8.30591
G1 X28.341 Y50.275 E8.38225
G1 X28.199 Y49.88 E8.40094
G1 X27.665 Y48.319 E8.4744
G1 X27.524 Y47.884 E8.49476
G1 X27.018 Y46.229 E8.57182
G1 X26.905 Y45.832 E8.5902
G1 X26.473 Y44.23 E8.66408
G1 X26.382 Y43.872 E8.68053
G1 X25.963 Y42.082 E8.76239
G1 X25.786 Y41.265 E8.79961
G1 X25.591 Y40.275 E8.84454
G1 X25.47 Y39.612 E8.87455
G1 X25.2 Y37.985 E8.94798
G1 X25.139 Y37.579 E8.96626
G1 X24.935 Y36.033 E9.0357
G1 X24.903 Y35.699 E9.05064
G1 X24.682 Y33.58 E9.1455
G1 X24.663 Y33.35 E9.15578
G1 X24.554 Y31.681 E9.23025
G1 X24.504 Y30.635 E9.27688
G1 X24.481 Y29.808 E9.31372
G1 X24.472 Y29.213 E9.34022
G1 X24.468 Y28.534 E9.37045
G1 X24.502 Y28.187 E9.38598
G1 X24.613 Y27.856 E9.40152
G1 X24.667 Y27.77 E9.40604
G0 F810 X24.796 Y27.56
G0 X25.043 Y27.312
G0 F2700 X25.384 Y27.5
G1 F900 X25.664 Y27.377 E9.41966
G1 X26.313 Y27.32 E9.44867
G1 X37.187 Y27.32 E9.93286
G1 X37.889 Y27.33 E9.96412
G1 X38.191 Y27.374 E9.97771
G1 X38.473 Y27.495 E9.99137
G1 X38.806 Y27.792 E10.01124
G1 X39.082 Y28.154 E10.03151
G1 X40.829 Y30.378 E10.15744
G1 X42.596 Y32.502 E10.28046
G1 X44.465 Y34.624 E10.40637
G1 X46.347 Y36.643 E10.52927
G1 X48.312 Y38.633 E10.6538
G1 X50.349 Y40.583 E10.77936
G1 X52.412 Y42.451 E10.90328
G1 X54.563 Y44.287 E11.0292
G1 X56.703 Y46.014 E11.15165
G1 X58.94 Y47.716 E11.27681
G1 X61.207 Y49.343 E11.40106
G1 X63.537 Y50.916 E11.52624
G1 X65.901 Y52.418 E11.65095
G1 X68.275 Y53.832 E11.77398
G1 X70.715 Y55.194 E11.89841
G1 X73.21 Y56.496 E12.02372
G1 X75.723 Y57.718 E12.14815
G1 X78.283 Y58.875 E12.27324
G1 X80.845 Y59.946 E12.39688
G1 X83.487 Y60.965 E12.52297
G1 X86.075 Y61.876 E12.64514
G1 X88.746 Y62.735 E12.77007
G1 X89.821 Y63.064 E12.82012
G1 X90.184 Y63.241 E12.83811
G1 X90.407 Y63.449 E12.85168
G1 X90.57 Y63.709 E12.86535
G1 X90.676 Y64.164 E12.88615
G1 X90.685 Y64.485 E12.90045
G1 X90.685 Y90.785 E14.07151
G1 X90.675 Y91.509 E14.10375
G1 X90.631 Y91.812 E14.11738
G1 X90.51 Y92.093 E14.13101
G1 X90.321 Y92.334 E14.14464
G1 X90.076 Y92.517 E14.15826
G1 X89.792 Y92.631 E14.17189
G1 X89.498 Y92.668 E14.18508
G1 X88.707 Y92.667 E14.2203
G1 X88.413 Y92.662 E14.23339
G1 X86.74 Y92.608 E14.30793
G1 X86.313 Y92.587 E14.32696
G1 X84.617 Y92.477 E14.40264
G1 X84.13 Y92.437 E14.4244
G1 X82.566 Y92.284 E14.49437
G1 X82.002 Y92.22 E14.51964
G1 X80.461 Y92.018 E14.58885
G1 X79.94 Y91.942 E14.61229
G1 X78.317 Y91.675 E14.68553
G1 X77.871 Y91.595 E14.70571
G1 X76.204 Y91.265 E14.78137
G1 X75.775 Y91.173 E14.80091
G1 X74.164 Y90.801 E14.87453
G1 X73.719 Y90.691 E14.89494
G1 X72.104 Y90.261 E14.96936
G1 X71.693 Y90.144 E14.98839
G1 X70.052 Y89.651 E15.06468
G1 X69.64 Y89.519 E15.08394
G1 X68.042 Y88.981 E15.15902
G1 X67.656 Y88.844 E15.17726
G1 X66.049 Y88.244 E15.25364
G1 X65.649 Y88.086 E15.27279
G1 X64.087 Y87.445 E15.34797
G1 X63.699 Y87.278 E15.36678
G1 X62.158 Y86.585 E15.44201
G1 X61.714 Y86.376 E15.46386
G1 X60.297 Y85.683 E15.5341
G1 X59.829 Y85.444 E15.5575
G1 X58.399 Y84.685 E15.62959
G1 X58.011 Y84.472 E15.6493
G1 X56.498 Y83.603 E15.72699
G1 X56.124 Y83.381 E15.74635
G1 X54.734 Y82.524 E15.81906
G1 X54.311 Y82.253 E15.84143
G1 X52.986 Y81.375 E15.91221
G1 X52.614 Y81.119 E15.93231
G1 X51.202 Y80.116 E16.00943
G1 X50.872 Y79.872 E16.02771
G1 X49.549 Y78.866 E16.10171
G1 X49.162 Y78.561 E16.12365
G1 X47.915 Y77.545 E16.19528
G1 X47.538 Y77.227 E16.21724
G1 X46.304 Y76.153 E16.29008
G1 X45.951 Y75.835 E16.31123
G1 X44.744 Y74.715 E16.38455
G1 X44.414 Y74.397 E16.40496
G1 X43.229 Y73.223 E16.47923
G1 X42.911 Y72.896 E16.49954
G1 X41.796 Y71.715 E16.57186
G1 X41.487 Y71.377 E16.59225
G1 X40.352 Y70.094 E16.66853
G1 X40.076 Y69.77 E16.68748
G1 X39.027 Y68.502 E16.76076
G1 X38.702 Y68.099 E16.78381
G1 X37.74 Y66.854 E16.85387
G1 X37.453 Y66.469 E16.87525
G1 X36.465 Y65.1 E16.95042
G1 X36.211 Y64.736 E16.97019
G1 X35.296 Y63.378 E17.0431
G1 X35.044 Y62.991 E17.06366
G1 X34.159 Y61.578 E17.1379
G1 X33.923 Y61.186 E17.15828
G1 X33.097 Y59.769 E17.23131
G1 X32.889 Y59.397 E17.25028
G1 X32.071 Y57.879 E17.32707
G1 X31.891 Y57.529 E17.34459
G1 X31.123 Y55.984 E17.42141
G1 X30.931 Y55.58 E17.44133
G1 X30.276 Y54.144 E17.51161
G1 X30.083 Y53.703 E17.53304
G1 X29.423 Y52.123 E17.60929
G1 X29.276 Y51.754 E17.62698
G1 X28.671 Y50.156 E17.70306
G1 X28.53 Y49.767 E17.72148
G1 X27.998 Y48.21 E17.79475
G1 X27.858 Y47.781 E17.81484
G1 X27.355 Y46.132 E17.8916
G1 X27.243 Y45.741 E17.90971
G1 X26.812 Y44.144 E17.98337
G1 X26.723 Y43.792 E17.99953
G1 X26.305 Y42.008 E18.08112
G1 X26.129 Y41.197 E18.11807
G1 X25.935 Y40.212 E18.16278
G1 X25.815 Y39.555 E18.19251
G1 X25.546 Y37.934 E18.26568
G1 X25.486 Y37.533 E18.28373
G1 X25.283 Y36 E18.35259
G1 X25.251 Y35.666 E18.36753
G1 X25.031 Y33.551 E18.46221
G1 X25.013 Y33.327 E18.47222
G1 X24.903 Y31.664 E18.54643
G1 X24.853 Y30.626 E18.5927
G1 X24.831 Y29.803 E18.62936
G1 X24.822 Y29.208 E18.65586
G1 X24.818 Y28.527 E18.68618
G1 X24.852 Y28.223 E18.6998
G1 X24.964 Y27.938 E18.71344
G1 X24.973 Y27.926 E18.7141
G0 F810 X25.145 Y27.692
G0 X25.384 Y27.5
G1 F2400 E16.2141
;MESH:body_a.stl
G0 F2700 X26.381 Y28.884
G0 X36.845 Y29.527
G0 X37.003 Y43.62
;TYPE:WALL-INNER
G1 F2400 E18.7141
G1 F900 X67.969 Y65.063 E20.39124
G1 X88.635 Y65.063 E21.31143
G1 X88.635 Y90.439 E22.44135
G1 X88.635 Y90.44 E22.4414
G1 X88.635 Y90.616 E22.44923
G1 X88.459 Y90.615 E22.4543
G1 X88.458 Y90.614 E22.45436
G1 X87.67 Y90.6 E22.48945
G1 X85.586 Y90.499 E22.58236
G1 X83.556 Y90.333 E22.67305
G1 X81.503 Y90.099 E22.76505
G1 X79.457 Y89.798 E22.85714
G1 X77.455 Y89.437 E22.94772
G1 X75.434 Y89.003 E23.03976
G1 X73.449 Y88.511 E23.13082
G1 X71.467 Y87.948 E23.22256
G1 X69.492 Y87.32 E23.31484
G1 X67.579 Y86.641 E23.40523
G1 X65.657 Y85.887 E23.49716
G1 X63.754 Y85.069 E23.58939
G1 X61.906 Y84.201 E23.6803
G1 X60.077 Y83.269 E23.77171
G1 X58.274 Y82.276 E23.86336
G1 X56.499 Y81.219 E23.95535
G1 X54.782 Y80.121 E24.04609
G1 X53.1 Y78.966 E24.13695
G1 X51.434 Y77.741 E24.22902
G1 X49.839 Y76.486 E24.31939
G1 X48.259 Y75.155 E24.41138
G1 X46.73 Y73.782 E24.50288
G1 X45.274 Y72.383 E24.59279
G1 X43.833 Y70.905 E24.68471
G1 X42.45 Y69.392 E24.77598
G1 X41.119 Y67.836 E24.86715
G1 X39.834 Y66.23 E24.95874
G1 X38.608 Y64.59 E25.04991
G1 X37.449 Y62.929 E25.14009
G1 X36.332 Y61.209 E25.23141
G1 X35.274 Y59.459 E25.32247
G1 X34.279 Y57.682 E25.41315
G1 X33.331 Y55.851 E25.50496
G1 X32.456 Y54.016 E25.59548
G1 X31.637 Y52.142 E25.68655
G1 X30.879 Y50.239 E25.77776
G1 X30.186 Y48.317 E25.86873
G1 X29.557 Y46.375 E25.95962
G1 X28.993 Y44.414 E26.05048
G1 X28.497 Y42.445 E26.14089
G1 X28.06 Y40.431 E26.23266
G1 X27.692 Y38.434 E26.32308
G1 X27.395 Y36.439 E26.41289
G1 X27.154 Y34.352 E26.50643
G1 X26.99 Y32.363 E26.5953
G1 X26.89 Y30.31 E26.68682
G1 X26.877 Y29.547 E26.7208
G1 X26.876 Y29.546 E26.72086
G1 X26.875 Y29.37 E26.7287
G1 X27.051 Y29.37 E26.73376
G1 X27.052 Y29.37 E26.73381
G1 X37.002 Y29.37 E27.17685
G1 X37.003 Y43.023 E27.78478
G0 F810 X37.003 Y43.62
G0 F2700 X37.353 Y43.437
G1 F900 X68.078 Y64.713 E29.44886
G1 X88.985 Y64.713 E30.37978
G1 X88.985 Y90.795 E31.54114
G1 X88.985 Y90.796 E31.54118
G1 X88.985 Y90.972 E31.54902
G1 X88.809 Y90.971 E31.55408
G1 X88.808 Y90.97 E31.55415
G1 X87.653 Y90.95 E31.60558
G1 X85.569 Y90.849 E31.69849
G1 X83.519 Y90.681 E31.79007
G1 X81.463 Y90.447 E31.88221
G1 X79.406 Y90.144 E31.97479
G1 X77.382 Y89.779 E32.06637
G1 X75.35 Y89.343 E32.15891
G1 X73.354 Y88.848 E32.25047
G1 X71.366 Y88.284 E32.34249
G1 X69.386 Y87.654 E32.43501
G1 X67.454 Y86.968 E32.52629
G1 X65.521 Y86.21 E32.61875
G1 X63.616 Y85.391 E32.71108
G1 X61.757 Y84.518 E32.80253
G1 X59.908 Y83.576 E32.89493
G1 X58.105 Y82.583 E32.98658
G1 X56.311 Y81.515 E33.07954
G1 X54.593 Y80.416 E33.17035
G1 X52.902 Y79.255 E33.26169
G1 X51.227 Y78.023 E33.35427
G1 X49.614 Y76.754 E33.44566
G1 X48.034 Y75.423 E33.53764
G1 X46.496 Y74.042 E33.62968
G1 X45.023 Y72.627 E33.72063
G1 X43.582 Y71.149 E33.81254
G1 X42.184 Y69.62 E33.90479
G1 X40.853 Y68.064 E33.99597
G1 X39.561 Y66.449 E34.08806
G1 X38.328 Y64.8 E34.17974
G1 X37.162 Y63.129 E34.27047
G1 X36.032 Y61.39 E34.36281
G1 X34.974 Y59.64 E34.45387
G1 X33.968 Y57.843 E34.54557
G1 X33.02 Y56.012 E34.63738
G1 X32.14 Y54.167 E34.7284
G1 X31.316 Y52.282 E34.82
G1 X30.554 Y50.368 E34.91173
G1 X29.857 Y48.436 E35.00318
G1 X29.224 Y46.483 E35.0946
G1 X28.657 Y44.511 E35.18596
G1 X28.158 Y42.531 E35.27688
G1 X27.718 Y40.505 E35.3692
G1 X27.348 Y38.497 E35.46011
G1 X27.047 Y36.479 E35.55096
G1 X26.806 Y34.392 E35.64451
G1 X26.641 Y32.392 E35.73386
G1 X26.54 Y30.327 E35.82592
G1 X26.521 Y29.197 E35.87624
G1 X26.52 Y29.196 E35.87631
G1 X26.519 Y29.02 E35.88414
G1 X26.695 Y29.02 E35.88921
G1 X26.696 Y29.02 E35.88925
G1 X37.352 Y29.02 E36.36373
G1 X37.353 Y42.84 E36.9791
G0 F810 X37.353 Y43.437
G0 F2700 X37.678 Y43.267
;TYPE:WALL-OUTER
G1 F900 X68.18 Y64.388 E38.63108
G1 X89.31 Y64.388 E39.57194
G1 X89.31 Y91.125 E40.76246
G1 X89.31 Y91.126 E40.7625
G1 X89.31 Y91.302 E40.77034
G1 X89.134 Y91.301 E40.7754
G1 X89.133 Y91.3 E40.77547
G1 X87.637 Y91.275 E40.84209
G1 X85.553 Y91.174 E40.93499
G1 X83.488 Y91.005 E41.02725
G1 X81.416 Y90.769 E41.1201
G1 X79.359 Y90.466 E41.21268
G1 X77.32 Y90.098 E41.30494
G1 X75.282 Y89.661 E41.39775
G1 X73.265 Y89.161 E41.49028
G1 X71.272 Y88.596 E41.58252
G1 X69.287 Y87.964 E41.67528
G1 X67.335 Y87.271 E41.76751
G1 X65.402 Y86.513 E41.85996
G1 X63.488 Y85.69 E41.95273
G1 X61.609 Y84.808 E42.04516
G1 X59.76 Y83.866 E42.13755
G1 X57.948 Y82.868 E42.22967
G1 X56.136 Y81.789 E42.32357
G1 X54.418 Y80.69 E42.41438
G1 X52.709 Y79.517 E42.50668
G1 X51.034 Y78.285 E42.59926
G1 X49.405 Y77.003 E42.69156
G1 X47.825 Y75.672 E42.78355
G1 X46.279 Y74.284 E42.87606
G1 X44.79 Y72.854 E42.96799
G1 X43.349 Y71.376 E43.0599
G1 X41.944 Y69.839 E43.15263
G1 X40.599 Y68.267 E43.24475
G1 X39.307 Y66.652 E43.33684
G1 X38.068 Y64.995 E43.42896
G1 X36.889 Y63.306 E43.52068
G1 X35.759 Y61.567 E43.61302
G1 X34.69 Y59.799 E43.70502
G1 X33.684 Y58.002 E43.79672
G1 X32.731 Y56.161 E43.88903
G1 X31.842 Y54.297 E43.98098
G1 X31.018 Y52.412 E44.07258
G1 X30.252 Y50.488 E44.16479
G1 X29.551 Y48.546 E44.25673
G1 X28.915 Y46.583 E44.34861
G1 X28.345 Y44.601 E44.44043
G1 X27.84 Y42.6 E44.53233
G1 X27.4 Y40.574 E44.62464
G1 X27.029 Y38.556 E44.716
G1 X26.724 Y36.516 E44.80785
G1 X26.488 Y34.464 E44.89982
G1 X26.485 Y34.454 E44.90028
G1 X26.317 Y32.419 E44.9912
G1 X26.215 Y30.343 E45.08375
G1 X26.191 Y28.872 E45.14926
G1 X26.19 Y28.871 E45.14933
G1 X26.189 Y28.695 E45.15716
G1 X26.365 Y28.695 E45.16223
G1 X26.366 Y28.695 E45.16227
G1 X37.677 Y28.695 E45.66592
G1 X37.678 Y42.67 E46.28818
G0 F810 X37.678 Y43.267
G0 F2700 X37.842 Y43.38
G0 X37.685 Y43.606
G0 X36.906 Y43.671
G0 X36.663 Y43.798
;TYPE:SKIN
G1 F900 X67.862 Y65.403 E47.97795
G1 X88.295 Y65.403 E48.88777
G1 X88.295 Y90.27 E49.99503
G1 X87.686 Y90.26 E50.02215
G1 X85.568 Y90.158 E50.11656
G1 X83.595 Y89.995 E50.20472
G1 X81.542 Y89.761 E50.29672
G1 X79.506 Y89.462 E50.38835
G1 X77.527 Y89.105 E50.47789
G1 X75.516 Y88.673 E50.56948
G1 X73.536 Y88.182 E50.66031
G1 X71.565 Y87.622 E50.75155
G1 X69.595 Y86.996 E50.84359
G1 X67.698 Y86.322 E50.93323
G1 X65.781 Y85.57 E51.02492
G1 X63.844 Y84.737 E51.11881
G1 X62.06 Y83.898 E51.20659
G1 X60.236 Y82.968 E51.29775
G1 X58.444 Y81.981 E51.38885
G1 X56.673 Y80.927 E51.48062
G1 X54.97 Y79.838 E51.57062
G1 X53.302 Y78.692 E51.66073
G1 X51.636 Y77.467 E51.75281
G1 X50.049 Y76.218 E51.84274
G1 X48.482 Y74.898 E51.93397
G1 X46.957 Y73.529 E52.02522
G1 X45.509 Y72.138 E52.11462
G1 X44.076 Y70.668 E52.20603
G1 X42.705 Y69.167 E52.29655
G1 X41.381 Y67.619 E52.38725
G1 X40.1 Y66.018 E52.47855
G1 X38.884 Y64.391 E52.56899
G1 X37.728 Y62.735 E52.65892
G1 X36.62 Y61.028 E52.74953
G1 X35.568 Y59.287 E52.84011
G1 X34.576 Y57.516 E52.93049
G1 X33.636 Y55.7 E53.02154
G1 X32.763 Y53.87 E53.11183
