;FLAVOR:Marlin
;TIME:4472
;Filament used: 2.93108m
;Layer height: 0.263
;MINX:12.168
;MINY:13.253
;MINZ:0.263
;MAXX:110.261
;MAXY:103.765
;MAXZ:3.156
;Generated with Cura_SteamEngine master
M140 S65
M105
M190 S65
M104 S215
M105
M109 S215
M82 ;absolute extrusion mode
G21;(metric values)
G90;(absolute positioning)
M82;(set extruder to absolute mode)
M107;(start with the fan off)
G28;(Home the printer)
G92 E0;(Reset the extruder to 0)
G0 X0 Y-1 Z0;(Move outside the printable area)
G1 X60 E8 F500;(Draw a priming/wiping line to the side)
G92 E0;(Zero the extruder)
G1 X100; (Move the rest of the way to wipe)
G1 Z5;
G1 X0 Y0;
G1 Z0;
G92 E0
G92 E0
G1 F2400 E-2.5
;LAYER_COUNT:12
;LAYER:0
M107
;MESH:TRN_BLADE_8.STL
G0 F1800 X27.677 Y82.294 Z0.263
;TYPE:WALL-INNER
G1 F2400 E0
G1 F1200 X27.598 Y82.453 E0.00679
G1 X27.441 Y82.371 E0.01115
G1 X13.067 Y74.894 E0.63122
G1 X13.569 Y73.889 E0.67421
G1 X18.036 Y66.304 E1.01108
G1 X23.026 Y59.036 E1.34848
G1 X28.506 Y52.146 E1.68539
G1 X34.439 Y45.668 E2.02156
G1 X40.837 Y39.594 E2.35918
G1 X47.619 Y34.001 E2.6956
G1 X54.792 Y28.882 E3.03285
G1 X62.302 Y24.277 E3.36999
G1 X70.084 Y20.224 E3.70577
G1 X78.172 Y16.705 E4.04333
G1 X85.287 Y14.183 E4.33222
G1 X85.457 Y14.123 E4.33912
G1 X85.511 Y14.295 E4.34354
G1 X90.388 Y29.749 E4.96371
G1 X84.183 Y31.947 E5.21563
G1 X77.159 Y35.004 E5.5088
G1 X70.365 Y38.542 E5.80195
G1 X63.836 Y42.546 E6.09505
G1 X57.6 Y46.994 E6.38819
G1 X51.69 Y51.869 E6.68139
G1 X46.136 Y57.143 E6.9745
G1 X40.963 Y62.791 E7.26761
G1 X36.195 Y68.787 E7.56078
G1 X31.859 Y75.1 E7.85388
G1 X27.988 Y81.674 E8.14584
G0 F1080 X27.972 Y81.701
G0 X27.677 Y82.294
G0 F1800 X27.831 Y82.769
G1 F1200 X27.752 Y82.928 E8.15264
G1 X27.595 Y82.846 E8.15699
G1 X12.601 Y75.046 E8.80381
G1 X13.267 Y73.711 E8.86091
G1 X17.738 Y66.118 E9.19812
G1 X22.743 Y58.83 E9.53647
G1 X28.232 Y51.928 E9.87396
G1 X34.194 Y45.418 E10.21179
G1 X40.605 Y39.331 E10.55011
G1 X47.403 Y33.726 E10.88729
G1 X54.596 Y28.592 E11.2255
G1 X62.131 Y23.972 E11.56375
G1 X69.939 Y19.905 E11.90067
G1 X78.043 Y16.379 E12.23889
G1 X85.512 Y13.732 E12.54215
G1 X85.682 Y13.672 E12.54905
G1 X85.736 Y13.844 E12.55346
G1 X90.824 Y29.966 E13.20045
G1 X84.311 Y32.273 E13.46487
G1 X77.31 Y35.32 E13.75708
G1 X70.538 Y38.847 E14.04929
G1 X64.029 Y42.838 E14.34148
G1 X57.813 Y47.272 E14.63369
G1 X51.922 Y52.131 E14.92593
G1 X46.386 Y57.388 E15.2181
G1 X41.229 Y63.018 E15.51028
G1 X36.477 Y68.995 E15.80251
G1 X32.154 Y75.288 E16.09469
G1 X28.28 Y81.868 E16.38691
G1 X28.14 Y82.148 E16.39889
G0 F1080 X27.831 Y82.769
G0 F1800 X27.975 Y83.21
;TYPE:WALL-OUTER
G1 F1200 X27.896 Y83.369 E16.40568
G1 X27.739 Y83.287 E16.41004
G1 X12.168 Y75.187 E17.08175
G1 X12.98 Y73.557 E17.15144
G1 X17.464 Y65.942 E17.48963
G1 X22.475 Y58.646 E17.82836
G1 X27.992 Y51.708 E18.16759
G1 X33.96 Y45.192 E18.50575
G1 X40.389 Y39.088 E18.84502
G1 X47.206 Y33.466 E19.18318
G1 X54.41 Y28.325 E19.52188
G1 X61.967 Y23.691 E19.86113
G1 X69.804 Y19.609 E20.19929
G1 X77.92 Y16.078 E20.53802
G1 X85.721 Y13.313 E20.85476
G1 X85.891 Y13.253 E20.86166
G1 X85.945 Y13.425 E20.86607
G1 X91.228 Y30.167 E21.53793
G1 X84.43 Y32.576 E21.81394
G1 X77.45 Y35.613 E22.10526
G1 X70.698 Y39.13 E22.39661
G1 X64.209 Y43.109 E22.68791
G1 X58.011 Y47.53 E22.97927
G1 X52.138 Y52.374 E23.27061
G1 X46.618 Y57.616 E23.56194
G1 X41.476 Y63.229 E23.85326
G1 X36.738 Y69.188 E24.14461
G1 X32.428 Y75.463 E24.43594
G1 X28.566 Y82.023 E24.72727
G1 X28.284 Y82.589 E24.75147
G0 F1080 X27.975 Y83.21
G0 F1800 X27.896 Y83.369
G0 X27.876 Y83.359
G0 X27.788 Y83.037
G0 X27.329 Y82.217
G0 X27.447 Y81.992
;TYPE:SKIN
G1 F1200 X13.521 Y74.747 E25.35223
G1 X13.874 Y74.041 E25.38244
G1 X18.329 Y66.477 E25.71839
G1 X23.292 Y59.248 E26.05396
G1 X28.772 Y52.358 E26.39087
G1 X34.682 Y45.906 E26.72572
G1 X41.066 Y39.845 E27.06261
G1 X47.825 Y34.271 E27.39789
G1 X54.98 Y29.165 E27.73429
G1 X62.469 Y24.573 E28.07048
G1 X70.231 Y20.53 E28.40541
G1 X78.288 Y17.025 E28.74166
G1 X85.238 Y14.561 E29.02386
G1 X89.965 Y29.538 E29.6249
G1 X84.058 Y31.63 E29.86472
G1 X77.013 Y34.697 E30.15877
G1 X70.198 Y38.246 E30.45283
G1 X63.648 Y42.262 E30.74686
G1 X57.392 Y46.724 E31.04093
G1 X51.465 Y51.614 E31.33499
G1 X45.893 Y56.904 E31.62903
G1 X40.704 Y62.57 E31.92306
G1 X35.921 Y68.585 E32.21716
G1 X31.572 Y74.917 E32.51114
G1 X27.768 Y81.377 E32.79804
G0 F1080 X27.673 Y81.539
G0 X27.447 Y81.992
G0 F1800 X27.329 Y82.217
G0 X13.276 Y74.826
G0 X13.752 Y74.634
G1 F1200 X13.866 Y74.748 E32.80421
G0 F1800 X13.917 Y74.304
G1 F1200 X14.898 Y75.284 E32.85727
G1 X14.96 Y75.346
G0 F1800 X14.781 Y75.689
G0 X15.739 Y76.187
G0 X15.93 Y75.822
G1 F1200 X14.089 Y73.981 E32.95691
G0 F1800 X14.272 Y73.669
G1 F1200 X16.962 Y76.359 E33.1025
G1 X17.024 Y76.421
G0 F1800 X16.845 Y76.763
G0 X17.802 Y77.26
G0 X17.993 Y76.895
G1 F1200 X14.456 Y73.358 E33.29393
G0 F1800 X14.639 Y73.046
G1 F1200 X19.025 Y77.432 E33.53131
G1 X19.087 Y77.494
G0 F1800 X18.908 Y77.836
G0 X19.866 Y78.334
G0 X20.057 Y77.969
G1 F1200 X14.823 Y72.735 E33.81458
G0 F1800 X15.006 Y72.423
G1 F1200 X21.089 Y78.506 E34.14381
G1 X21.151 Y78.568
G0 F1800 X20.972 Y78.91
G0 X21.93 Y79.408
G0 X22.121 Y79.043
G1 F1200 X15.19 Y72.112 E34.51892
G0 F1800 X15.373 Y71.801
G1 F1200 X23.152 Y79.579 E34.93991
G1 X23.214 Y79.641
G0 F1800 X23.035 Y79.983
G0 X23.993 Y80.481
G0 X24.184 Y80.116
G1 F1200 X15.557 Y71.489 E35.40682
G0 F1800 X15.74 Y71.178
G1 F1200 X25.216 Y80.654 E35.91968
G1 X25.278 Y80.716
G0 F1800 X25.1 Y81.057
G0 X26.057 Y81.555
G0 X26.248 Y81.19
G1 F1200 X15.924 Y70.866 E36.47843
G0 F1800 X16.107 Y70.555
G1 F1200 X27.28 Y81.727 E37.08311
G0 F1800 X27.526 Y81.479
G1 F1200 X16.291 Y70.243 E37.6912
G0 F1800 X16.474 Y69.932
G1 F1200 X27.709 Y81.166 E38.29923
G0 F1800 X27.893 Y80.855
G1 F1200 X16.658 Y69.62 E38.90729
G0 F1800 X16.841 Y69.309
G1 F1200 X28.076 Y80.543 E39.51532
G0 F1800 X28.26 Y80.232
G1 F1200 X17.025 Y68.997 E40.12338
G0 F1800 X17.208 Y68.686
G1 F1200 X28.443 Y79.92 E40.73141
G0 F1800 X28.626 Y79.608
G1 F1200 X17.391 Y68.374 E41.33944
G0 F1800 X17.575 Y68.063
G1 F1200 X28.81 Y79.297 E41.94748
G0 F1800 X28.993 Y78.985
G1 F1200 X17.758 Y67.751 E42.55551
G0 F1800 X17.942 Y67.44
G1 F1200 X29.177 Y78.674 E43.16354
G0 F1800 X29.36 Y78.362
G1 F1200 X18.125 Y67.128 E43.77157
G0 F1800 X18.309 Y66.817
G1 F1200 X29.543 Y78.051 E44.37958
G0 F1800 X29.727 Y77.74
G1 F1200 X18.495 Y66.508 E44.98747
G0 F1800 X18.697 Y66.214
G1 F1200 X29.91 Y77.428 E45.59437
G0 F1800 X30.094 Y77.117
G1 F1200 X18.898 Y65.921 E46.20032
G0 F1800 X19.1 Y65.627
G1 F1200 X30.277 Y76.805 E46.80527
G0 F1800 X30.46 Y76.493
G1 F1200 X19.301 Y65.334 E47.40921
G0 F1800 X19.503 Y65.041
G1 F1200 X30.644 Y76.182 E48.01218
G0 F1800 X30.827 Y75.87
G1 F1200 X19.704 Y64.747 E48.61418
G0 F1800 X19.906 Y64.454
G1 F1200 X31.011 Y75.559 E49.2152
G0 F1800 X31.194 Y75.247
G1 F1200 X20.107 Y64.16 E49.81525
G0 F1800 X20.309 Y63.867
G1 F1200 X31.378 Y74.936 E50.41433
G0 F1800 X31.573 Y74.636
G1 F1200 X20.511 Y63.573 E51.01305
G0 F1800 X20.712 Y63.28
G1 F1200 X31.775 Y74.343 E51.6118
G0 F1800 X31.976 Y74.049
G1 F1200 X20.914 Y62.986 E52.21053
G0 F1800 X21.115 Y62.693
G1 F1200 X32.178 Y73.756 E52.80928
G0 F1800 X32.379 Y73.462
G1 F1200 X21.317 Y62.4 E53.40797
G0 F1800 X21.518 Y62.106
G1 F1200 X32.581 Y73.169 E54.00672
G0 F1800 X32.782 Y72.875
G1 F1200 X21.719 Y61.812 E54.60547
G0 F1800 X21.921 Y61.518
G1 F1200 X32.984 Y72.582 E55.20425
G0 F1800 X33.185 Y72.288
G1 F1200 X22.122 Y61.225 E55.803
G0 F1800 X22.324 Y60.932
G1 F1200 X33.387 Y71.995 E56.40175
G0 F1800 X33.588 Y71.702
G1 F1200 X22.525 Y60.638 E57.00053
G0 F1800 X22.727 Y60.345
G1 F1200 X33.79 Y71.408 E57.59928
G0 F1800 X33.992 Y71.115
G1 F1200 X22.928 Y60.051 E58.19808
G0 F1800 X23.13 Y59.758
G1 F1200 X34.194 Y70.822 E58.79689
G0 F1800 X34.395 Y70.528
G1 F1200 X23.331 Y59.464 E59.39569
G0 F1800 X23.543 Y59.182
G1 F1200 X34.597 Y70.235 E59.99393
G0 F1800 X34.798 Y69.942
G1 F1200 X23.763 Y58.906 E60.59119
G0 F1800 X23.982 Y58.63
G1 F1200 X35 Y69.648 E61.1875
G0 F1800 X35.201 Y69.355
G1 F1200 X24.201 Y58.354 E61.78287
G0 F1800 X24.42 Y58.078
G1 F1200 X35.403 Y69.061 E62.37729
G0 F1800 X35.604 Y68.768
G1 F1200 X24.639 Y57.803 E62.97074
G0 F1800 X24.859 Y57.528
G1 F1200 X35.807 Y68.475 E63.56324
G0 F1800 X36.026 Y68.199
G1 F1200 X25.078 Y57.252 E64.15574
G0 F1800 X25.298 Y56.976
G1 F1200 X36.245 Y67.923 E64.74821
G0 F1800 X36.464 Y67.648
G1 F1200 X25.517 Y56.7 E65.34071
G0 F1800 X25.736 Y56.424
G1 F1200 X36.683 Y67.372 E65.93321
G0 F1800 X36.903 Y67.096
G1 F1200 X25.955 Y56.149 E66.52571
G0 F1800 X26.174 Y55.873
G1 F1200 X37.122 Y66.82 E67.11821
G0 F1800 X37.341 Y66.545
G1 F1200 X26.394 Y55.597 E67.7107
G0 F1800 X26.613 Y55.321
G1 F1200 X37.561 Y66.27 E68.30326
G0 F1800 X37.78 Y65.994
G1 F1200 X26.833 Y55.046 E68.89576
G0 F1800 X27.052 Y54.771
G1 F1200 X37.999 Y65.718 E69.48823
G0 F1800 X38.219 Y65.442
G1 F1200 X27.271 Y54.495 E70.08073
G0 F1800 X27.49 Y54.219
G1 F1200 X38.438 Y65.166 E70.67323
G0 F1800 X38.657 Y64.891
G1 F1200 X27.71 Y53.943 E71.26573
G0 F1800 X27.929 Y53.667
G1 F1200 X38.876 Y64.615 E71.85823
G0 F1800 X39.095 Y64.339
G1 F1200 X28.148 Y53.392 E72.4507
G0 F1800 X28.367 Y53.116
G1 F1200 X39.315 Y64.063 E73.0432
G0 F1800 X39.534 Y63.788
G1 F1200 X28.586 Y52.84 E73.63572
G0 F1800 X28.806 Y52.565
G1 F1200 X39.753 Y63.512 E74.2282
G0 F1800 X39.972 Y63.236
G1 F1200 X29.035 Y52.299 E74.82013
G0 F1800 X29.272 Y52.041
G1 F1200 X40.191 Y62.96 E75.41108
G0 F1800 X40.411 Y62.685
G1 F1200 X29.509 Y51.783 E76.00112
G0 F1800 X29.745 Y51.524
G1 F1200 X40.633 Y62.412 E76.5904
G0 F1800 X40.87 Y62.154
G1 F1200 X29.982 Y51.266 E77.17968
G0 F1800 X30.219 Y51.008
G1 F1200 X41.106 Y61.895 E77.7689
G0 F1800 X41.343 Y61.637
G1 F1200 X30.455 Y50.749 E78.35818
G0 F1800 X30.692 Y50.491
G1 F1200 X41.58 Y61.379 E78.94746
G0 F1800 X41.816 Y61.12
G1 F1200 X30.929 Y50.233 E79.53669
G0 F1800 X31.165 Y49.974
G1 F1200 X42.053 Y60.862 E80.12596
G0 F1800 X42.29 Y60.604
G1 F1200 X31.402 Y49.716 E80.71524
G0 F1800 X31.638 Y49.457
G1 F1200 X42.526 Y60.345 E81.30452
G0 F1800 X42.763 Y60.087
G1 F1200 X31.875 Y49.199 E81.8938
G0 F1800 X32.112 Y48.941
G1 F1200 X42.999 Y59.829 E82.48305
G0 F1800 X43.236 Y59.57
G1 F1200 X32.348 Y48.682 E83.07233
G0 F1800 X32.585 Y48.424
G1 F1200 X43.473 Y59.312 E83.66161
G0 F1800 X43.709 Y59.054
G1 F1200 X32.822 Y48.166 E84.25086
G0 F1800 X33.058 Y47.907
G1 F1200 X43.946 Y58.795 E84.84014
G0 F1800 X44.182 Y58.537
G1 F1200 X33.295 Y47.649 E85.42939
G0 F1800 X33.532 Y47.391
G1 F1200 X44.419 Y58.279 E86.01865
G0 F1800 X44.656 Y58.02
G1 F1200 X33.768 Y47.132 E86.60792
G0 F1800 X34.005 Y46.874
G1 F1200 X44.892 Y57.762 E87.19718
G0 F1800 X45.129 Y57.504
G1 F1200 X34.242 Y46.616 E87.78643
G0 F1800 X34.478 Y46.357
G1 F1200 X45.365 Y57.245 E88.37568
G0 F1800 X45.602 Y56.987
G1 F1200 X34.715 Y46.099 E88.96493
G0 F1800 X34.963 Y45.853
G1 F1200 X45.843 Y56.732 E89.55375
G0 F1800 X46.096 Y56.491
G1 F1200 X35.218 Y45.612 E90.14252
G0 F1800 X35.472 Y45.371
G1 F1200 X46.35 Y56.25 E90.73128
G0 F1800 X46.604 Y56.009
G1 F1200 X35.725 Y45.13 E91.32007
G0 F1800 X35.979 Y44.889
G1 F1200 X46.858 Y55.768 E91.90886
G0 F1800 X47.112 Y55.526
G1 F1200 X36.233 Y44.648 E92.49763
G0 F1800 X36.487 Y44.407
G1 F1200 X47.366 Y55.285 E93.08639
G0 F1800 X47.62 Y55.044
G1 F1200 X36.741 Y44.165 E93.67519
G0 F1800 X36.995 Y43.924
G1 F1200 X47.874 Y54.804 E94.264
G0 F1800 X48.128 Y54.563
G1 F1200 X37.248 Y43.683 E94.85285
G0 F1800 X37.502 Y43.442
G1 F1200 X48.382 Y54.322 E95.4417
G0 F1800 X48.636 Y54.08
G1 F1200 X37.756 Y43.201 E96.03052
G0 F1800 X38.01 Y42.96
G1 F1200 X48.89 Y53.839 E96.61933
G0 F1800 X49.143 Y53.598
G1 F1200 X38.265 Y42.719 E97.2081
G0 F1800 X38.518 Y42.478
G1 F1200 X49.397 Y53.357 E97.79689
G0 F1800 X49.651 Y53.116
G1 F1200 X38.772 Y42.237 E98.38568
G0 F1800 X39.026 Y41.996
G1 F1200 X49.905 Y52.875 E98.97447
G0 F1800 X50.159 Y52.634
G1 F1200 X39.28 Y41.755 E99.56327
G0 F1800 X39.534 Y41.514
G1 F1200 X50.413 Y52.393 E100.15206
G0 F1800 X50.667 Y52.152
G1 F1200 X39.788 Y41.273 E100.74085
G0 F1800 X40.042 Y41.031
G1 F1200 X50.921 Y51.911 E101.32967
G0 F1800 X51.175 Y51.67
G1 F1200 X40.295 Y40.79 E101.91852
G0 F1800 X40.549 Y40.549
G1 F1200 X51.434 Y51.434 E102.50763
G0 F1800 X51.705 Y51.21
G1 F1200 X40.803 Y40.308 E103.09767
G0 F1800 X41.058 Y40.068
G1 F1200 X51.976 Y50.986 E103.68857
G0 F1800 X52.247 Y50.762
G1 F1200 X41.321 Y39.836 E104.27991
G0 F1800 X41.592 Y39.612
G1 F1200 X52.518 Y50.539 E104.87127
G0 F1800 X52.789 Y50.314
G1 F1200 X41.864 Y39.389 E105.46255
G0 F1800 X42.135 Y39.165
G1 F1200 X53.061 Y50.091 E106.05389
G0 F1800 X53.332 Y49.867
G1 F1200 X42.406 Y38.941 E106.64522
G0 F1800 X42.678 Y38.718
G1 F1200 X53.603 Y49.643 E107.2365
G0 F1800 X53.875 Y49.42
G1 F1200 X42.949 Y38.494 E107.82784
G0 F1800 X43.22 Y38.27
G1 F1200 X54.145 Y49.196 E108.41915
G0 F1800 X54.417 Y48.972
G1 F1200 X43.492 Y38.047 E109.01043
G0 F1800 X43.763 Y37.823
G1 F1200 X54.688 Y48.748 E109.60171
G0 F1800 X54.959 Y48.525
G1 F1200 X44.034 Y37.599 E110.19302
G0 F1800 X44.305 Y37.376
G1 F1200 X55.23 Y48.301 E110.7843
G0 F1800 X55.502 Y48.077
G1 F1200 X44.577 Y37.152 E111.37558
G0 F1800 X44.848 Y36.928
G1 F1200 X55.773 Y47.853 E111.96686
G0 F1800 X56.044 Y47.63
G1 F1200 X45.119 Y36.705 E112.55814
G0 F1800 X45.391 Y36.481
G1 F1200 X56.316 Y47.406 E113.14943
G0 F1800 X56.586 Y47.182
G1 F1200 X45.662 Y36.257 E113.74068
G0 F1800 X45.933 Y36.034
G1 F1200 X56.858 Y46.958 E114.33193
G0 F1800 X57.129 Y46.734
G1 F1200 X46.205 Y35.81 E114.92316
G0 F1800 X46.476 Y35.586
G1 F1200 X57.407 Y46.518 E115.5148
G0 F1800 X57.696 Y46.311
G1 F1200 X46.747 Y35.363 E116.10735
G0 F1800 X47.019 Y35.139
G1 F1200 X57.985 Y46.106 E116.70088
G0 F1800 X58.274 Y45.899
G1 F1200 X47.289 Y34.915 E117.29538
G0 F1800 X47.561 Y34.692
G1 F1200 X58.563 Y45.693 E117.8908
G0 F1800 X58.852 Y45.488
G1 F1200 X47.832 Y34.468 E118.48722
G0 F1800 X48.115 Y34.256
G1 F1200 X59.14 Y45.281 E119.08392
G0 F1800 X59.43 Y45.075
G1 F1200 X48.404 Y34.05 E119.68064
G0 F1800 X48.693 Y33.844
G1 F1200 X59.718 Y44.869 E120.27733
G0 F1800 X60.007 Y44.663
G1 F1200 X48.982 Y33.638 E120.87402
G0 F1800 X49.271 Y33.432
G1 F1200 X60.297 Y44.457 E121.47075
G0 F1800 X60.585 Y44.251
G1 F1200 X49.56 Y33.226 E122.06744
G0 F1800 X49.848 Y33.019
G1 F1200 X60.874 Y44.045 E122.66419
G0 F1800 X61.163 Y43.839
G1 F1200 X50.138 Y32.813 E123.26091
G0 F1800 X50.426 Y32.607
G1 F1200 X61.452 Y43.633 E123.85765
G0 F1800 X61.741 Y43.427
G1 F1200 X50.715 Y32.401 E124.4544
G0 F1800 X51.004 Y32.195
G1 F1200 X62.03 Y43.221 E125.05115
G0 F1800 X62.319 Y43.015
G1 F1200 X51.292 Y31.988 E125.64795
G0 F1800 X51.582 Y31.783
G1 F1200 X62.607 Y42.808 E126.24465
G0 F1800 X62.897 Y42.603
G1 F1200 X51.87 Y31.576 E126.84145
G0 F1800 X52.159 Y31.37
G1 F1200 X63.186 Y42.397 E127.43825
G0 F1800 X63.474 Y42.19
G1 F1200 X52.448 Y31.164 E128.035
G0 F1800 X52.737 Y30.958
G1 F1200 X63.776 Y41.997 E128.63245
G0 F1800 X64.083 Y41.809
G1 F1200 X53.025 Y30.752 E129.2309
G0 F1800 X53.315 Y30.546
G1 F1200 X64.39 Y41.621 E129.8303
G0 F1800 X64.697 Y41.433
G1 F1200 X53.603 Y30.339 E130.43073
G0 F1800 X53.892 Y30.134
G1 F1200 X65.004 Y41.245 E131.0321
G0 F1800 X65.311 Y41.057
G1 F1200 X54.181 Y29.927 E131.63448
G0 F1800 X54.47 Y29.721
G1 F1200 X65.618 Y40.869 E132.23783
G0 F1800 X65.924 Y40.681
G1 F1200 X54.759 Y29.515 E132.84213
G0 F1800 X55.048 Y29.309
G1 F1200 X66.231 Y40.493 E133.4474
G0 F1800 X66.538 Y40.305
G1 F1200 X55.353 Y29.119 E134.05278
G0 F1800 X55.659 Y28.931
G1 F1200 X66.845 Y40.116 E134.65816
G0 F1800 X67.152 Y39.928
G1 F1200 X55.966 Y28.743 E135.26354
G0 F1800 X56.273 Y28.555
G1 F1200 X67.459 Y39.74 E135.86892
G0 F1800 X67.765 Y39.552
G1 F1200 X56.58 Y28.367 E136.47428
G0 F1800 X56.887 Y28.178
G1 F1200 X68.072 Y39.363 E137.07963
G0 F1800 X68.379 Y39.175
G1 F1200 X57.194 Y27.99 E137.68498
G0 F1800 X57.501 Y27.802
G1 F1200 X68.686 Y38.987 E138.29033
G0 F1800 X68.993 Y38.799
G1 F1200 X57.808 Y27.614 E138.89569
G0 F1800 X58.114 Y27.426
G1 F1200 X69.3 Y38.611 E139.50107
G0 F1800 X69.606 Y38.423
G1 F1200 X58.421 Y27.238 E140.10642
G0 F1800 X58.728 Y27.05
G1 F1200 X69.913 Y38.235 E140.71177
G0 F1800 X70.227 Y38.053
